( pcb2gcode 2.5.0 )
( Software-independent Gcode )

G94 ( Inches per minute feed rate. )
G20 ( Units == INCHES. )

G90 ( Absolute coordinates. )
G00 S24000 ( RPM spindle speed. )
G01 F31.49606 ( Feedrate. )


G00 Z2.00000 (Retract to tool change height)
T0
M5      (Spindle stop.)
G04 P1.00000 (Wait for spindle to stop)
(MSG, Change tool bit to mill diameter 0.00394in)
M0      (Temporary machine stop.)
M3 ( Spindle on clockwise. )
G04 P1.00000 (Wait for spindle to get up to speed)
G04 P0 ( dwell for no time -- G64 should not smooth over this point )
G00 Z0.01181 ( retract )

G00 X0.27132 Y0.73139 ( rapid move to begin. )
G01 F12.59843
( begin pre-milling-gcode )
M7
( end pre-milling-gcode )
( Mill infeed pass 1/1 )
G01 Z-0.00200
G04 P0 ( dwell for no time -- G64 should not smooth over this point )
G01 F31.49606
G01 X0.27132 Y0.73139
G01 X0.27132 Y0.78437
G01 X0.27171 Y0.78816
G01 X0.27376 Y0.79435
G01 X0.27717 Y0.79989
G01 X0.28177 Y0.80449
G01 X0.28730 Y0.80791
G01 X0.29348 Y0.80998
G01 X0.29733 Y0.81038
G01 X0.32865 Y0.81038
G01 X0.33245 Y0.80999
G01 X0.33864 Y0.80793
G01 X0.34418 Y0.80452
G01 X0.34879 Y0.79992
G01 X0.35057 Y0.79716
G01 X0.35314 Y0.79528
G01 X0.35418 Y0.79492
G01 X0.35697 Y0.79478
G01 X0.35805 Y0.79504
G01 X0.36071 Y0.79659
G01 X0.36438 Y0.80039
G01 X0.37086 Y0.80499
G01 X0.37810 Y0.80828
G01 X0.38583 Y0.81015
G01 X0.39378 Y0.81051
G01 X0.40165 Y0.80937
G01 X0.40916 Y0.80677
G01 X0.41604 Y0.80278
G01 X0.42205 Y0.79757
G01 X0.42696 Y0.79132
G01 X0.43060 Y0.78425
G01 X0.43284 Y0.77662
G01 X0.43340 Y0.77069
G01 X0.43340 Y0.74318
G01 X0.43187 Y0.73516
G01 X0.42890 Y0.72778
G01 X0.42458 Y0.72110
G01 X0.41908 Y0.71536
G01 X0.41260 Y0.71076
G01 X0.40536 Y0.70747
G01 X0.39763 Y0.70560
G01 X0.38969 Y0.70524
G01 X0.38182 Y0.70638
G01 X0.37431 Y0.70898
G01 X0.36742 Y0.71297
G01 X0.36136 Y0.71823
G01 X0.36004 Y0.71955
G01 X0.35724 Y0.72079
G01 X0.35651 Y0.72095
G01 X0.35338 Y0.72048
G01 X0.35238 Y0.72000
G01 X0.35010 Y0.71793
G01 X0.34881 Y0.71586
G01 X0.34421 Y0.71126
G01 X0.33868 Y0.70784
G01 X0.33250 Y0.70577
G01 X0.32865 Y0.70538
G01 X0.29733 Y0.70538
G01 X0.29353 Y0.70576
G01 X0.28734 Y0.70782
G01 X0.28181 Y0.71123
G01 X0.27720 Y0.71583
G01 X0.27378 Y0.72136
G01 X0.27172 Y0.72754
G01 X0.27132 Y0.73139
G01 X0.27328 Y0.73149
G01 X0.27328 Y0.78426
G01 X0.27363 Y0.78775
G01 X0.27554 Y0.79352
G01 X0.27872 Y0.79867
G01 X0.28299 Y0.80295
G01 X0.28813 Y0.80613
G01 X0.29390 Y0.80807
G01 X0.29743 Y0.80841
G01 X0.32855 Y0.80841
G01 X0.33204 Y0.80807
G01 X0.33781 Y0.80615
G01 X0.34296 Y0.80298
G01 X0.34724 Y0.79868
G01 X0.34914 Y0.79581
G01 X0.35199 Y0.79368
G01 X0.35334 Y0.79306
G01 X0.35688 Y0.79281
G01 X0.35835 Y0.79302
G01 X0.36192 Y0.79504
G01 X0.36566 Y0.79890
G01 X0.37184 Y0.80329
G01 X0.37874 Y0.80642
G01 X0.38611 Y0.80820
G01 X0.39368 Y0.80854
G01 X0.40118 Y0.80745
G01 X0.40833 Y0.80497
G01 X0.41489 Y0.80117
G01 X0.42062 Y0.79621
G01 X0.42530 Y0.79025
G01 X0.42876 Y0.78351
G01 X0.43090 Y0.77624
G01 X0.43144 Y0.77059
G01 X0.43144 Y0.74336
G01 X0.42997 Y0.73571
G01 X0.42714 Y0.72869
G01 X0.42303 Y0.72233
G01 X0.41779 Y0.71685
G01 X0.41161 Y0.71247
G01 X0.40472 Y0.70934
G01 X0.39735 Y0.70756
G01 X0.38978 Y0.70720
G01 X0.38228 Y0.70829
G01 X0.37512 Y0.71077
G01 X0.36856 Y0.71457
G01 X0.36107 Y0.72123
G01 X0.35802 Y0.72259
G01 X0.35657 Y0.72292
G01 X0.35306 Y0.72242
G01 X0.35166 Y0.72191
G01 X0.34859 Y0.71919
G01 X0.34725 Y0.71709
G01 X0.34299 Y0.71280
G01 X0.33785 Y0.70962
G01 X0.33209 Y0.70770
G01 X0.32855 Y0.70734
G01 X0.29743 Y0.70734
G01 X0.29394 Y0.70768
G01 X0.28817 Y0.70960
G01 X0.28303 Y0.71277
G01 X0.27875 Y0.71705
G01 X0.27556 Y0.72219
G01 X0.27364 Y0.72795
G01 X0.27328 Y0.73149
G01 X0.27525 Y0.73159
G01 X0.27525 Y0.78416
G01 X0.27557 Y0.78733
G01 X0.27734 Y0.79268
G01 X0.28027 Y0.79744
G01 X0.28422 Y0.80140
G01 X0.28897 Y0.80434
G01 X0.29431 Y0.80613
G01 X0.29753 Y0.80644
G01 X0.32845 Y0.80644
G01 X0.33163 Y0.80614
G01 X0.33697 Y0.80435
G01 X0.34173 Y0.80143
G01 X0.34569 Y0.79744
G01 X0.34771 Y0.79446
G01 X0.35085 Y0.79208
G01 X0.35182 Y0.79152
G01 X0.35288 Y0.79115
G01 X0.35678 Y0.79085
G01 X0.35790 Y0.79090
G01 X0.35899 Y0.79116
G01 X0.36244 Y0.79302
G01 X0.36376 Y0.79406
G01 X0.36696 Y0.79740
G01 X0.37283 Y0.80157
G01 X0.37939 Y0.80455
G01 X0.38639 Y0.80624
G01 X0.39358 Y0.80657
G01 X0.40071 Y0.80553
G01 X0.40751 Y0.80317
G01 X0.41375 Y0.79956
G01 X0.41918 Y0.79484
G01 X0.42363 Y0.78918
G01 X0.42693 Y0.78278
G01 X0.42896 Y0.77587
G01 X0.42947 Y0.77050
G01 X0.42947 Y0.74355
G01 X0.42807 Y0.73627
G01 X0.42539 Y0.72960
G01 X0.42148 Y0.72355
G01 X0.41650 Y0.71835
G01 X0.41063 Y0.71419
G01 X0.40407 Y0.71121
G01 X0.39707 Y0.70952
G01 X0.38988 Y0.70918
G01 X0.38275 Y0.71021
G01 X0.37595 Y0.71257
G01 X0.36971 Y0.71618
G01 X0.36210 Y0.72291
G01 X0.35881 Y0.72440
G01 X0.35774 Y0.72475
G01 X0.35662 Y0.72489
G01 X0.35275 Y0.72436
G01 X0.35166 Y0.72408
G01 X0.35065 Y0.72359
G01 X0.34708 Y0.72045
G01 X0.34570 Y0.71832
G01 X0.34176 Y0.71435
G01 X0.33701 Y0.71141
G01 X0.33167 Y0.70963
G01 X0.32845 Y0.70931
G01 X0.29753 Y0.70931
G01 X0.29436 Y0.70961
G01 X0.28901 Y0.71140
G01 X0.28425 Y0.71433
G01 X0.28030 Y0.71828
G01 X0.27736 Y0.72303
G01 X0.27558 Y0.72837
G01 X0.27525 Y0.73159
G01 X0.27722 Y0.73169
G01 X0.27722 Y0.78406
G01 X0.27750 Y0.78692
G01 X0.27914 Y0.79184
G01 X0.28183 Y0.79621
G01 X0.28545 Y0.79984
G01 X0.28982 Y0.80254
G01 X0.29473 Y0.80420
G01 X0.29763 Y0.80447
G01 X0.32835 Y0.80447
G01 X0.33121 Y0.80420
G01 X0.33613 Y0.80256
G01 X0.34051 Y0.79987
G01 X0.34415 Y0.79621
G01 X0.34628 Y0.79310
G01 X0.34970 Y0.79048
G01 X0.35099 Y0.78973
G01 X0.35241 Y0.78924
G01 X0.35668 Y0.78888
G01 X0.35818 Y0.78895
G01 X0.35963 Y0.78930
G01 X0.36342 Y0.79131
G01 X0.36518 Y0.79269
G01 X0.36825 Y0.79591
G01 X0.37382 Y0.79986
G01 X0.38003 Y0.80268
G01 X0.38667 Y0.80428
G01 X0.39349 Y0.80459
G01 X0.40024 Y0.80361
G01 X0.40669 Y0.80137
G01 X0.41260 Y0.79795
G01 X0.41775 Y0.79348
G01 X0.42197 Y0.78811
G01 X0.42509 Y0.78205
G01 X0.42701 Y0.77550
G01 X0.42750 Y0.77041
G01 X0.42750 Y0.74374
G01 X0.42618 Y0.73683
G01 X0.42363 Y0.73051
G01 X0.41993 Y0.72478
G01 X0.41521 Y0.71985
G01 X0.40964 Y0.71590
G01 X0.40343 Y0.71308
G01 X0.39679 Y0.71148
G01 X0.38998 Y0.71115
G01 X0.38322 Y0.71213
G01 X0.37677 Y0.71437
G01 X0.37086 Y0.71779
G01 X0.36548 Y0.72247
G01 X0.36402 Y0.72395
G01 X0.36313 Y0.72458
G01 X0.35959 Y0.72620
G01 X0.35817 Y0.72667
G01 X0.35668 Y0.72685
G01 X0.35243 Y0.72631
G01 X0.35098 Y0.72593
G01 X0.34963 Y0.72528
G01 X0.34635 Y0.72252
G01 X0.34557 Y0.72171
G01 X0.34414 Y0.71955
G01 X0.34054 Y0.71590
G01 X0.33617 Y0.71321
G01 X0.33125 Y0.71156
G01 X0.32835 Y0.71128
G01 X0.29763 Y0.71128
G01 X0.29477 Y0.71156
G01 X0.28985 Y0.71319
G01 X0.28548 Y0.71588
G01 X0.28185 Y0.71951
G01 X0.27915 Y0.72387
G01 X0.27751 Y0.72879
G01 X0.27722 Y0.73169
G01 X0.27843 Y0.73176
G01 X0.27843 Y0.78405
G01 X0.27873 Y0.78673
G01 X0.28022 Y0.79125
G01 X0.28276 Y0.79536
G01 X0.28448 Y0.79724
G01 X0.28630 Y0.79890
G01 X0.29030 Y0.80139
G01 X0.29495 Y0.80292
G01 X0.29767 Y0.80328
G01 X0.32825 Y0.80329
G01 X0.33005 Y0.80311
G01 X0.33216 Y0.80261
G01 X0.33554 Y0.80144
G01 X0.33966 Y0.79893
G01 X0.34313 Y0.79549
G01 X0.34692 Y0.79005
G01 X0.34856 Y0.78888
G01 X0.35017 Y0.78794
G01 X0.35194 Y0.78732
G01 X0.35379 Y0.78705
G01 X0.35658 Y0.78692
G01 X0.35845 Y0.78700
G01 X0.36027 Y0.78744
G01 X0.36248 Y0.78850
G01 X0.36608 Y0.79186
G01 X0.36913 Y0.79501
G01 X0.37450 Y0.79881
G01 X0.38050 Y0.80153
G01 X0.38677 Y0.80302
G01 X0.39345 Y0.80331
G01 X0.39646 Y0.80297
G01 X0.39996 Y0.80234
G01 X0.40343 Y0.80126
G01 X0.40618 Y0.80017
G01 X0.40993 Y0.79813
G01 X0.41181 Y0.79692
G01 X0.41409 Y0.79511
G01 X0.41679 Y0.79261
G01 X0.41908 Y0.78989
G01 X0.42087 Y0.78744
G01 X0.42394 Y0.78150
G01 X0.42579 Y0.77533
G01 X0.42629 Y0.77035
G01 X0.42635 Y0.74705
G01 X0.42620 Y0.74381
G01 X0.42577 Y0.74089
G01 X0.42494 Y0.73723
G01 X0.42292 Y0.73197
G01 X0.41913 Y0.72581
G01 X0.41572 Y0.72210
G01 X0.41433 Y0.72074
G01 X0.40896 Y0.71694
G01 X0.40296 Y0.71423
G01 X0.39669 Y0.71274
G01 X0.39011 Y0.71244
G01 X0.38700 Y0.71278
G01 X0.38208 Y0.71379
G01 X0.37736 Y0.71554
G01 X0.37538 Y0.71653
G01 X0.37158 Y0.71889
G01 X0.36780 Y0.72203
G01 X0.36264 Y0.72702
G01 X0.36037 Y0.72801
G01 X0.35859 Y0.72859
G01 X0.35674 Y0.72882
G01 X0.35487 Y0.72870
G01 X0.35211 Y0.72825
G01 X0.35030 Y0.72777
G01 X0.34861 Y0.72696
G01 X0.34695 Y0.72571
G01 X0.34312 Y0.72026
G01 X0.33969 Y0.71684
G01 X0.33567 Y0.71438
G01 X0.33103 Y0.71283
G01 X0.32835 Y0.71246
G01 X0.29772 Y0.71246
G01 X0.29509 Y0.71276
G01 X0.29045 Y0.71432
G01 X0.28788 Y0.71576
G01 X0.28624 Y0.71690
G01 X0.28287 Y0.72021
G01 X0.28023 Y0.72447
G01 X0.27872 Y0.72914
G01 X0.27843 Y0.73176
G01 X0.28034 Y0.73328
G01 X0.28039 Y0.78387
G01 X0.28065 Y0.78625
G01 X0.28205 Y0.79048
G01 X0.28436 Y0.79421
G01 X0.28587 Y0.79581
G01 X0.28745 Y0.79729
G01 X0.29118 Y0.79960
G01 X0.29542 Y0.80101
G01 X0.29780 Y0.80132
G01 X0.32781 Y0.80132
G01 X0.33053 Y0.80102
G01 X0.33477 Y0.79961
G01 X0.33851 Y0.79731
G01 X0.34164 Y0.79420
G01 X0.34533 Y0.78888
G01 X0.34603 Y0.78657
G01 X0.34646 Y0.78248
G01 X0.34646 Y0.73327
G01 X0.34619 Y0.73019
G01 X0.34530 Y0.72678
G01 X0.34163 Y0.72155
G01 X0.33862 Y0.71853
G01 X0.33480 Y0.71615
G01 X0.33057 Y0.71474
G01 X0.32817 Y0.71443
G01 X0.29871 Y0.71441
G01 X0.29622 Y0.71461
G01 X0.29436 Y0.71503
G01 X0.29068 Y0.71642
G01 X0.28747 Y0.71844
G01 X0.28587 Y0.71994
G01 X0.28438 Y0.72151
G01 X0.28207 Y0.72524
G01 X0.28066 Y0.72947
G01 X0.28034 Y0.73328
G01 X0.28150 Y0.73327
G01 X0.28154 Y0.78330
G01 X0.28188 Y0.78616
G01 X0.28273 Y0.78892
G01 X0.28340 Y0.79042
G01 X0.28488 Y0.79289
G01 X0.28736 Y0.79565
G01 X0.29035 Y0.79782
G01 X0.29374 Y0.79933
G01 X0.29655 Y0.79997
G01 X0.29923 Y0.80020
G01 X0.32781 Y0.80014
G01 X0.33145 Y0.79954
G01 X0.33302 Y0.79903
G01 X0.33563 Y0.79782
G01 X0.33863 Y0.79565
G01 X0.34110 Y0.79289
G01 X0.34258 Y0.79042
G01 X0.34325 Y0.78892
G01 X0.34410 Y0.78616
G01 X0.34449 Y0.78248
G01 X0.34449 Y0.73327
G01 X0.34423 Y0.73040
G01 X0.34389 Y0.72879
G01 X0.34296 Y0.72606
G01 X0.34155 Y0.72355
G01 X0.34059 Y0.72221
G01 X0.33863 Y0.72010
G01 X0.33563 Y0.71793
G01 X0.33225 Y0.71642
G01 X0.32944 Y0.71578
G01 X0.32781 Y0.71561
G01 X0.29777 Y0.71562
G01 X0.29453 Y0.71621
G01 X0.29297 Y0.71671
G01 X0.29035 Y0.71793
G01 X0.28736 Y0.72010
G01 X0.28540 Y0.72221
G01 X0.28443 Y0.72355
G01 X0.28303 Y0.72606
G01 X0.28188 Y0.72958
G01 X0.28150 Y0.73327
G01 X0.28346 Y0.73327
G01 X0.28350 Y0.78310
G01 X0.28381 Y0.78576
G01 X0.28460 Y0.78831
G01 X0.28647 Y0.79174
G01 X0.28867 Y0.79418
G01 X0.29134 Y0.79612
G01 X0.29435 Y0.79746
G01 X0.29696 Y0.79805
G01 X0.29922 Y0.79823
G01 X0.32781 Y0.79817
G01 X0.32903 Y0.79805
G01 X0.33164 Y0.79746
G01 X0.33409 Y0.79640
G01 X0.33731 Y0.79418
G01 X0.33951 Y0.79174
G01 X0.34088 Y0.78944
G01 X0.34138 Y0.78831
G01 X0.34227 Y0.78514
G01 X0.34252 Y0.78248
G01 X0.34252 Y0.73327
G01 X0.34201 Y0.72940
G01 X0.34116 Y0.72686
G01 X0.33985 Y0.72453
G01 X0.33731 Y0.72157
G01 X0.33465 Y0.71963
G01 X0.33164 Y0.71829
G01 X0.32903 Y0.71770
G01 X0.32781 Y0.71757
G01 X0.29787 Y0.71758
G01 X0.29494 Y0.71813
G01 X0.29377 Y0.71851
G01 X0.29134 Y0.71963
G01 X0.28867 Y0.72157
G01 X0.28647 Y0.72401
G01 X0.28511 Y0.72631
G01 X0.28460 Y0.72744
G01 X0.28371 Y0.73060
G01 X0.28346 Y0.73327
G01 X0.28543 Y0.73327
G01 X0.28545 Y0.78289
G01 X0.28573 Y0.78535
G01 X0.28648 Y0.78770
G01 X0.28806 Y0.79058
G01 X0.28999 Y0.79272
G01 X0.29232 Y0.79441
G01 X0.29495 Y0.79559
G01 X0.29736 Y0.79612
G01 X0.29922 Y0.79626
G01 X0.32862 Y0.79612
G01 X0.33103 Y0.79559
G01 X0.33329 Y0.79460
G01 X0.33599 Y0.79272
G01 X0.33792 Y0.79058
G01 X0.33917 Y0.78845
G01 X0.34031 Y0.78494
G01 X0.34055 Y0.78248
G01 X0.34055 Y0.73327
G01 X0.34014 Y0.73001
G01 X0.33936 Y0.72766
G01 X0.33792 Y0.72517
G01 X0.33599 Y0.72303
G01 X0.33366 Y0.72134
G01 X0.33103 Y0.72016
G01 X0.32822 Y0.71956
G01 X0.29798 Y0.71955
G01 X0.29457 Y0.72031
G01 X0.29232 Y0.72134
G01 X0.28999 Y0.72303
G01 X0.28806 Y0.72517
G01 X0.28681 Y0.72730
G01 X0.28567 Y0.73081
G01 X0.28543 Y0.73327
G01 X0.28740 Y0.73327
G01 X0.28766 Y0.73081
G01 X0.28842 Y0.72846
G01 X0.28966 Y0.72633
G01 X0.29116 Y0.72464
G01 X0.29349 Y0.72295
G01 X0.29556 Y0.72204
G01 X0.29808 Y0.72151
G01 X0.32801 Y0.72152
G01 X0.33042 Y0.72204
G01 X0.33268 Y0.72304
G01 X0.33467 Y0.72449
G01 X0.33633 Y0.72633
G01 X0.33756 Y0.72846
G01 X0.33827 Y0.73061
G01 X0.33858 Y0.73327
G01 X0.33858 Y0.78248
G01 X0.33836 Y0.78473
G01 X0.33747 Y0.78747
G01 X0.33633 Y0.78942
G01 X0.33467 Y0.79126
G01 X0.33249 Y0.79280
G01 X0.33042 Y0.79371
G01 X0.32801 Y0.79423
G01 X0.29808 Y0.79424
G01 X0.29556 Y0.79371
G01 X0.29331 Y0.79271
G01 X0.29131 Y0.79126
G01 X0.28966 Y0.78942
G01 X0.28842 Y0.78728
G01 X0.28771 Y0.78514
G01 X0.28740 Y0.78248
G01 X0.28740 Y0.73327
G04 P0 ( dwell for no time -- G64 should not smooth over this point )
G00 Z0.01181 ( retract )

G00 X0.35827 Y0.74705 ( rapid move to begin. )
G01 F12.59843
( begin pre-milling-gcode )
M7
( end pre-milling-gcode )
( Mill infeed pass 1/1 )
G01 Z-0.00200
G04 P0 ( dwell for no time -- G64 should not smooth over this point )
G01 F31.49606
G01 X0.35827 Y0.74705
G01 X0.35827 Y0.76870
G01 X0.35900 Y0.77566
G01 X0.36116 Y0.78231
G01 X0.36387 Y0.78711
G01 X0.36746 Y0.79045
G01 X0.37035 Y0.79346
G01 X0.37542 Y0.79707
G01 X0.38109 Y0.79964
G01 X0.38716 Y0.80108
G01 X0.39335 Y0.80134
G01 X0.39614 Y0.80103
G01 X0.39948 Y0.80044
G01 X0.40277 Y0.79941
G01 X0.40533 Y0.79839
G01 X0.40893 Y0.79644
G01 X0.41069 Y0.79529
G01 X0.41280 Y0.79362
G01 X0.41538 Y0.79124
G01 X0.41876 Y0.78705
G01 X0.42113 Y0.78288
G01 X0.42208 Y0.78087
G01 X0.42385 Y0.77489
G01 X0.42438 Y0.76869
G01 X0.42435 Y0.74604
G01 X0.42425 Y0.74405
G01 X0.42343 Y0.73925
G01 X0.42305 Y0.73777
G01 X0.42113 Y0.73281
G01 X0.41871 Y0.72868
G01 X0.41755 Y0.72699
G01 X0.41311 Y0.72229
G01 X0.40889 Y0.71926
G01 X0.40722 Y0.71829
G01 X0.40238 Y0.71611
G01 X0.39630 Y0.71467
G01 X0.39011 Y0.71441
G01 X0.38733 Y0.71472
G01 X0.38263 Y0.71569
G01 X0.37813 Y0.71736
G01 X0.37453 Y0.71931
G01 X0.37277 Y0.72046
G01 X0.36913 Y0.72349
G01 X0.36395 Y0.72849
G01 X0.36116 Y0.73344
G01 X0.35927 Y0.73910
G01 X0.35884 Y0.74111
G01 X0.35832 Y0.74602
G01 X0.35827 Y0.74705
G01 X0.36024 Y0.74705
G01 X0.36024 Y0.76870
G01 X0.36092 Y0.77525
G01 X0.36266 Y0.78074
G01 X0.36333 Y0.78225
G01 X0.36625 Y0.78721
G01 X0.37007 Y0.79152
G01 X0.37130 Y0.79263
G01 X0.37529 Y0.79553
G01 X0.37672 Y0.79635
G01 X0.38200 Y0.79866
G01 X0.38844 Y0.80002
G01 X0.39420 Y0.80007
G01 X0.39584 Y0.79990
G01 X0.40146 Y0.79866
G01 X0.40748 Y0.79598
G01 X0.41281 Y0.79211
G01 X0.41721 Y0.78721
G01 X0.42050 Y0.78151
G01 X0.42233 Y0.77605
G01 X0.42267 Y0.77444
G01 X0.42323 Y0.76870
G01 X0.42323 Y0.74705
G01 X0.42267 Y0.74131
G01 X0.42233 Y0.73970
G01 X0.42050 Y0.73424
G01 X0.41766 Y0.72923
G01 X0.41669 Y0.72789
G01 X0.41281 Y0.72364
G01 X0.40817 Y0.72022
G01 X0.40675 Y0.71940
G01 X0.40146 Y0.71709
G01 X0.39584 Y0.71585
G01 X0.39420 Y0.71568
G01 X0.38844 Y0.71572
G01 X0.38280 Y0.71688
G01 X0.38123 Y0.71739
G01 X0.37598 Y0.71977
G01 X0.37130 Y0.72312
G01 X0.37007 Y0.72422
G01 X0.36625 Y0.72854
G01 X0.36333 Y0.73350
G01 X0.36266 Y0.73501
G01 X0.36092 Y0.74050
G01 X0.36024 Y0.74705
G01 X0.36220 Y0.74705
G01 X0.36220 Y0.76870
G01 X0.36275 Y0.77423
G01 X0.36301 Y0.77544
G01 X0.36476 Y0.78071
G01 X0.36784 Y0.78606
G01 X0.37197 Y0.79064
G01 X0.37645 Y0.79394
G01 X0.37752 Y0.79455
G01 X0.38261 Y0.79678
G01 X0.38803 Y0.79797
G01 X0.38926 Y0.79810
G01 X0.39482 Y0.79807
G01 X0.40086 Y0.79678
G01 X0.40650 Y0.79427
G01 X0.41101 Y0.79103
G01 X0.41193 Y0.79021
G01 X0.41562 Y0.78606
G01 X0.41843 Y0.78126
G01 X0.41893 Y0.78013
G01 X0.42061 Y0.77484
G01 X0.42126 Y0.76870
G01 X0.42126 Y0.74705
G01 X0.42071 Y0.74152
G01 X0.42045 Y0.74031
G01 X0.41871 Y0.73504
G01 X0.41562 Y0.72969
G01 X0.41193 Y0.72554
G01 X0.41101 Y0.72472
G01 X0.40650 Y0.72148
G01 X0.40086 Y0.71897
G01 X0.39543 Y0.71778
G01 X0.39420 Y0.71765
G01 X0.38865 Y0.71768
G01 X0.38320 Y0.71881
G01 X0.38203 Y0.71919
G01 X0.37697 Y0.72148
G01 X0.37245 Y0.72472
G01 X0.37154 Y0.72554
G01 X0.36784 Y0.72969
G01 X0.36504 Y0.73449
G01 X0.36454 Y0.73562
G01 X0.36285 Y0.74091
G01 X0.36220 Y0.74705
G01 X0.36417 Y0.74705
G01 X0.36417 Y0.76870
G01 X0.36471 Y0.77402
G01 X0.36656 Y0.77991
G01 X0.36944 Y0.78490
G01 X0.37329 Y0.78918
G01 X0.37761 Y0.79234
G01 X0.38322 Y0.79491
G01 X0.38926 Y0.79613
G01 X0.39461 Y0.79611
G01 X0.40025 Y0.79491
G01 X0.40586 Y0.79234
G01 X0.41017 Y0.78918
G01 X0.41377 Y0.78522
G01 X0.41691 Y0.77991
G01 X0.41869 Y0.77443
G01 X0.41929 Y0.76870
G01 X0.41929 Y0.74705
G01 X0.41875 Y0.74173
G01 X0.41691 Y0.73584
G01 X0.41403 Y0.73085
G01 X0.40985 Y0.72631
G01 X0.40551 Y0.72318
G01 X0.40063 Y0.72099
G01 X0.39461 Y0.71964
G01 X0.38844 Y0.71970
G01 X0.38322 Y0.72084
G01 X0.37832 Y0.72299
G01 X0.37329 Y0.72657
G01 X0.36921 Y0.73119
G01 X0.36656 Y0.73584
G01 X0.36478 Y0.74132
G01 X0.36417 Y0.74705
G01 X0.36614 Y0.74705
G01 X0.36670 Y0.74173
G01 X0.36828 Y0.73683
G01 X0.37116 Y0.73185
G01 X0.37461 Y0.72803
G01 X0.37894 Y0.72489
G01 X0.38382 Y0.72271
G01 X0.38885 Y0.72163
G01 X0.39441 Y0.72160
G01 X0.39983 Y0.72278
G01 X0.40453 Y0.72489
G01 X0.40870 Y0.72790
G01 X0.41244 Y0.73201
G01 X0.41518 Y0.73683
G01 X0.41676 Y0.74173
G01 X0.41731 Y0.74684
G01 X0.41732 Y0.76870
G01 X0.41676 Y0.77402
G01 X0.41511 Y0.77911
G01 X0.41231 Y0.78390
G01 X0.40886 Y0.78772
G01 X0.40470 Y0.79075
G01 X0.39964 Y0.79304
G01 X0.39420 Y0.79416
G01 X0.38906 Y0.79415
G01 X0.38382 Y0.79304
G01 X0.37876 Y0.79075
G01 X0.37461 Y0.78772
G01 X0.37103 Y0.78374
G01 X0.36835 Y0.77911
G01 X0.36667 Y0.77382
G01 X0.36614 Y0.76870
G01 X0.36614 Y0.74705
G04 P0 ( dwell for no time -- G64 should not smooth over this point )
G00 Z0.01181 ( retract )

G00 X0.53820 Y0.64917 ( rapid move to begin. )
G01 F12.59843
( begin pre-milling-gcode )
M7
( end pre-milling-gcode )
( Mill infeed pass 1/1 )
G01 Z-0.00200
G04 P0 ( dwell for no time -- G64 should not smooth over this point )
G01 F31.49606
G01 X0.53820 Y0.64917
G01 X0.53907 Y0.65776
G01 X0.53975 Y0.66084
G01 X0.54128 Y0.66613
G01 X0.54285 Y0.67035
G01 X0.54456 Y0.67407
G01 X0.54893 Y0.68145
G01 X0.55001 Y0.68279
G01 X0.55460 Y0.68809
G01 X0.55832 Y0.69164
G01 X0.56107 Y0.69384
G01 X0.56641 Y0.69753
G01 X0.56815 Y0.69861
G01 X0.57599 Y0.70218
G01 X0.57948 Y0.70333
G01 X0.58432 Y0.70455
G01 X0.58931 Y0.70543
G01 X0.59289 Y0.70577
G01 X0.60146 Y0.70572
G01 X0.60362 Y0.70544
G01 X0.60999 Y0.70424
G01 X0.61549 Y0.70266
G01 X0.61831 Y0.70159
G01 X0.62600 Y0.69791
G01 X0.63311 Y0.69288
G01 X0.63619 Y0.69019
G01 X0.63938 Y0.68692
G01 X0.64289 Y0.68276
G01 X0.64474 Y0.68024
G01 X0.64923 Y0.67239
G01 X0.65108 Y0.66886
G01 X0.65215 Y0.66731
G01 X0.65322 Y0.66643
G01 X0.65469 Y0.66560
G01 X0.65723 Y0.66444
G01 X0.65900 Y0.66383
G01 X0.66085 Y0.66357
G01 X0.66272 Y0.66365
G01 X0.66549 Y0.66405
G01 X0.66731 Y0.66449
G01 X0.66901 Y0.66527
G01 X0.67053 Y0.66635
G01 X0.67264 Y0.66818
G01 X0.67394 Y0.66954
G01 X0.67487 Y0.67099
G01 X0.67542 Y0.67285
G01 X0.67601 Y0.67834
G01 X0.67601 Y0.69488
G01 X0.67615 Y0.69712
G01 X0.67730 Y0.70020
G01 X0.67918 Y0.70271
G01 X0.68169 Y0.70459
G01 X0.68477 Y0.70574
G01 X0.68701 Y0.70588
G01 X0.78150 Y0.70588
G01 X0.78373 Y0.70571
G01 X0.78693 Y0.70452
G01 X0.78932 Y0.70271
G01 X0.79122 Y0.70020
G01 X0.79232 Y0.69712
G01 X0.79250 Y0.69488
G01 X0.79247 Y0.59901
G01 X0.79229 Y0.59806
G01 X0.79113 Y0.59496
G01 X0.78932 Y0.59257
G01 X0.78682 Y0.59067
G01 X0.78373 Y0.58957
G01 X0.78150 Y0.58939
G01 X0.68701 Y0.58940
G01 X0.68477 Y0.58953
G01 X0.68169 Y0.59069
G01 X0.67918 Y0.59257
G01 X0.67730 Y0.59508
G01 X0.67615 Y0.59816
G01 X0.67601 Y0.60039
G01 X0.67601 Y0.61732
G01 X0.67567 Y0.62149
G01 X0.67494 Y0.62453
G01 X0.67209 Y0.62801
G01 X0.67073 Y0.62930
G01 X0.66915 Y0.63030
G01 X0.66741 Y0.63099
G01 X0.66473 Y0.63176
G01 X0.66289 Y0.63211
G01 X0.66102 Y0.63210
G01 X0.65918 Y0.63173
G01 X0.65650 Y0.63093
G01 X0.65477 Y0.63023
G01 X0.65320 Y0.62921
G01 X0.65181 Y0.62786
G01 X0.64758 Y0.61983
G01 X0.64304 Y0.61259
G01 X0.63732 Y0.60615
G01 X0.63462 Y0.60367
G01 X0.63063 Y0.60054
G01 X0.62648 Y0.59776
G01 X0.62335 Y0.59598
G01 X0.61539 Y0.59250
G01 X0.60711 Y0.59042
G01 X0.60173 Y0.58965
G01 X0.59843 Y0.58947
G01 X0.58978 Y0.58970
G01 X0.58145 Y0.59138
G01 X0.57746 Y0.59260
G01 X0.57328 Y0.59426
G01 X0.56643 Y0.59770
G01 X0.55823 Y0.60364
G01 X0.55252 Y0.60948
G01 X0.54998 Y0.61257
G01 X0.54737 Y0.61635
G01 X0.54319 Y0.62386
G01 X0.54279 Y0.62497
G01 X0.54035 Y0.63210
G01 X0.53930 Y0.63657
G01 X0.53869 Y0.64059
G01 X0.53823 Y0.64657
G01 X0.53820 Y0.64917
G01 X0.53100 Y0.64935
G01 X0.53147 Y0.63966
G01 X0.53336 Y0.63014
G01 X0.53664 Y0.62101
G01 X0.54123 Y0.61246
G01 X0.54704 Y0.60468
G01 X0.55380 Y0.59798
G01 X0.56176 Y0.59211
G01 X0.57035 Y0.58759
G01 X0.57951 Y0.58439
G01 X0.58904 Y0.58258
G01 X0.59874 Y0.58220
G01 X0.60249 Y0.58261
G01 X0.60839 Y0.58326
G01 X0.61777 Y0.58573
G01 X0.62669 Y0.58956
G01 X0.63494 Y0.59467
G01 X0.64235 Y0.60094
G01 X0.64875 Y0.60823
G01 X0.65400 Y0.61639
G01 X0.65601 Y0.62066
G01 X0.65783 Y0.62279
G01 X0.65841 Y0.62325
G01 X0.66144 Y0.62419
G01 X0.66218 Y0.62427
G01 X0.66523 Y0.62342
G01 X0.66590 Y0.62308
G01 X0.66801 Y0.62072
G01 X0.66845 Y0.61985
G01 X0.66896 Y0.61734
G01 X0.66896 Y0.59861
G01 X0.66918 Y0.59651
G01 X0.67101 Y0.59164
G01 X0.67411 Y0.58750
G01 X0.67825 Y0.58440
G01 X0.68312 Y0.58257
G01 X0.68522 Y0.58234
G01 X0.78328 Y0.58234
G01 X0.78538 Y0.58257
G01 X0.79025 Y0.58440
G01 X0.79439 Y0.58750
G01 X0.79749 Y0.59164
G01 X0.79932 Y0.59651
G01 X0.79955 Y0.59861
G01 X0.79955 Y0.69667
G01 X0.79932 Y0.69877
G01 X0.79749 Y0.70364
G01 X0.79439 Y0.70778
G01 X0.79025 Y0.71088
G01 X0.78538 Y0.71271
G01 X0.78328 Y0.71293
G01 X0.68522 Y0.71293
G01 X0.68312 Y0.71271
G01 X0.67825 Y0.71088
G01 X0.67411 Y0.70778
G01 X0.67101 Y0.70364
G01 X0.66918 Y0.69877
G01 X0.66896 Y0.69667
G01 X0.66896 Y0.67831
G01 X0.66809 Y0.67507
G01 X0.66749 Y0.67414
G01 X0.66507 Y0.67209
G01 X0.66437 Y0.67185
G01 X0.66123 Y0.67143
G01 X0.66050 Y0.67161
G01 X0.65796 Y0.67277
G01 X0.65719 Y0.67340
G01 X0.65577 Y0.67537
G01 X0.65074 Y0.68426
G01 X0.64473 Y0.69188
G01 X0.63766 Y0.69853
G01 X0.62969 Y0.70406
G01 X0.62098 Y0.70835
G01 X0.61174 Y0.71131
G01 X0.60216 Y0.71287
G01 X0.59246 Y0.71299
G01 X0.58284 Y0.71169
G01 X0.57352 Y0.70897
G01 X0.56471 Y0.70491
G01 X0.55659 Y0.69959
G01 X0.54935 Y0.69312
G01 X0.54315 Y0.68566
G01 X0.53811 Y0.67737
G01 X0.53436 Y0.66842
G01 X0.53197 Y0.65901
G01 X0.53100 Y0.64935
G01 X0.53297 Y0.64930
G01 X0.53342 Y0.63990
G01 X0.53526 Y0.63067
G01 X0.53844 Y0.62181
G01 X0.54289 Y0.61352
G01 X0.54852 Y0.60597
G01 X0.55508 Y0.59947
G01 X0.56280 Y0.59378
G01 X0.57113 Y0.58940
G01 X0.58002 Y0.58629
G01 X0.58927 Y0.58453
G01 X0.59867 Y0.58417
G01 X0.60803 Y0.58520
G01 X0.61713 Y0.58759
G01 X0.62578 Y0.59131
G01 X0.63378 Y0.59626
G01 X0.64097 Y0.60234
G01 X0.64717 Y0.60942
G01 X0.65226 Y0.61734
G01 X0.65418 Y0.62149
G01 X0.65687 Y0.62459
G01 X0.65819 Y0.62528
G01 X0.66087 Y0.62608
G01 X0.66236 Y0.62623
G01 X0.66578 Y0.62531
G01 X0.66710 Y0.62464
G01 X0.66949 Y0.62202
G01 X0.67018 Y0.62090
G01 X0.67037 Y0.62027
G01 X0.67092 Y0.61734
G01 X0.67090 Y0.59871
G01 X0.67111 Y0.59697
G01 X0.67273 Y0.59258
G01 X0.67550 Y0.58889
G01 X0.67919 Y0.58612
G01 X0.68358 Y0.58447
G01 X0.68533 Y0.58431
G01 X0.78318 Y0.58429
G01 X0.78492 Y0.58450
G01 X0.78931 Y0.58611
G01 X0.79300 Y0.58889
G01 X0.79578 Y0.59258
G01 X0.79739 Y0.59697
G01 X0.79760 Y0.59871
G01 X0.79760 Y0.69657
G01 X0.79739 Y0.69831
G01 X0.79578 Y0.70270
G01 X0.79300 Y0.70639
G01 X0.78931 Y0.70916
G01 X0.78492 Y0.71078
G01 X0.78318 Y0.71099
G01 X0.68533 Y0.71097
G01 X0.68358 Y0.71081
G01 X0.67919 Y0.70915
G01 X0.67550 Y0.70639
G01 X0.67273 Y0.70270
G01 X0.67111 Y0.69831
G01 X0.67090 Y0.69657
G01 X0.67092 Y0.67831
G01 X0.67076 Y0.67720
G01 X0.66998 Y0.67452
G01 X0.66929 Y0.67319
G01 X0.66605 Y0.67038
G01 X0.66465 Y0.66990
G01 X0.66113 Y0.66946
G01 X0.65969 Y0.66981
G01 X0.65714 Y0.67098
G01 X0.65603 Y0.67173
G01 X0.65559 Y0.67224
G01 X0.65406 Y0.67440
G01 X0.64910 Y0.68316
G01 X0.64328 Y0.69054
G01 X0.63642 Y0.69699
G01 X0.62869 Y0.70236
G01 X0.62025 Y0.70652
G01 X0.61128 Y0.70939
G01 X0.60199 Y0.71090
G01 X0.59258 Y0.71103
G01 X0.58325 Y0.70976
G01 X0.57421 Y0.70713
G01 X0.56567 Y0.70319
G01 X0.55779 Y0.69803
G01 X0.55077 Y0.69176
G01 X0.54475 Y0.68452
G01 X0.53987 Y0.67647
G01 X0.53623 Y0.66779
G01 X0.53391 Y0.65867
G01 X0.53297 Y0.64930
G01 X0.53494 Y0.64925
G01 X0.53538 Y0.64014
G01 X0.53716 Y0.63119
G01 X0.54024 Y0.62261
G01 X0.54456 Y0.61458
G01 X0.55001 Y0.60727
G01 X0.55637 Y0.60097
G01 X0.56385 Y0.59545
G01 X0.57192 Y0.59121
G01 X0.58053 Y0.58820
G01 X0.58949 Y0.58649
G01 X0.59860 Y0.58615
G01 X0.60767 Y0.58714
G01 X0.61649 Y0.58946
G01 X0.62487 Y0.59306
G01 X0.63262 Y0.59786
G01 X0.63958 Y0.60375
G01 X0.64560 Y0.61061
G01 X0.65053 Y0.61828
G01 X0.65252 Y0.62255
G01 X0.65565 Y0.62613
G01 X0.65659 Y0.62674
G01 X0.65763 Y0.62716
G01 X0.66031 Y0.62796
G01 X0.66141 Y0.62818
G01 X0.66253 Y0.62819
G01 X0.66632 Y0.62721
G01 X0.66737 Y0.62679
G01 X0.66831 Y0.62619
G01 X0.66913 Y0.62542
G01 X0.67156 Y0.62252
G01 X0.67229 Y0.62070
G01 X0.67286 Y0.61798
G01 X0.67289 Y0.59882
G01 X0.67301 Y0.59742
G01 X0.67448 Y0.59354
G01 X0.67691 Y0.59030
G01 X0.68015 Y0.58787
G01 X0.68404 Y0.58640
G01 X0.68543 Y0.58628
G01 X0.78307 Y0.58626
G01 X0.78446 Y0.58643
G01 X0.78836 Y0.58786
G01 X0.79159 Y0.59030
G01 X0.79403 Y0.59353
G01 X0.79546 Y0.59743
G01 X0.79563 Y0.59882
G01 X0.79563 Y0.69646
G01 X0.79546 Y0.69785
G01 X0.79403 Y0.70175
G01 X0.79159 Y0.70498
G01 X0.78836 Y0.70742
G01 X0.78446 Y0.70885
G01 X0.78307 Y0.70902
G01 X0.68543 Y0.70900
G01 X0.68404 Y0.70888
G01 X0.68015 Y0.70741
G01 X0.67691 Y0.70498
G01 X0.67448 Y0.70174
G01 X0.67301 Y0.69785
G01 X0.67289 Y0.69646
G01 X0.67289 Y0.67831
G01 X0.67265 Y0.67664
G01 X0.67145 Y0.67292
G01 X0.67084 Y0.67197
G01 X0.67007 Y0.67116
G01 X0.66704 Y0.66868
G01 X0.66602 Y0.66821
G01 X0.66493 Y0.66795
G01 X0.66104 Y0.66750
G01 X0.65993 Y0.66766
G01 X0.65887 Y0.66802
G01 X0.65633 Y0.66919
G01 X0.65466 Y0.67032
G01 X0.65234 Y0.67343
G01 X0.64746 Y0.68206
G01 X0.64182 Y0.68921
G01 X0.63518 Y0.69546
G01 X0.62768 Y0.70066
G01 X0.61951 Y0.70469
G01 X0.61082 Y0.70747
G01 X0.60182 Y0.70894
G01 X0.59270 Y0.70906
G01 X0.58366 Y0.70783
G01 X0.57490 Y0.70528
G01 X0.56662 Y0.70146
G01 X0.55899 Y0.69646
G01 X0.55219 Y0.69039
G01 X0.54636 Y0.68337
G01 X0.54163 Y0.67558
G01 X0.53810 Y0.66716
G01 X0.53585 Y0.65832
G01 X0.53494 Y0.64925
G01 X0.53691 Y0.64920
G01 X0.53734 Y0.64038
G01 X0.53906 Y0.63172
G01 X0.54204 Y0.62341
G01 X0.54622 Y0.61564
G01 X0.55150 Y0.60856
G01 X0.55765 Y0.60247
G01 X0.56490 Y0.59712
G01 X0.57270 Y0.59302
G01 X0.58104 Y0.59011
G01 X0.58971 Y0.58846
G01 X0.59854 Y0.58812
G01 X0.60731 Y0.58908
G01 X0.61585 Y0.59133
G01 X0.62396 Y0.59481
G01 X0.63146 Y0.59946
G01 X0.63820 Y0.60516
G01 X0.64402 Y0.61180
G01 X0.64880 Y0.61922
G01 X0.65086 Y0.62360
G01 X0.65335 Y0.62663
G01 X0.65442 Y0.62767
G01 X0.65568 Y0.62848
G01 X0.65707 Y0.62905
G01 X0.66121 Y0.63014
G01 X0.66271 Y0.63015
G01 X0.66418 Y0.62987
G01 X0.66826 Y0.62855
G01 X0.66952 Y0.62774
G01 X0.67061 Y0.62672
G01 X0.67323 Y0.62355
G01 X0.67383 Y0.62238
G01 X0.67422 Y0.62112
G01 X0.67481 Y0.61820
G01 X0.67494 Y0.59788
G01 X0.67623 Y0.59449
G01 X0.67831 Y0.59170
G01 X0.68110 Y0.58961
G01 X0.68449 Y0.58833
G01 X0.78297 Y0.58823
G01 X0.78400 Y0.58836
G01 X0.78740 Y0.58961
G01 X0.79019 Y0.59170
G01 X0.79228 Y0.59449
G01 X0.79353 Y0.59789
G01 X0.79366 Y0.59892
G01 X0.79366 Y0.69635
G01 X0.79353 Y0.69739
G01 X0.79228 Y0.70079
G01 X0.79019 Y0.70358
G01 X0.78740 Y0.70567
G01 X0.78400 Y0.70692
G01 X0.78297 Y0.70705
G01 X0.68449 Y0.70695
G01 X0.68110 Y0.70566
G01 X0.67831 Y0.70358
G01 X0.67623 Y0.70079
G01 X0.67494 Y0.69740
G01 X0.67486 Y0.67831
G01 X0.67454 Y0.67609
G01 X0.67320 Y0.67202
G01 X0.67239 Y0.67076
G01 X0.67135 Y0.66967
G01 X0.66802 Y0.66697
G01 X0.66666 Y0.66635
G01 X0.66244 Y0.66560
G01 X0.66095 Y0.66553
G01 X0.65947 Y0.66574
G01 X0.65805 Y0.66623
G01 X0.65551 Y0.66739
G01 X0.65433 Y0.66806
G01 X0.65329 Y0.66891
G01 X0.65063 Y0.67246
G01 X0.64582 Y0.68096
G01 X0.64037 Y0.68788
G01 X0.63394 Y0.69392
G01 X0.62668 Y0.69896
G01 X0.61877 Y0.70286
G01 X0.61036 Y0.70555
G01 X0.60165 Y0.70697
G01 X0.59282 Y0.70709
G01 X0.58407 Y0.70590
G01 X0.57560 Y0.70343
G01 X0.56758 Y0.69973
G01 X0.56020 Y0.69489
G01 X0.55361 Y0.68901
G01 X0.54796 Y0.68223
G01 X0.54338 Y0.67468
G01 X0.53997 Y0.66654
G01 X0.53780 Y0.65798
G01 X0.53691 Y0.64920
G01 X0.53820 Y0.64917
G01 X0.54020 Y0.64664
G01 X0.54065 Y0.64078
G01 X0.54165 Y0.63493
G01 X0.54225 Y0.63263
G01 X0.54498 Y0.62472
G01 X0.54903 Y0.61740
G01 X0.55034 Y0.61541
G01 X0.55402 Y0.61076
G01 X0.55807 Y0.60651
G01 X0.55973 Y0.60496
G01 X0.56667 Y0.59988
G01 X0.56920 Y0.59843
G01 X0.57404 Y0.59608
G01 X0.57811 Y0.59446
G01 X0.58187 Y0.59330
G01 X0.59009 Y0.59166
G01 X0.59156 Y0.59157
G01 X0.59844 Y0.59144
G01 X0.60153 Y0.59161
G01 X0.60669 Y0.59235
G01 X0.61289 Y0.59382
G01 X0.61478 Y0.59437
G01 X0.62369 Y0.59838
G01 X0.62950 Y0.60216
G01 X0.63334 Y0.60517
G01 X0.63588 Y0.60748
G01 X0.64145 Y0.61375
G01 X0.64588 Y0.62082
G01 X0.65010 Y0.62883
G01 X0.65229 Y0.63577
G01 X0.65349 Y0.64661
G01 X0.65349 Y0.64867
G01 X0.65229 Y0.65951
G01 X0.64987 Y0.66715
G01 X0.64261 Y0.67988
G01 X0.63790 Y0.68562
G01 X0.63484 Y0.68876
G01 X0.63188 Y0.69134
G01 X0.62504 Y0.69619
G01 X0.61751 Y0.69979
G01 X0.61286 Y0.70144
G01 X0.60959 Y0.70231
G01 X0.60138 Y0.70375
G01 X0.59161 Y0.70371
G01 X0.58477 Y0.70263
G01 X0.57808 Y0.70084
G01 X0.56913 Y0.69690
G01 X0.56221 Y0.69224
G01 X0.55806 Y0.68875
G01 X0.55601 Y0.68672
G01 X0.55151 Y0.68151
G01 X0.55034 Y0.67995
G01 X0.54632 Y0.67316
G01 X0.54467 Y0.66959
G01 X0.54314 Y0.66548
G01 X0.54118 Y0.65832
G01 X0.54016 Y0.64907
G01 X0.54020 Y0.64664
G01 X0.54134 Y0.64764
G01 X0.54254 Y0.63618
G01 X0.54581 Y0.62599
G01 X0.54648 Y0.62449
G01 X0.55142 Y0.61593
G01 X0.55238 Y0.61460
G01 X0.55958 Y0.60668
G01 X0.56890 Y0.59991
G01 X0.57942 Y0.59522
G01 X0.58988 Y0.59295
G01 X0.59152 Y0.59278
G01 X0.60222 Y0.59282
G01 X0.61269 Y0.59501
G01 X0.61426 Y0.59551
G01 X0.62402 Y0.59991
G01 X0.63270 Y0.60616
G01 X0.63392 Y0.60726
G01 X0.64105 Y0.61524
G01 X0.64643 Y0.62449
G01 X0.64710 Y0.62599
G01 X0.65037 Y0.63618
G01 X0.65157 Y0.64764
G01 X0.65037 Y0.65910
G01 X0.64710 Y0.66929
G01 X0.64643 Y0.67079
G01 X0.64105 Y0.68004
G01 X0.63392 Y0.68802
G01 X0.63270 Y0.68912
G01 X0.62402 Y0.69537
G01 X0.61349 Y0.70006
G01 X0.60303 Y0.70233
G01 X0.60139 Y0.70250
G01 X0.59069 Y0.70245
G01 X0.58022 Y0.70027
G01 X0.57865 Y0.69976
G01 X0.56890 Y0.69537
G01 X0.55958 Y0.68860
G01 X0.55238 Y0.68068
G01 X0.55142 Y0.67934
G01 X0.54610 Y0.67006
G01 X0.54276 Y0.65989
G01 X0.54241 Y0.65828
G01 X0.54134 Y0.64764
G01 X0.54331 Y0.64764
G01 X0.54437 Y0.63720
G01 X0.54463 Y0.63599
G01 X0.54790 Y0.62602
G01 X0.55312 Y0.61692
G01 X0.55385 Y0.61592
G01 X0.56089 Y0.60814
G01 X0.56988 Y0.60161
G01 X0.58003 Y0.59709
G01 X0.59029 Y0.59488
G01 X0.59152 Y0.59475
G01 X0.60201 Y0.59478
G01 X0.61228 Y0.59693
G01 X0.61346 Y0.59731
G01 X0.62303 Y0.60161
G01 X0.63202 Y0.60814
G01 X0.63907 Y0.61592
G01 X0.63979 Y0.61692
G01 X0.64501 Y0.62602
G01 X0.64828 Y0.63599
G01 X0.64854 Y0.63720
G01 X0.64961 Y0.64764
G01 X0.64854 Y0.65808
G01 X0.64828 Y0.65929
G01 X0.64501 Y0.66926
G01 X0.63979 Y0.67836
G01 X0.63907 Y0.67936
G01 X0.63202 Y0.68714
G01 X0.62303 Y0.69367
G01 X0.61288 Y0.69819
G01 X0.60262 Y0.70040
G01 X0.60139 Y0.70053
G01 X0.59090 Y0.70050
G01 X0.58063 Y0.69835
G01 X0.57946 Y0.69796
G01 X0.56988 Y0.69367
G01 X0.56137 Y0.68752
G01 X0.56046 Y0.68670
G01 X0.55346 Y0.67888
G01 X0.54818 Y0.66981
G01 X0.54768 Y0.66868
G01 X0.54447 Y0.65869
G01 X0.54331 Y0.64764
G01 X0.54528 Y0.64764
G01 X0.54650 Y0.63660
G01 X0.54970 Y0.62682
G01 X0.55483 Y0.61790
G01 X0.56221 Y0.60960
G01 X0.57087 Y0.60331
G01 X0.58064 Y0.59896
G01 X0.59152 Y0.59672
G01 X0.60181 Y0.59674
G01 X0.61187 Y0.59886
G01 X0.62205 Y0.60331
G01 X0.63099 Y0.60989
G01 X0.63786 Y0.61756
G01 X0.64303 Y0.62645
G01 X0.64652 Y0.63700
G01 X0.64764 Y0.64764
G01 X0.64652 Y0.65828
G01 X0.64303 Y0.66882
G01 X0.63786 Y0.67772
G01 X0.63099 Y0.68538
G01 X0.62205 Y0.69196
G01 X0.61227 Y0.69632
G01 X0.60139 Y0.69856
G01 X0.59111 Y0.69854
G01 X0.58104 Y0.69642
G01 X0.57087 Y0.69196
G01 X0.56221 Y0.68567
G01 X0.55483 Y0.67738
G01 X0.54970 Y0.66846
G01 X0.54650 Y0.65868
G01 X0.54528 Y0.64764
G01 X0.54724 Y0.64764
G01 X0.54837 Y0.63721
G01 X0.55150 Y0.62762
G01 X0.55653 Y0.61888
G01 X0.56353 Y0.61107
G01 X0.57185 Y0.60502
G01 X0.58125 Y0.60083
G01 X0.59152 Y0.59868
G01 X0.60160 Y0.59870
G01 X0.61146 Y0.60078
G01 X0.62106 Y0.60502
G01 X0.62939 Y0.61107
G01 X0.63638 Y0.61888
G01 X0.64141 Y0.62762
G01 X0.64454 Y0.63721
G01 X0.64567 Y0.64764
G01 X0.64454 Y0.65807
G01 X0.64141 Y0.66765
G01 X0.63638 Y0.67639
G01 X0.62939 Y0.68421
G01 X0.62106 Y0.69026
G01 X0.61166 Y0.69444
G01 X0.60139 Y0.69659
G01 X0.59131 Y0.69658
G01 X0.58145 Y0.69450
G01 X0.57185 Y0.69026
G01 X0.56338 Y0.68406
G01 X0.55664 Y0.67656
G01 X0.55159 Y0.66784
G01 X0.54832 Y0.65787
G01 X0.54724 Y0.64764
G04 P0 ( dwell for no time -- G64 should not smooth over this point )
G00 Z0.01181 ( retract )

G00 X0.67798 Y0.60041 ( rapid move to begin. )
G01 F12.59843
( begin pre-milling-gcode )
M7
( end pre-milling-gcode )
( Mill infeed pass 1/1 )
G01 Z-0.00200
G04 P0 ( dwell for no time -- G64 should not smooth over this point )
G01 F31.49606
G01 X0.67798 Y0.60041
G01 X0.67809 Y0.59864
G01 X0.67906 Y0.59604
G01 X0.68060 Y0.59398
G01 X0.68265 Y0.59244
G01 X0.68574 Y0.59141
G01 X0.78148 Y0.59137
G01 X0.78325 Y0.59148
G01 X0.78585 Y0.59244
G01 X0.78791 Y0.59398
G01 X0.78945 Y0.59604
G01 X0.79041 Y0.59864
G01 X0.79052 Y0.60041
G01 X0.79052 Y0.69487
G01 X0.79041 Y0.69664
G01 X0.78945 Y0.69924
G01 X0.78791 Y0.70129
G01 X0.78585 Y0.70283
G01 X0.78325 Y0.70380
G01 X0.78148 Y0.70391
G01 X0.68702 Y0.70391
G01 X0.68525 Y0.70380
G01 X0.68265 Y0.70283
G01 X0.68060 Y0.70129
G01 X0.67905 Y0.69924
G01 X0.67809 Y0.69664
G01 X0.67798 Y0.67831
G01 X0.67776 Y0.67529
G01 X0.67717 Y0.67180
G01 X0.67717 Y0.62369
G01 X0.67762 Y0.62176
G01 X0.67798 Y0.61734
G01 X0.67798 Y0.60041
G01 X0.67913 Y0.60039
G01 X0.67929 Y0.59886
G01 X0.67973 Y0.59738
G01 X0.68046 Y0.59602
G01 X0.68144 Y0.59483
G01 X0.68263 Y0.59385
G01 X0.68399 Y0.59312
G01 X0.68547 Y0.59267
G01 X0.68701 Y0.59252
G01 X0.78150 Y0.59252
G01 X0.78303 Y0.59267
G01 X0.78451 Y0.59312
G01 X0.78587 Y0.59385
G01 X0.78706 Y0.59483
G01 X0.78804 Y0.59602
G01 X0.78877 Y0.59738
G01 X0.78922 Y0.59886
G01 X0.78937 Y0.60039
G01 X0.78937 Y0.69488
G01 X0.78922 Y0.69642
G01 X0.78877 Y0.69790
G01 X0.78804 Y0.69926
G01 X0.78706 Y0.70045
G01 X0.78587 Y0.70143
G01 X0.78451 Y0.70216
G01 X0.78303 Y0.70260
G01 X0.78150 Y0.70276
G01 X0.68701 Y0.70276
G01 X0.68547 Y0.70260
G01 X0.68399 Y0.70216
G01 X0.68263 Y0.70143
G01 X0.68144 Y0.70045
G01 X0.68046 Y0.69926
G01 X0.67973 Y0.69790
G01 X0.67929 Y0.69642
G01 X0.67913 Y0.69488
G01 X0.67913 Y0.60039
G01 X0.68110 Y0.60039
G01 X0.68122 Y0.59924
G01 X0.68155 Y0.59813
G01 X0.68210 Y0.59711
G01 X0.68283 Y0.59622
G01 X0.68373 Y0.59548
G01 X0.68475 Y0.59494
G01 X0.68586 Y0.59460
G01 X0.68701 Y0.59449
G01 X0.78150 Y0.59449
G01 X0.78265 Y0.59460
G01 X0.78376 Y0.59494
G01 X0.78478 Y0.59548
G01 X0.78567 Y0.59622
G01 X0.78641 Y0.59711
G01 X0.78695 Y0.59813
G01 X0.78729 Y0.59924
G01 X0.78740 Y0.60039
G01 X0.78740 Y0.69488
G01 X0.78729 Y0.69604
G01 X0.78695 Y0.69714
G01 X0.78641 Y0.69816
G01 X0.78567 Y0.69906
G01 X0.78478 Y0.69979
G01 X0.78376 Y0.70034
G01 X0.78265 Y0.70067
G01 X0.78150 Y0.70079
G01 X0.68701 Y0.70079
G01 X0.68586 Y0.70067
G01 X0.68475 Y0.70034
G01 X0.68373 Y0.69979
G01 X0.68283 Y0.69906
G01 X0.68210 Y0.69816
G01 X0.68155 Y0.69714
G01 X0.68122 Y0.69604
G01 X0.68110 Y0.69488
G01 X0.68110 Y0.60039
G01 X0.68307 Y0.60039
G01 X0.68337 Y0.59889
G01 X0.68422 Y0.59761
G01 X0.68550 Y0.59676
G01 X0.68701 Y0.59646
G01 X0.78150 Y0.59646
G01 X0.78300 Y0.59676
G01 X0.78428 Y0.59761
G01 X0.78513 Y0.59889
G01 X0.78543 Y0.60039
G01 X0.78543 Y0.69488
G01 X0.78513 Y0.69639
G01 X0.78428 Y0.69767
G01 X0.78300 Y0.69852
G01 X0.78150 Y0.69882
G01 X0.68701 Y0.69882
G01 X0.68550 Y0.69852
G01 X0.68422 Y0.69767
G01 X0.68337 Y0.69639
G01 X0.68307 Y0.69488
G01 X0.68307 Y0.60039
G01 X0.68504 Y0.60039
G01 X0.68519 Y0.59964
G01 X0.68562 Y0.59900
G01 X0.68625 Y0.59858
G01 X0.68701 Y0.59843
G01 X0.78150 Y0.59843
G01 X0.78225 Y0.59858
G01 X0.78289 Y0.59900
G01 X0.78331 Y0.59964
G01 X0.78346 Y0.60039
G01 X0.78346 Y0.69488
G01 X0.78331 Y0.69564
G01 X0.78289 Y0.69627
G01 X0.78225 Y0.69670
G01 X0.78150 Y0.69685
G01 X0.68701 Y0.69685
G01 X0.68625 Y0.69670
G01 X0.68562 Y0.69627
G01 X0.68519 Y0.69564
G01 X0.68504 Y0.69488
G01 X0.68504 Y0.60039
G04 P0 ( dwell for no time -- G64 should not smooth over this point )
G00 Z0.01181 ( retract )

G00 X0.90124 Y0.73139 ( rapid move to begin. )
G01 F12.59843
( begin pre-milling-gcode )
M7
( end pre-milling-gcode )
( Mill infeed pass 1/1 )
G01 Z-0.00200
G04 P0 ( dwell for no time -- G64 should not smooth over this point )
G01 F31.49606
G01 X0.90124 Y0.73139
G01 X0.90124 Y0.78437
G01 X0.90163 Y0.78816
G01 X0.90368 Y0.79435
G01 X0.90709 Y0.79989
G01 X0.91169 Y0.80449
G01 X0.91722 Y0.80791
G01 X0.92340 Y0.80998
G01 X0.92725 Y0.81038
G01 X0.95858 Y0.81038
G01 X0.96237 Y0.80999
G01 X0.96856 Y0.80793
G01 X0.97410 Y0.80452
G01 X0.97871 Y0.79992
G01 X0.98049 Y0.79716
G01 X0.98306 Y0.79528
G01 X0.98410 Y0.79492
G01 X0.98690 Y0.79478
G01 X0.98797 Y0.79504
G01 X0.99063 Y0.79659
G01 X0.99430 Y0.80039
G01 X1.00078 Y0.80499
G01 X1.00802 Y0.80828
G01 X1.01575 Y0.81015
G01 X1.02370 Y0.81051
G01 X1.03156 Y0.80937
G01 X1.03928 Y0.80665
G01 X1.04596 Y0.80278
G01 X1.05197 Y0.79757
G01 X1.05688 Y0.79132
G01 X1.06052 Y0.78425
G01 X1.06276 Y0.77662
G01 X1.06333 Y0.77069
G01 X1.06333 Y0.74318
G01 X1.06179 Y0.73516
G01 X1.05882 Y0.72778
G01 X1.05451 Y0.72110
G01 X1.04901 Y0.71536
G01 X1.04252 Y0.71076
G01 X1.03528 Y0.70747
G01 X1.02755 Y0.70560
G01 X1.01961 Y0.70524
G01 X1.01174 Y0.70638
G01 X1.00423 Y0.70898
G01 X0.99734 Y0.71297
G01 X0.99128 Y0.71823
G01 X0.98997 Y0.71955
G01 X0.98716 Y0.72079
G01 X0.98643 Y0.72095
G01 X0.98330 Y0.72048
G01 X0.98230 Y0.72000
G01 X0.98002 Y0.71792
G01 X0.97873 Y0.71586
G01 X0.97414 Y0.71126
G01 X0.96861 Y0.70784
G01 X0.96242 Y0.70577
G01 X0.95857 Y0.70538
G01 X0.92725 Y0.70538
G01 X0.92345 Y0.70576
G01 X0.91726 Y0.70782
G01 X0.91173 Y0.71123
G01 X0.90712 Y0.71582
G01 X0.90370 Y0.72136
G01 X0.90164 Y0.72754
G01 X0.90124 Y0.73139
G01 X0.90320 Y0.73149
G01 X0.90321 Y0.78426
G01 X0.90354 Y0.78775
G01 X0.90546 Y0.79352
G01 X0.90864 Y0.79867
G01 X0.91291 Y0.80295
G01 X0.91805 Y0.80613
G01 X0.92382 Y0.80805
G01 X0.92735 Y0.80841
G01 X0.95847 Y0.80841
G01 X0.96196 Y0.80807
G01 X0.96773 Y0.80615
G01 X0.97288 Y0.80298
G01 X0.97716 Y0.79868
G01 X0.97906 Y0.79581
G01 X0.98191 Y0.79368
G01 X0.98326 Y0.79306
G01 X0.98680 Y0.79281
G01 X0.98827 Y0.79302
G01 X0.99184 Y0.79504
G01 X0.99559 Y0.79890
G01 X1.00177 Y0.80329
G01 X1.00866 Y0.80642
G01 X1.01603 Y0.80820
G01 X1.02360 Y0.80854
G01 X1.03109 Y0.80745
G01 X1.03845 Y0.80485
G01 X1.04481 Y0.80117
G01 X1.05054 Y0.79621
G01 X1.05522 Y0.79025
G01 X1.05869 Y0.78351
G01 X1.06082 Y0.77624
G01 X1.06136 Y0.77059
G01 X1.06136 Y0.74336
G01 X1.05989 Y0.73571
G01 X1.05706 Y0.72869
G01 X1.05295 Y0.72233
G01 X1.04771 Y0.71685
G01 X1.04153 Y0.71247
G01 X1.03464 Y0.70934
G01 X1.02727 Y0.70756
G01 X1.01970 Y0.70720
G01 X1.01220 Y0.70829
G01 X1.00505 Y0.71077
G01 X0.99848 Y0.71457
G01 X0.99099 Y0.72123
G01 X0.98794 Y0.72259
G01 X0.98649 Y0.72292
G01 X0.98298 Y0.72242
G01 X0.98158 Y0.72191
G01 X0.97851 Y0.71919
G01 X0.97718 Y0.71709
G01 X0.97292 Y0.71280
G01 X0.96777 Y0.70962
G01 X0.96201 Y0.70768
G01 X0.95847 Y0.70734
G01 X0.92735 Y0.70734
G01 X0.92386 Y0.70768
G01 X0.91810 Y0.70960
G01 X0.91295 Y0.71277
G01 X0.90867 Y0.71705
G01 X0.90548 Y0.72219
G01 X0.90356 Y0.72795
G01 X0.90320 Y0.73149
G01 X0.90517 Y0.73159
G01 X0.90518 Y0.78416
G01 X0.90548 Y0.78734
G01 X0.90726 Y0.79268
G01 X0.91019 Y0.79744
G01 X0.91414 Y0.80140
G01 X0.91890 Y0.80434
G01 X0.92424 Y0.80612
G01 X0.92745 Y0.80644
G01 X0.95837 Y0.80644
G01 X0.96155 Y0.80614
G01 X0.96689 Y0.80435
G01 X0.97165 Y0.80142
G01 X0.97561 Y0.79744
G01 X0.97763 Y0.79446
G01 X0.98077 Y0.79208
G01 X0.98174 Y0.79152
G01 X0.98280 Y0.79115
G01 X0.98670 Y0.79085
G01 X0.98782 Y0.79090
G01 X0.98891 Y0.79116
G01 X0.99236 Y0.79302
G01 X0.99368 Y0.79405
G01 X0.99688 Y0.79740
G01 X1.00275 Y0.80157
G01 X1.00931 Y0.80455
G01 X1.01631 Y0.80624
G01 X1.02350 Y0.80657
G01 X1.03062 Y0.80553
G01 X1.03762 Y0.80306
G01 X1.04367 Y0.79956
G01 X1.04911 Y0.79484
G01 X1.05355 Y0.78918
G01 X1.05685 Y0.78278
G01 X1.05888 Y0.77587
G01 X1.05939 Y0.77050
G01 X1.05939 Y0.74355
G01 X1.05800 Y0.73627
G01 X1.05531 Y0.72960
G01 X1.05140 Y0.72355
G01 X1.04642 Y0.71835
G01 X1.04055 Y0.71419
G01 X1.03399 Y0.71121
G01 X1.02699 Y0.70952
G01 X1.01980 Y0.70918
G01 X1.01267 Y0.71021
G01 X1.00587 Y0.71257
G01 X0.99963 Y0.71618
G01 X0.99202 Y0.72291
G01 X0.98873 Y0.72440
G01 X0.98766 Y0.72475
G01 X0.98655 Y0.72489
G01 X0.98267 Y0.72436
G01 X0.98158 Y0.72408
G01 X0.98057 Y0.72359
G01 X0.97700 Y0.72045
G01 X0.97562 Y0.71832
G01 X0.97168 Y0.71435
G01 X0.96693 Y0.71141
G01 X0.96159 Y0.70962
G01 X0.95837 Y0.70931
G01 X0.92745 Y0.70931
G01 X0.92428 Y0.70961
G01 X0.91893 Y0.71140
G01 X0.91418 Y0.71433
G01 X0.91022 Y0.71828
G01 X0.90728 Y0.72303
G01 X0.90550 Y0.72837
G01 X0.90517 Y0.73159
G01 X0.90714 Y0.73169
G01 X0.90714 Y0.78406
G01 X0.90741 Y0.78692
G01 X0.90906 Y0.79184
G01 X0.91175 Y0.79621
G01 X0.91537 Y0.79984
G01 X0.91974 Y0.80254
G01 X0.92465 Y0.80418
G01 X0.92756 Y0.80447
G01 X0.95827 Y0.80447
G01 X0.96113 Y0.80420
G01 X0.96605 Y0.80256
G01 X0.97043 Y0.79987
G01 X0.97407 Y0.79621
G01 X0.97620 Y0.79310
G01 X0.97962 Y0.79048
G01 X0.98092 Y0.78973
G01 X0.98233 Y0.78924
G01 X0.98660 Y0.78888
G01 X0.98810 Y0.78895
G01 X0.98955 Y0.78930
G01 X0.99334 Y0.79131
G01 X0.99510 Y0.79269
G01 X0.99817 Y0.79591
G01 X1.00374 Y0.79986
G01 X1.00995 Y0.80268
G01 X1.01659 Y0.80428
G01 X1.02341 Y0.80459
G01 X1.03014 Y0.80361
G01 X1.03680 Y0.80126
G01 X1.04252 Y0.79795
G01 X1.04767 Y0.79348
G01 X1.05189 Y0.78811
G01 X1.05501 Y0.78205
G01 X1.05694 Y0.77550
G01 X1.05742 Y0.77041
G01 X1.05742 Y0.74374
G01 X1.05610 Y0.73683
G01 X1.05355 Y0.73051
G01 X1.04985 Y0.72478
G01 X1.04513 Y0.71985
G01 X1.03956 Y0.71590
G01 X1.03335 Y0.71308
G01 X1.02672 Y0.71148
G01 X1.01990 Y0.71115
G01 X1.01314 Y0.71213
G01 X1.00669 Y0.71437
G01 X1.00078 Y0.71779
G01 X0.99541 Y0.72247
G01 X0.99394 Y0.72395
G01 X0.99305 Y0.72459
G01 X0.98951 Y0.72621
G01 X0.98809 Y0.72667
G01 X0.98660 Y0.72685
G01 X0.98235 Y0.72631
G01 X0.98090 Y0.72593
G01 X0.97955 Y0.72528
G01 X0.97627 Y0.72252
G01 X0.97549 Y0.72171
G01 X0.97407 Y0.71955
G01 X0.97046 Y0.71590
G01 X0.96609 Y0.71321
G01 X0.96117 Y0.71156
G01 X0.95827 Y0.71128
G01 X0.92755 Y0.71128
G01 X0.92469 Y0.71155
G01 X0.91977 Y0.71319
G01 X0.91540 Y0.71588
G01 X0.91177 Y0.71951
G01 X0.90907 Y0.72387
G01 X0.90743 Y0.72879
G01 X0.90714 Y0.73169
G01 X0.90835 Y0.73175
G01 X0.90835 Y0.78405
G01 X0.90865 Y0.78673
G01 X0.91014 Y0.79125
G01 X0.91268 Y0.79536
G01 X0.91440 Y0.79724
G01 X0.91622 Y0.79890
G01 X0.92022 Y0.80139
G01 X0.92487 Y0.80292
G01 X0.92759 Y0.80328
G01 X0.95817 Y0.80329
G01 X0.95997 Y0.80311
G01 X0.96208 Y0.80261
G01 X0.96546 Y0.80144
G01 X0.96958 Y0.79893
G01 X0.97305 Y0.79549
G01 X0.97684 Y0.79005
G01 X0.97848 Y0.78888
G01 X0.98009 Y0.78794
G01 X0.98186 Y0.78732
G01 X0.98371 Y0.78705
G01 X0.98650 Y0.78692
G01 X0.98837 Y0.78700
G01 X0.99019 Y0.78744
G01 X0.99240 Y0.78850
G01 X0.99600 Y0.79186
G01 X0.99905 Y0.79501
G01 X1.00335 Y0.79810
G01 X1.00442 Y0.79881
G01 X1.00985 Y0.80128
G01 X1.01201 Y0.80195
G01 X1.01696 Y0.80305
G01 X1.01916 Y0.80321
G01 X1.02419 Y0.80325
G01 X1.02986 Y0.80235
G01 X1.03334 Y0.80125
G01 X1.03629 Y0.80007
G01 X1.03986 Y0.79813
G01 X1.04173 Y0.79692
G01 X1.04401 Y0.79511
G01 X1.04671 Y0.79261
G01 X1.04897 Y0.78993
G01 X1.05080 Y0.78744
G01 X1.05386 Y0.78150
G01 X1.05571 Y0.77533
G01 X1.05621 Y0.77035
G01 X1.05627 Y0.74702
G01 X1.05612 Y0.74381
G01 X1.05569 Y0.74089
G01 X1.05486 Y0.73723
G01 X1.05284 Y0.73197
G01 X1.05029 Y0.72763
G01 X1.04905 Y0.72581
G01 X1.04565 Y0.72210
G01 X1.04425 Y0.72074
G01 X1.03888 Y0.71694
G01 X1.03288 Y0.71423
G01 X1.02662 Y0.71274
G01 X1.02003 Y0.71244
G01 X1.01693 Y0.71278
G01 X1.01200 Y0.71379
G01 X1.00729 Y0.71554
G01 X1.00530 Y0.71654
G01 X1.00150 Y0.71889
G01 X0.99772 Y0.72203
G01 X0.99256 Y0.72703
G01 X0.99029 Y0.72801
G01 X0.98851 Y0.72859
G01 X0.98666 Y0.72882
G01 X0.98479 Y0.72870
G01 X0.98203 Y0.72825
G01 X0.98022 Y0.72777
G01 X0.97854 Y0.72696
G01 X0.97687 Y0.72571
G01 X0.97304 Y0.72025
G01 X0.96961 Y0.71684
G01 X0.96559 Y0.71438
G01 X0.96095 Y0.71283
G01 X0.95827 Y0.71246
G01 X0.92764 Y0.71246
G01 X0.92501 Y0.71276
G01 X0.92037 Y0.71432
G01 X0.91780 Y0.71576
G01 X0.91616 Y0.71690
G01 X0.91280 Y0.72021
G01 X0.91015 Y0.72447
G01 X0.90864 Y0.72914
G01 X0.90835 Y0.73175
G01 X0.91026 Y0.73328
G01 X0.91031 Y0.78388
G01 X0.91058 Y0.78625
G01 X0.91198 Y0.79048
G01 X0.91428 Y0.79421
G01 X0.91579 Y0.79581
G01 X0.91737 Y0.79729
G01 X0.92110 Y0.79960
G01 X0.92534 Y0.80101
G01 X0.92772 Y0.80132
G01 X0.95773 Y0.80132
G01 X0.96045 Y0.80102
G01 X0.96469 Y0.79961
G01 X0.96843 Y0.79731
G01 X0.97156 Y0.79420
G01 X0.97525 Y0.78889
G01 X0.97595 Y0.78657
G01 X0.97638 Y0.78248
G01 X0.97638 Y0.73327
G01 X0.97611 Y0.73019
G01 X0.97568 Y0.72818
G01 X0.97505 Y0.72652
G01 X0.97155 Y0.72154
G01 X0.96854 Y0.71853
G01 X0.96472 Y0.71615
G01 X0.96049 Y0.71474
G01 X0.95809 Y0.71443
G01 X0.92863 Y0.71441
G01 X0.92615 Y0.71461
G01 X0.92429 Y0.71503
G01 X0.92060 Y0.71642
G01 X0.91739 Y0.71844
G01 X0.91579 Y0.71994
G01 X0.91430 Y0.72151
G01 X0.91199 Y0.72524
G01 X0.91058 Y0.72947
G01 X0.91026 Y0.73328
G01 X0.91142 Y0.73327
G01 X0.91146 Y0.78330
G01 X0.91180 Y0.78616
G01 X0.91265 Y0.78892
G01 X0.91332 Y0.79042
G01 X0.91480 Y0.79289
G01 X0.91728 Y0.79565
G01 X0.92028 Y0.79782
G01 X0.92366 Y0.79933
G01 X0.92647 Y0.79997
G01 X0.92915 Y0.80020
G01 X0.95774 Y0.80014
G01 X0.96137 Y0.79954
G01 X0.96294 Y0.79903
G01 X0.96555 Y0.79782
G01 X0.96855 Y0.79565
G01 X0.97051 Y0.79353
G01 X0.97147 Y0.79220
G01 X0.97288 Y0.78969
G01 X0.97402 Y0.78616
G01 X0.97441 Y0.78248
G01 X0.97441 Y0.73327
G01 X0.97415 Y0.73040
G01 X0.97381 Y0.72879
G01 X0.97288 Y0.72606
G01 X0.97147 Y0.72355
G01 X0.97051 Y0.72221
G01 X0.96855 Y0.72010
G01 X0.96555 Y0.71793
G01 X0.96217 Y0.71642
G01 X0.95936 Y0.71578
G01 X0.95774 Y0.71561
G01 X0.92769 Y0.71562
G01 X0.92445 Y0.71621
G01 X0.92289 Y0.71671
G01 X0.92028 Y0.71793
G01 X0.91728 Y0.72010
G01 X0.91480 Y0.72286
G01 X0.91332 Y0.72533
G01 X0.91265 Y0.72683
G01 X0.91180 Y0.72958
G01 X0.91142 Y0.73327
G01 X0.91339 Y0.73327
G01 X0.91342 Y0.78310
G01 X0.91373 Y0.78576
G01 X0.91453 Y0.78831
G01 X0.91639 Y0.79174
G01 X0.91860 Y0.79418
G01 X0.92126 Y0.79612
G01 X0.92427 Y0.79746
G01 X0.92688 Y0.79805
G01 X0.92914 Y0.79823
G01 X0.95773 Y0.79817
G01 X0.95895 Y0.79805
G01 X0.96156 Y0.79746
G01 X0.96402 Y0.79640
G01 X0.96723 Y0.79418
G01 X0.96943 Y0.79174
G01 X0.97080 Y0.78944
G01 X0.97130 Y0.78831
G01 X0.97219 Y0.78514
G01 X0.97244 Y0.78248
G01 X0.97244 Y0.73327
G01 X0.97194 Y0.72940
G01 X0.97108 Y0.72686
G01 X0.96977 Y0.72453
G01 X0.96723 Y0.72157
G01 X0.96457 Y0.71963
G01 X0.96156 Y0.71829
G01 X0.95895 Y0.71770
G01 X0.95773 Y0.71757
G01 X0.92780 Y0.71758
G01 X0.92486 Y0.71813
G01 X0.92369 Y0.71851
G01 X0.92126 Y0.71963
G01 X0.91860 Y0.72157
G01 X0.91639 Y0.72401
G01 X0.91503 Y0.72631
G01 X0.91389 Y0.72940
G01 X0.91363 Y0.73060
G01 X0.91339 Y0.73327
G01 X0.91535 Y0.73327
G01 X0.91538 Y0.78289
G01 X0.91566 Y0.78535
G01 X0.91640 Y0.78770
G01 X0.91799 Y0.79058
G01 X0.91991 Y0.79272
G01 X0.92224 Y0.79441
G01 X0.92488 Y0.79559
G01 X0.92729 Y0.79612
G01 X0.92914 Y0.79626
G01 X0.95854 Y0.79612
G01 X0.96095 Y0.79559
G01 X0.96322 Y0.79460
G01 X0.96591 Y0.79272
G01 X0.96784 Y0.79058
G01 X0.96909 Y0.78845
G01 X0.97024 Y0.78494
G01 X0.97047 Y0.78248
G01 X0.97047 Y0.73327
G01 X0.97006 Y0.73001
G01 X0.96928 Y0.72766
G01 X0.96784 Y0.72517
G01 X0.96591 Y0.72303
G01 X0.96358 Y0.72134
G01 X0.96095 Y0.72016
G01 X0.95814 Y0.71956
G01 X0.92790 Y0.71955
G01 X0.92449 Y0.72031
G01 X0.92224 Y0.72134
G01 X0.91991 Y0.72303
G01 X0.91799 Y0.72517
G01 X0.91673 Y0.72730
G01 X0.91559 Y0.73081
G01 X0.91535 Y0.73327
G01 X0.91732 Y0.73327
G01 X0.91758 Y0.73081
G01 X0.91834 Y0.72846
G01 X0.91958 Y0.72633
G01 X0.92108 Y0.72464
G01 X0.92341 Y0.72295
G01 X0.92548 Y0.72204
G01 X0.92800 Y0.72151
G01 X0.95793 Y0.72152
G01 X0.96034 Y0.72204
G01 X0.96260 Y0.72304
G01 X0.96460 Y0.72449
G01 X0.96625 Y0.72633
G01 X0.96748 Y0.72846
G01 X0.96819 Y0.73061
G01 X0.96850 Y0.73327
G01 X0.96850 Y0.78248
G01 X0.96828 Y0.78473
G01 X0.96739 Y0.78747
G01 X0.96625 Y0.78942
G01 X0.96460 Y0.79126
G01 X0.96260 Y0.79271
G01 X0.96053 Y0.79364
G01 X0.95793 Y0.79423
G01 X0.92800 Y0.79424
G01 X0.92548 Y0.79371
G01 X0.92323 Y0.79271
G01 X0.92123 Y0.79126
G01 X0.91958 Y0.78942
G01 X0.91834 Y0.78728
G01 X0.91763 Y0.78514
G01 X0.91732 Y0.78248
G01 X0.91732 Y0.73327
G04 P0 ( dwell for no time -- G64 should not smooth over this point )
G00 Z0.01181 ( retract )

G00 X0.98819 Y0.74705 ( rapid move to begin. )
G01 F12.59843
( begin pre-milling-gcode )
M7
( end pre-milling-gcode )
( Mill infeed pass 1/1 )
G01 Z-0.00200
G04 P0 ( dwell for no time -- G64 should not smooth over this point )
G01 F31.49606
G01 X0.98819 Y0.74705
G01 X0.98819 Y0.76870
G01 X0.98892 Y0.77566
G01 X0.99108 Y0.78231
G01 X0.99379 Y0.78711
G01 X0.99742 Y0.79050
G01 X1.00027 Y0.79346
G01 X1.00534 Y0.79707
G01 X1.01101 Y0.79964
G01 X1.01708 Y0.80108
G01 X1.02327 Y0.80134
G01 X1.02606 Y0.80103
G01 X1.02938 Y0.80044
G01 X1.03269 Y0.79940
G01 X1.03544 Y0.79830
G01 X1.03885 Y0.79644
G01 X1.04061 Y0.79529
G01 X1.04272 Y0.79362
G01 X1.04530 Y0.79124
G01 X1.04868 Y0.78705
G01 X1.05105 Y0.78288
G01 X1.05200 Y0.78087
G01 X1.05378 Y0.77489
G01 X1.05430 Y0.76869
G01 X1.05427 Y0.74604
G01 X1.05417 Y0.74405
G01 X1.05335 Y0.73925
G01 X1.05297 Y0.73776
G01 X1.05105 Y0.73281
G01 X1.04863 Y0.72868
G01 X1.04747 Y0.72699
G01 X1.04303 Y0.72229
G01 X1.03882 Y0.71926
G01 X1.03714 Y0.71829
G01 X1.03230 Y0.71611
G01 X1.02623 Y0.71467
G01 X1.02003 Y0.71441
G01 X1.01725 Y0.71472
G01 X1.01255 Y0.71569
G01 X1.00805 Y0.71736
G01 X1.00446 Y0.71931
G01 X1.00269 Y0.72046
G01 X0.99905 Y0.72349
G01 X0.99387 Y0.72849
G01 X0.99108 Y0.73344
G01 X0.98919 Y0.73910
G01 X0.98876 Y0.74111
G01 X0.98824 Y0.74602
G01 X0.98819 Y0.74705
G01 X0.99016 Y0.74705
G01 X0.99016 Y0.76870
G01 X0.99085 Y0.77525
G01 X0.99259 Y0.78074
G01 X0.99325 Y0.78225
G01 X0.99617 Y0.78721
G01 X1.00000 Y0.79152
G01 X1.00122 Y0.79263
G01 X1.00521 Y0.79553
G01 X1.00664 Y0.79635
G01 X1.01192 Y0.79866
G01 X1.01836 Y0.80002
G01 X1.02412 Y0.80007
G01 X1.02576 Y0.79990
G01 X1.03139 Y0.79866
G01 X1.03740 Y0.79598
G01 X1.04273 Y0.79211
G01 X1.04713 Y0.78721
G01 X1.05043 Y0.78151
G01 X1.05225 Y0.77605
G01 X1.05259 Y0.77444
G01 X1.05315 Y0.76870
G01 X1.05315 Y0.74705
G01 X1.05259 Y0.74131
G01 X1.05225 Y0.73970
G01 X1.05043 Y0.73424
G01 X1.04758 Y0.72923
G01 X1.04661 Y0.72789
G01 X1.04273 Y0.72364
G01 X1.03809 Y0.72022
G01 X1.03667 Y0.71940
G01 X1.03139 Y0.71709
G01 X1.02576 Y0.71585
G01 X1.02412 Y0.71568
G01 X1.01836 Y0.71572
G01 X1.01272 Y0.71688
G01 X1.01115 Y0.71739
G01 X1.00591 Y0.71977
G01 X1.00122 Y0.72312
G01 X1.00000 Y0.72422
G01 X0.99617 Y0.72854
G01 X0.99325 Y0.73350
G01 X0.99259 Y0.73501
G01 X0.99085 Y0.74050
G01 X0.99016 Y0.74705
G01 X0.99212 Y0.74705
G01 X0.99212 Y0.76870
G01 X0.99267 Y0.77423
G01 X0.99293 Y0.77544
G01 X0.99468 Y0.78071
G01 X0.99777 Y0.78606
G01 X1.00190 Y0.79064
G01 X1.00637 Y0.79394
G01 X1.00744 Y0.79455
G01 X1.01253 Y0.79678
G01 X1.01796 Y0.79797
G01 X1.01918 Y0.79810
G01 X1.02474 Y0.79807
G01 X1.03078 Y0.79678
G01 X1.03587 Y0.79455
G01 X1.03694 Y0.79394
G01 X1.04141 Y0.79064
G01 X1.04515 Y0.78654
G01 X1.04588 Y0.78554
G01 X1.04863 Y0.78071
G01 X1.05054 Y0.77484
G01 X1.05118 Y0.76870
G01 X1.05118 Y0.74705
G01 X1.05063 Y0.74152
G01 X1.05038 Y0.74031
G01 X1.04863 Y0.73504
G01 X1.04554 Y0.72969
G01 X1.04185 Y0.72554
G01 X1.04093 Y0.72472
G01 X1.03642 Y0.72148
G01 X1.03078 Y0.71897
G01 X1.02535 Y0.71778
G01 X1.02412 Y0.71765
G01 X1.01857 Y0.71768
G01 X1.01313 Y0.71881
G01 X1.01195 Y0.71919
G01 X1.00689 Y0.72148
G01 X1.00238 Y0.72472
G01 X1.00146 Y0.72554
G01 X0.99777 Y0.72969
G01 X0.99496 Y0.73449
G01 X0.99446 Y0.73562
G01 X0.99277 Y0.74091
G01 X0.99212 Y0.74705
G01 X0.99409 Y0.74705
G01 X0.99409 Y0.76870
G01 X0.99463 Y0.77402
G01 X0.99648 Y0.77991
G01 X0.99936 Y0.78490
G01 X1.00353 Y0.78944
G01 X1.00787 Y0.79257
G01 X1.01314 Y0.79491
G01 X1.01918 Y0.79613
G01 X1.02453 Y0.79611
G01 X1.03017 Y0.79491
G01 X1.03578 Y0.79234
G01 X1.04009 Y0.78918
G01 X1.04369 Y0.78522
G01 X1.04683 Y0.77991
G01 X1.04861 Y0.77443
G01 X1.04921 Y0.76870
G01 X1.04921 Y0.74705
G01 X1.04867 Y0.74173
G01 X1.04683 Y0.73584
G01 X1.04395 Y0.73085
G01 X1.03977 Y0.72631
G01 X1.03543 Y0.72318
G01 X1.03055 Y0.72099
G01 X1.02453 Y0.71964
G01 X1.01837 Y0.71970
G01 X1.01314 Y0.72084
G01 X1.00824 Y0.72299
G01 X1.00321 Y0.72657
G01 X0.99936 Y0.73085
G01 X0.99666 Y0.73547
G01 X0.99470 Y0.74132
G01 X0.99409 Y0.74705
G01 X0.99606 Y0.74705
G01 X0.99662 Y0.74173
G01 X0.99820 Y0.73683
G01 X1.00108 Y0.73185
G01 X1.00453 Y0.72803
G01 X1.00886 Y0.72489
G01 X1.01375 Y0.72271
G01 X1.01877 Y0.72163
G01 X1.02433 Y0.72160
G01 X1.02975 Y0.72278
G01 X1.03445 Y0.72489
G01 X1.03862 Y0.72790
G01 X1.04236 Y0.73201
G01 X1.04511 Y0.73683
G01 X1.04668 Y0.74173
G01 X1.04723 Y0.74684
G01 X1.04724 Y0.76870
G01 X1.04668 Y0.77402
G01 X1.04494 Y0.77929
G01 X1.04236 Y0.78374
G01 X1.03892 Y0.78757
G01 X1.03445 Y0.79086
G01 X1.02956 Y0.79304
G01 X1.02412 Y0.79416
G01 X1.01898 Y0.79415
G01 X1.01375 Y0.79304
G01 X1.00886 Y0.79086
G01 X1.00469 Y0.78785
G01 X1.00095 Y0.78374
G01 X0.99827 Y0.77911
G01 X0.99659 Y0.77382
G01 X0.99606 Y0.76870
G01 X0.99606 Y0.74705
G04 P0 ( dwell for no time -- G64 should not smooth over this point )
G00 Z0.01181 ( retract )

G00 X1.18470 Y0.73139 ( rapid move to begin. )
G01 F12.59843
( begin pre-milling-gcode )
M7
( end pre-milling-gcode )
( Mill infeed pass 1/1 )
G01 Z-0.00200
G04 P0 ( dwell for no time -- G64 should not smooth over this point )
G01 F31.49606
G01 X1.18470 Y0.73139
G01 X1.18470 Y0.78437
G01 X1.18509 Y0.78816
G01 X1.18715 Y0.79435
G01 X1.19056 Y0.79989
G01 X1.19515 Y0.80449
G01 X1.20068 Y0.80791
G01 X1.20687 Y0.80998
G01 X1.21071 Y0.81038
G01 X1.24204 Y0.81038
G01 X1.24584 Y0.80999
G01 X1.25203 Y0.80793
G01 X1.25756 Y0.80452
G01 X1.26217 Y0.79992
G01 X1.26396 Y0.79716
G01 X1.26652 Y0.79528
G01 X1.26757 Y0.79492
G01 X1.27036 Y0.79478
G01 X1.27144 Y0.79504
G01 X1.27409 Y0.79659
G01 X1.27776 Y0.80039
G01 X1.28425 Y0.80499
G01 X1.29149 Y0.80828
G01 X1.29922 Y0.81015
G01 X1.30716 Y0.81051
G01 X1.31503 Y0.80937
G01 X1.32274 Y0.80665
G01 X1.32943 Y0.80278
G01 X1.33526 Y0.79772
G01 X1.34035 Y0.79131
G01 X1.34399 Y0.78425
G01 X1.34622 Y0.77662
G01 X1.34679 Y0.77069
G01 X1.34679 Y0.74318
G01 X1.34525 Y0.73516
G01 X1.34228 Y0.72778
G01 X1.33797 Y0.72110
G01 X1.33247 Y0.71536
G01 X1.32599 Y0.71076
G01 X1.31875 Y0.70747
G01 X1.31102 Y0.70560
G01 X1.30307 Y0.70524
G01 X1.29520 Y0.70638
G01 X1.28769 Y0.70898
G01 X1.28081 Y0.71297
G01 X1.27474 Y0.71823
G01 X1.27343 Y0.71955
G01 X1.27062 Y0.72079
G01 X1.26989 Y0.72095
G01 X1.26676 Y0.72048
G01 X1.26576 Y0.72000
G01 X1.26349 Y0.71793
G01 X1.26220 Y0.71586
G01 X1.25760 Y0.71126
G01 X1.25207 Y0.70784
G01 X1.24589 Y0.70577
G01 X1.24204 Y0.70538
G01 X1.21071 Y0.70538
G01 X1.20692 Y0.70576
G01 X1.20073 Y0.70782
G01 X1.19519 Y0.71123
G01 X1.19059 Y0.71583
G01 X1.18717 Y0.72136
G01 X1.18510 Y0.72754
G01 X1.18470 Y0.73139
G01 X1.18667 Y0.73149
G01 X1.18667 Y0.78426
G01 X1.18702 Y0.78775
G01 X1.18893 Y0.79352
G01 X1.19210 Y0.79867
G01 X1.19638 Y0.80295
G01 X1.20152 Y0.80613
G01 X1.20728 Y0.80807
G01 X1.21082 Y0.80841
G01 X1.24194 Y0.80841
G01 X1.24543 Y0.80807
G01 X1.25119 Y0.80615
G01 X1.25634 Y0.80298
G01 X1.26063 Y0.79868
G01 X1.26253 Y0.79581
G01 X1.26538 Y0.79368
G01 X1.26673 Y0.79306
G01 X1.27026 Y0.79281
G01 X1.27174 Y0.79302
G01 X1.27531 Y0.79504
G01 X1.27905 Y0.79890
G01 X1.28523 Y0.80329
G01 X1.29213 Y0.80642
G01 X1.29950 Y0.80820
G01 X1.30707 Y0.80854
G01 X1.31455 Y0.80745
G01 X1.32192 Y0.80485
G01 X1.32828 Y0.80117
G01 X1.33383 Y0.79636
G01 X1.33869 Y0.79024
G01 X1.34215 Y0.78351
G01 X1.34428 Y0.77624
G01 X1.34482 Y0.77059
G01 X1.34482 Y0.74336
G01 X1.34336 Y0.73571
G01 X1.34053 Y0.72869
G01 X1.33642 Y0.72233
G01 X1.33118 Y0.71685
G01 X1.32500 Y0.71247
G01 X1.31810 Y0.70934
G01 X1.31074 Y0.70756
G01 X1.30317 Y0.70720
G01 X1.29567 Y0.70829
G01 X1.28851 Y0.71077
G01 X1.28195 Y0.71457
G01 X1.27446 Y0.72123
G01 X1.27141 Y0.72259
G01 X1.26995 Y0.72292
G01 X1.26645 Y0.72242
G01 X1.26505 Y0.72191
G01 X1.26198 Y0.71919
G01 X1.26064 Y0.71709
G01 X1.25638 Y0.71280
G01 X1.25123 Y0.70962
G01 X1.24547 Y0.70769
G01 X1.24194 Y0.70734
G01 X1.21081 Y0.70734
G01 X1.20733 Y0.70769
G01 X1.20156 Y0.70960
G01 X1.19641 Y0.71277
G01 X1.19213 Y0.71705
G01 X1.18895 Y0.72219
G01 X1.18703 Y0.72795
G01 X1.18667 Y0.73149
G01 X1.18864 Y0.73159
G01 X1.18864 Y0.78416
G01 X1.18895 Y0.78733
G01 X1.19073 Y0.79268
G01 X1.19366 Y0.79744
G01 X1.19761 Y0.80140
G01 X1.20236 Y0.80434
G01 X1.20770 Y0.80612
G01 X1.21092 Y0.80644
G01 X1.24184 Y0.80644
G01 X1.24501 Y0.80614
G01 X1.25036 Y0.80435
G01 X1.25511 Y0.80142
G01 X1.25908 Y0.79744
G01 X1.26110 Y0.79446
G01 X1.26423 Y0.79208
G01 X1.26520 Y0.79152
G01 X1.26626 Y0.79115
G01 X1.27016 Y0.79085
G01 X1.27129 Y0.79090
G01 X1.27238 Y0.79116
G01 X1.27582 Y0.79302
G01 X1.27715 Y0.79406
G01 X1.28034 Y0.79740
G01 X1.28622 Y0.80157
G01 X1.29277 Y0.80455
G01 X1.29977 Y0.80624
G01 X1.30697 Y0.80657
G01 X1.31408 Y0.80553
G01 X1.32109 Y0.80306
G01 X1.32713 Y0.79956
G01 X1.33240 Y0.79499
G01 X1.33702 Y0.78917
G01 X1.34031 Y0.78278
G01 X1.34234 Y0.77587
G01 X1.34285 Y0.77050
G01 X1.34285 Y0.74355
G01 X1.34146 Y0.73627
G01 X1.33877 Y0.72960
G01 X1.33487 Y0.72355
G01 X1.32989 Y0.71835
G01 X1.32401 Y0.71419
G01 X1.31746 Y0.71121
G01 X1.31046 Y0.70952
G01 X1.30327 Y0.70918
G01 X1.29614 Y0.71021
G01 X1.28933 Y0.71257
G01 X1.28310 Y0.71618
G01 X1.27549 Y0.72291
G01 X1.27219 Y0.72440
G01 X1.27112 Y0.72475
G01 X1.27001 Y0.72489
G01 X1.26613 Y0.72436
G01 X1.26504 Y0.72408
G01 X1.26403 Y0.72359
G01 X1.26047 Y0.72045
G01 X1.25909 Y0.71832
G01 X1.25515 Y0.71435
G01 X1.25039 Y0.71141
G01 X1.24505 Y0.70963
G01 X1.24184 Y0.70931
G01 X1.21091 Y0.70931
G01 X1.20774 Y0.70961
G01 X1.20240 Y0.71140
G01 X1.19764 Y0.71433
G01 X1.19368 Y0.71828
G01 X1.19074 Y0.72303
G01 X1.18896 Y0.72837
G01 X1.18864 Y0.73159
G01 X1.19061 Y0.73169
G01 X1.19061 Y0.78406
G01 X1.19089 Y0.78692
G01 X1.19252 Y0.79184
G01 X1.19521 Y0.79621
G01 X1.19884 Y0.79984
G01 X1.20320 Y0.80254
G01 X1.20812 Y0.80418
G01 X1.21102 Y0.80447
G01 X1.24174 Y0.80447
G01 X1.24460 Y0.80420
G01 X1.24952 Y0.80256
G01 X1.25389 Y0.79987
G01 X1.25753 Y0.79621
G01 X1.25967 Y0.79310
G01 X1.26309 Y0.79048
G01 X1.26438 Y0.78973
G01 X1.26579 Y0.78924
G01 X1.27007 Y0.78888
G01 X1.27156 Y0.78895
G01 X1.27302 Y0.78930
G01 X1.27680 Y0.79131
G01 X1.27857 Y0.79269
G01 X1.28164 Y0.79591
G01 X1.28720 Y0.79986
G01 X1.29342 Y0.80268
G01 X1.30005 Y0.80428
G01 X1.30687 Y0.80459
G01 X1.31361 Y0.80361
G01 X1.32026 Y0.80126
G01 X1.32598 Y0.79795
G01 X1.33097 Y0.79362
G01 X1.33536 Y0.78809
G01 X1.33848 Y0.78205
G01 X1.34040 Y0.77550
G01 X1.34089 Y0.77041
G01 X1.34089 Y0.74374
G01 X1.33956 Y0.73683
G01 X1.33702 Y0.73051
G01 X1.33331 Y0.72478
G01 X1.32859 Y0.71985
G01 X1.32303 Y0.71590
G01 X1.31682 Y0.71308
G01 X1.31018 Y0.71148
G01 X1.30336 Y0.71115
G01 X1.29661 Y0.71213
G01 X1.29016 Y0.71437
G01 X1.28425 Y0.71779
G01 X1.27887 Y0.72247
G01 X1.27741 Y0.72395
G01 X1.27651 Y0.72459
G01 X1.27297 Y0.72621
G01 X1.27155 Y0.72667
G01 X1.27007 Y0.72685
G01 X1.26581 Y0.72631
G01 X1.26437 Y0.72593
G01 X1.26302 Y0.72528
G01 X1.25974 Y0.72252
G01 X1.25896 Y0.72171
G01 X1.25753 Y0.71955
G01 X1.25392 Y0.71590
G01 X1.24955 Y0.71321
G01 X1.24464 Y0.71157
G01 X1.24173 Y0.71128
G01 X1.21102 Y0.71128
G01 X1.20816 Y0.71155
G01 X1.20324 Y0.71319
G01 X1.19887 Y0.71588
G01 X1.19524 Y0.71951
G01 X1.19254 Y0.72387
G01 X1.19090 Y0.72879
G01 X1.19061 Y0.73169
G01 X1.19181 Y0.73175
G01 X1.19182 Y0.78405
G01 X1.19212 Y0.78673
G01 X1.19368 Y0.79139
G01 X1.19614 Y0.79537
G01 X1.19785 Y0.79718
G01 X1.19969 Y0.79890
G01 X1.20379 Y0.80144
G01 X1.20834 Y0.80292
G01 X1.21093 Y0.80329
G01 X1.24164 Y0.80329
G01 X1.24339 Y0.80311
G01 X1.24554 Y0.80261
G01 X1.24893 Y0.80144
G01 X1.25305 Y0.79893
G01 X1.25651 Y0.79549
G01 X1.26030 Y0.79005
G01 X1.26194 Y0.78888
G01 X1.26356 Y0.78794
G01 X1.26533 Y0.78732
G01 X1.26718 Y0.78705
G01 X1.26997 Y0.78692
G01 X1.27184 Y0.78700
G01 X1.27366 Y0.78744
G01 X1.27586 Y0.78850
G01 X1.28280 Y0.79521
G01 X1.28788 Y0.79882
G01 X1.29388 Y0.80153
G01 X1.30025 Y0.80302
G01 X1.30683 Y0.80331
G01 X1.30979 Y0.80298
G01 X1.31333 Y0.80235
G01 X1.31686 Y0.80123
G01 X1.31968 Y0.80012
G01 X1.32332 Y0.79813
G01 X1.32519 Y0.79692
G01 X1.32744 Y0.79515
G01 X1.33003 Y0.79276
G01 X1.33247 Y0.78990
G01 X1.33427 Y0.78742
G01 X1.33733 Y0.78150
G01 X1.33920 Y0.77518
G01 X1.33968 Y0.77035
G01 X1.33973 Y0.74705
G01 X1.33959 Y0.74381
G01 X1.33916 Y0.74089
G01 X1.33833 Y0.73723
G01 X1.33630 Y0.73198
G01 X1.33376 Y0.72763
G01 X1.33254 Y0.72585
G01 X1.32911 Y0.72210
G01 X1.32772 Y0.72074
G01 X1.32235 Y0.71694
G01 X1.31635 Y0.71423
G01 X1.31008 Y0.71274
G01 X1.30350 Y0.71243
G01 X1.30039 Y0.71278
G01 X1.29688 Y0.71340
G01 X1.29547 Y0.71380
G01 X1.29066 Y0.71557
G01 X1.28691 Y0.71762
G01 X1.28496 Y0.71888
G01 X1.28119 Y0.72203
G01 X1.27603 Y0.72702
G01 X1.27376 Y0.72801
G01 X1.27198 Y0.72859
G01 X1.27012 Y0.72882
G01 X1.26826 Y0.72870
G01 X1.26550 Y0.72825
G01 X1.26369 Y0.72777
G01 X1.26200 Y0.72696
G01 X1.26034 Y0.72571
G01 X1.25650 Y0.72026
G01 X1.25317 Y0.71691
G01 X1.24896 Y0.71432
G01 X1.24442 Y0.71283
G01 X1.24122 Y0.71246
G01 X1.21110 Y0.71246
G01 X1.20847 Y0.71276
G01 X1.20383 Y0.71432
G01 X1.20126 Y0.71576
G01 X1.19963 Y0.71690
G01 X1.19626 Y0.72021
G01 X1.19362 Y0.72447
G01 X1.19210 Y0.72914
G01 X1.19181 Y0.73175
G01 X1.19373 Y0.73328
G01 X1.19378 Y0.78387
G01 X1.19404 Y0.78625
G01 X1.19544 Y0.79048
G01 X1.19775 Y0.79421
G01 X1.19926 Y0.79581
G01 X1.20083 Y0.79729
G01 X1.20457 Y0.79960
G01 X1.20880 Y0.80101
G01 X1.21118 Y0.80132
G01 X1.24120 Y0.80132
G01 X1.24392 Y0.80102
G01 X1.24816 Y0.79961
G01 X1.25190 Y0.79731
G01 X1.25502 Y0.79420
G01 X1.25872 Y0.78889
G01 X1.25941 Y0.78657
G01 X1.25984 Y0.78248
G01 X1.25984 Y0.73327
G01 X1.25957 Y0.73019
G01 X1.25869 Y0.72678
G01 X1.25501 Y0.72155
G01 X1.25201 Y0.71853
G01 X1.24819 Y0.71615
G01 X1.24395 Y0.71474
G01 X1.24156 Y0.71443
G01 X1.21209 Y0.71441
G01 X1.20961 Y0.71461
G01 X1.20775 Y0.71503
G01 X1.20460 Y0.71614
G01 X1.20231 Y0.71747
G01 X1.20075 Y0.71853
G01 X1.19786 Y0.72142
G01 X1.19545 Y0.72524
G01 X1.19405 Y0.72947
G01 X1.19373 Y0.73328
G01 X1.19488 Y0.73327
G01 X1.19493 Y0.78330
G01 X1.19527 Y0.78616
G01 X1.19612 Y0.78892
G01 X1.19679 Y0.79042
G01 X1.19827 Y0.79289
G01 X1.20074 Y0.79565
G01 X1.20374 Y0.79782
G01 X1.20712 Y0.79933
G01 X1.20993 Y0.79997
G01 X1.21261 Y0.80020
G01 X1.24120 Y0.80014
G01 X1.24484 Y0.79954
G01 X1.24640 Y0.79903
G01 X1.24902 Y0.79782
G01 X1.25201 Y0.79565
G01 X1.25449 Y0.79289
G01 X1.25597 Y0.79042
G01 X1.25664 Y0.78892
G01 X1.25749 Y0.78616
G01 X1.25787 Y0.78248
G01 X1.25787 Y0.73327
G01 X1.25761 Y0.73040
G01 X1.25727 Y0.72879
G01 X1.25634 Y0.72606
G01 X1.25494 Y0.72355
G01 X1.25397 Y0.72221
G01 X1.25201 Y0.72010
G01 X1.24902 Y0.71793
G01 X1.24563 Y0.71642
G01 X1.24282 Y0.71578
G01 X1.24120 Y0.71561
G01 X1.21116 Y0.71562
G01 X1.20792 Y0.71621
G01 X1.20635 Y0.71671
G01 X1.20374 Y0.71793
G01 X1.20074 Y0.72010
G01 X1.19827 Y0.72286
G01 X1.19679 Y0.72533
G01 X1.19612 Y0.72683
G01 X1.19527 Y0.72958
G01 X1.19488 Y0.73327
G01 X1.19685 Y0.73327
G01 X1.19688 Y0.78310
G01 X1.19719 Y0.78576
G01 X1.19799 Y0.78831
G01 X1.19986 Y0.79174
G01 X1.20206 Y0.79418
G01 X1.20472 Y0.79612
G01 X1.20773 Y0.79746
G01 X1.21034 Y0.79805
G01 X1.21261 Y0.79823
G01 X1.24120 Y0.79817
G01 X1.24241 Y0.79805
G01 X1.24502 Y0.79746
G01 X1.24748 Y0.79640
G01 X1.25069 Y0.79418
G01 X1.25290 Y0.79174
G01 X1.25426 Y0.78944
G01 X1.25476 Y0.78831
G01 X1.25566 Y0.78514
G01 X1.25590 Y0.78248
G01 X1.25590 Y0.73327
G01 X1.25540 Y0.72940
G01 X1.25454 Y0.72686
G01 X1.25323 Y0.72453
G01 X1.25069 Y0.72157
G01 X1.24803 Y0.71963
G01 X1.24502 Y0.71829
G01 X1.24241 Y0.71770
G01 X1.24120 Y0.71757
G01 X1.21126 Y0.71758
G01 X1.20833 Y0.71813
G01 X1.20715 Y0.71851
G01 X1.20472 Y0.71963
G01 X1.20206 Y0.72157
G01 X1.19986 Y0.72401
G01 X1.19849 Y0.72631
G01 X1.19799 Y0.72744
G01 X1.19710 Y0.73060
G01 X1.19685 Y0.73327
G01 X1.19882 Y0.73327
G01 X1.19884 Y0.78289
G01 X1.19912 Y0.78535
G01 X1.19986 Y0.78770
G01 X1.20145 Y0.79058
G01 X1.20338 Y0.79272
G01 X1.20571 Y0.79441
G01 X1.20834 Y0.79559
G01 X1.21075 Y0.79612
G01 X1.21261 Y0.79626
G01 X1.24200 Y0.79612
G01 X1.24442 Y0.79559
G01 X1.24668 Y0.79460
G01 X1.24938 Y0.79272
G01 X1.25130 Y0.79058
G01 X1.25256 Y0.78845
G01 X1.25370 Y0.78494
G01 X1.25394 Y0.78248
G01 X1.25394 Y0.73327
G01 X1.25353 Y0.73001
G01 X1.25275 Y0.72766
G01 X1.25130 Y0.72517
G01 X1.24938 Y0.72303
G01 X1.24705 Y0.72134
G01 X1.24442 Y0.72016
G01 X1.24160 Y0.71956
G01 X1.21136 Y0.71955
G01 X1.20796 Y0.72031
G01 X1.20571 Y0.72134
G01 X1.20338 Y0.72303
G01 X1.20145 Y0.72517
G01 X1.20020 Y0.72730
G01 X1.19906 Y0.73081
G01 X1.19882 Y0.73327
G01 X1.20079 Y0.73327
G01 X1.20105 Y0.73081
G01 X1.20181 Y0.72846
G01 X1.20304 Y0.72633
G01 X1.20455 Y0.72464
G01 X1.20688 Y0.72295
G01 X1.20895 Y0.72204
G01 X1.21147 Y0.72151
G01 X1.24139 Y0.72152
G01 X1.24381 Y0.72204
G01 X1.24606 Y0.72304
G01 X1.24806 Y0.72449
G01 X1.24971 Y0.72633
G01 X1.25095 Y0.72846
G01 X1.25166 Y0.73061
G01 X1.25197 Y0.73327
G01 X1.25197 Y0.78248
G01 X1.25174 Y0.78473
G01 X1.25085 Y0.78747
G01 X1.24971 Y0.78942
G01 X1.24806 Y0.79126
G01 X1.24606 Y0.79271
G01 X1.24400 Y0.79364
G01 X1.24139 Y0.79423
G01 X1.21147 Y0.79424
G01 X1.20895 Y0.79371
G01 X1.20669 Y0.79271
G01 X1.20469 Y0.79126
G01 X1.20304 Y0.78942
G01 X1.20181 Y0.78728
G01 X1.20110 Y0.78514
G01 X1.20079 Y0.78248
G01 X1.20079 Y0.73327
G04 P0 ( dwell for no time -- G64 should not smooth over this point )
G00 Z0.01181 ( retract )

G00 X1.27165 Y0.74705 ( rapid move to begin. )
G01 F12.59843
( begin pre-milling-gcode )
M7
( end pre-milling-gcode )
( Mill infeed pass 1/1 )
G01 Z-0.00200
G04 P0 ( dwell for no time -- G64 should not smooth over this point )
G01 F31.49606
G01 X1.27165 Y0.74705
G01 X1.27165 Y0.76870
G01 X1.27239 Y0.77566
G01 X1.27455 Y0.78231
G01 X1.27725 Y0.78711
G01 X1.28084 Y0.79045
G01 X1.28374 Y0.79346
G01 X1.28881 Y0.79707
G01 X1.29447 Y0.79964
G01 X1.30054 Y0.80108
G01 X1.30674 Y0.80134
G01 X1.30952 Y0.80103
G01 X1.31284 Y0.80044
G01 X1.31615 Y0.79940
G01 X1.31890 Y0.79830
G01 X1.32231 Y0.79644
G01 X1.32408 Y0.79529
G01 X1.32619 Y0.79362
G01 X1.32861 Y0.79138
G01 X1.33214 Y0.78704
G01 X1.33451 Y0.78288
G01 X1.33546 Y0.78087
G01 X1.33724 Y0.77489
G01 X1.33776 Y0.76869
G01 X1.33774 Y0.74604
G01 X1.33763 Y0.74405
G01 X1.33682 Y0.73925
G01 X1.33643 Y0.73777
G01 X1.33452 Y0.73281
G01 X1.33209 Y0.72868
G01 X1.33093 Y0.72699
G01 X1.32650 Y0.72229
G01 X1.32228 Y0.71926
G01 X1.32061 Y0.71829
G01 X1.31576 Y0.71611
G01 X1.30969 Y0.71467
G01 X1.30350 Y0.71441
G01 X1.30071 Y0.71472
G01 X1.29602 Y0.71569
G01 X1.29152 Y0.71736
G01 X1.28792 Y0.71931
G01 X1.28616 Y0.72046
G01 X1.28251 Y0.72349
G01 X1.27734 Y0.72849
G01 X1.27455 Y0.73344
G01 X1.27265 Y0.73910
G01 X1.27222 Y0.74111
G01 X1.27171 Y0.74602
G01 X1.27165 Y0.74705
G01 X1.27362 Y0.74705
G01 X1.27362 Y0.76870
G01 X1.27431 Y0.77525
G01 X1.27605 Y0.78074
G01 X1.27672 Y0.78225
G01 X1.27964 Y0.78721
G01 X1.28346 Y0.79152
G01 X1.28468 Y0.79263
G01 X1.28868 Y0.79553
G01 X1.29010 Y0.79635
G01 X1.29539 Y0.79866
G01 X1.30183 Y0.80002
G01 X1.30759 Y0.80007
G01 X1.30922 Y0.79990
G01 X1.31485 Y0.79866
G01 X1.32087 Y0.79598
G01 X1.32619 Y0.79211
G01 X1.33060 Y0.78721
G01 X1.33389 Y0.78151
G01 X1.33571 Y0.77605
G01 X1.33605 Y0.77444
G01 X1.33661 Y0.76870
G01 X1.33661 Y0.74705
G01 X1.33605 Y0.74131
G01 X1.33571 Y0.73970
G01 X1.33389 Y0.73424
G01 X1.33105 Y0.72923
G01 X1.33008 Y0.72789
G01 X1.32619 Y0.72364
G01 X1.32156 Y0.72022
G01 X1.32013 Y0.71940
G01 X1.31485 Y0.71709
G01 X1.30922 Y0.71585
G01 X1.30759 Y0.71568
G01 X1.30183 Y0.71572
G01 X1.29618 Y0.71688
G01 X1.29462 Y0.71739
G01 X1.28937 Y0.71977
G01 X1.28468 Y0.72312
G01 X1.28346 Y0.72422
G01 X1.27964 Y0.72854
G01 X1.27672 Y0.73350
G01 X1.27605 Y0.73501
G01 X1.27431 Y0.74050
G01 X1.27362 Y0.74705
G01 X1.27559 Y0.74705
G01 X1.27559 Y0.76870
G01 X1.27614 Y0.77423
G01 X1.27640 Y0.77544
G01 X1.27814 Y0.78071
G01 X1.28123 Y0.78606
G01 X1.28536 Y0.79064
G01 X1.28984 Y0.79394
G01 X1.29090 Y0.79455
G01 X1.29599 Y0.79678
G01 X1.30142 Y0.79797
G01 X1.30265 Y0.79810
G01 X1.30820 Y0.79807
G01 X1.31424 Y0.79678
G01 X1.31988 Y0.79427
G01 X1.32439 Y0.79103
G01 X1.32531 Y0.79021
G01 X1.32901 Y0.78606
G01 X1.33181 Y0.78126
G01 X1.33231 Y0.78013
G01 X1.33400 Y0.77484
G01 X1.33464 Y0.76870
G01 X1.33464 Y0.74705
G01 X1.33410 Y0.74152
G01 X1.33384 Y0.74031
G01 X1.33209 Y0.73504
G01 X1.32901 Y0.72969
G01 X1.32531 Y0.72554
G01 X1.32439 Y0.72472
G01 X1.31988 Y0.72148
G01 X1.31424 Y0.71897
G01 X1.30881 Y0.71778
G01 X1.30759 Y0.71765
G01 X1.30203 Y0.71768
G01 X1.29659 Y0.71881
G01 X1.29542 Y0.71919
G01 X1.29035 Y0.72148
G01 X1.28584 Y0.72472
G01 X1.28492 Y0.72554
G01 X1.28123 Y0.72969
G01 X1.27842 Y0.73449
G01 X1.27792 Y0.73562
G01 X1.27624 Y0.74091
G01 X1.27559 Y0.74705
G01 X1.27756 Y0.74705
G01 X1.27756 Y0.76870
G01 X1.27810 Y0.77402
G01 X1.27994 Y0.77991
G01 X1.28282 Y0.78490
G01 X1.28668 Y0.78918
G01 X1.29099 Y0.79234
G01 X1.29660 Y0.79491
G01 X1.30265 Y0.79613
G01 X1.30800 Y0.79611
G01 X1.31363 Y0.79491
G01 X1.31890 Y0.79257
G01 X1.32385 Y0.78889
G01 X1.32741 Y0.78490
G01 X1.33011 Y0.78028
G01 X1.33207 Y0.77443
G01 X1.33268 Y0.76870
G01 X1.33268 Y0.74705
G01 X1.33214 Y0.74173
G01 X1.33029 Y0.73584
G01 X1.32741 Y0.73085
G01 X1.32324 Y0.72631
G01 X1.31890 Y0.72318
G01 X1.31402 Y0.72099
G01 X1.30800 Y0.71964
G01 X1.30183 Y0.71970
G01 X1.29660 Y0.72084
G01 X1.29171 Y0.72299
G01 X1.28668 Y0.72657
G01 X1.28260 Y0.73119
G01 X1.27994 Y0.73584
G01 X1.27816 Y0.74132
G01 X1.27756 Y0.74705
G01 X1.27953 Y0.74705
G01 X1.28009 Y0.74173
G01 X1.28167 Y0.73683
G01 X1.28454 Y0.73185
G01 X1.28799 Y0.72803
G01 X1.29232 Y0.72489
G01 X1.29721 Y0.72271
G01 X1.30224 Y0.72163
G01 X1.30779 Y0.72160
G01 X1.31322 Y0.72278
G01 X1.31791 Y0.72489
G01 X1.32208 Y0.72790
G01 X1.32582 Y0.73201
G01 X1.32857 Y0.73683
G01 X1.33015 Y0.74173
G01 X1.33070 Y0.74684
G01 X1.33071 Y0.76870
G01 X1.33015 Y0.77402
G01 X1.32850 Y0.77911
G01 X1.32569 Y0.78390
G01 X1.32224 Y0.78772
G01 X1.31809 Y0.79075
G01 X1.31303 Y0.79304
G01 X1.30759 Y0.79416
G01 X1.30244 Y0.79415
G01 X1.29721 Y0.79304
G01 X1.29215 Y0.79075
G01 X1.28799 Y0.78772
G01 X1.28441 Y0.78374
G01 X1.28174 Y0.77911
G01 X1.28005 Y0.77382
G01 X1.27953 Y0.76870
G01 X1.27953 Y0.74705
G04 P0 ( dwell for no time -- G64 should not smooth over this point )
G00 Z0.01181 ( retract )

G00 X1.48195 Y0.73107 ( rapid move to begin. )
G01 F12.59843
( begin pre-milling-gcode )
M7
( end pre-milling-gcode )
( Mill infeed pass 1/1 )
G01 Z-0.00200
G04 P0 ( dwell for no time -- G64 should not smooth over this point )
G01 F31.49606
G01 X1.48195 Y0.73107
G01 X1.48199 Y0.74798
G01 X1.48355 Y0.75658
G01 X1.48653 Y0.76480
G01 X1.49085 Y0.77240
G01 X1.49640 Y0.77916
G01 X1.50300 Y0.78489
G01 X1.50657 Y0.78705
G01 X1.51048 Y0.78942
G01 X1.51861 Y0.79263
G01 X1.52716 Y0.79443
G01 X1.53590 Y0.79476
G01 X1.54457 Y0.79361
G01 X1.55291 Y0.79101
G01 X1.56071 Y0.78705
G01 X1.56772 Y0.78183
G01 X1.57376 Y0.77551
G01 X1.57689 Y0.77086
G01 X1.57815 Y0.76947
G01 X1.57887 Y0.76898
G01 X1.58147 Y0.76796
G01 X1.58221 Y0.76782
G01 X1.58532 Y0.76840
G01 X1.58630 Y0.76892
G01 X1.58850 Y0.77107
G01 X1.58928 Y0.77240
G01 X1.59482 Y0.77916
G01 X1.60143 Y0.78489
G01 X1.60890 Y0.78942
G01 X1.61703 Y0.79263
G01 X1.62559 Y0.79443
G01 X1.63432 Y0.79476
G01 X1.64299 Y0.79361
G01 X1.65134 Y0.79101
G01 X1.65913 Y0.78705
G01 X1.66615 Y0.78183
G01 X1.67218 Y0.77551
G01 X1.67531 Y0.77086
G01 X1.67679 Y0.76927
G01 X1.67990 Y0.76796
G01 X1.68063 Y0.76782
G01 X1.68374 Y0.76840
G01 X1.68473 Y0.76892
G01 X1.68693 Y0.77107
G01 X1.68771 Y0.77240
G01 X1.69325 Y0.77916
G01 X1.69985 Y0.78489
G01 X1.70733 Y0.78942
G01 X1.71546 Y0.79263
G01 X1.72401 Y0.79443
G01 X1.73275 Y0.79476
G01 X1.74142 Y0.79361
G01 X1.74977 Y0.79101
G01 X1.75756 Y0.78705
G01 X1.76458 Y0.78183
G01 X1.76936 Y0.77689
G01 X1.77237 Y0.77551
G01 X1.77310 Y0.77535
G01 X1.77659 Y0.77592
G01 X1.77723 Y0.77630
G01 X1.77930 Y0.77817
G01 X1.78308 Y0.78414
G01 X1.78767 Y0.78874
G01 X1.79320 Y0.79217
G01 X1.79939 Y0.79423
G01 X1.80323 Y0.79463
G01 X1.85425 Y0.79463
G01 X1.85804 Y0.79424
G01 X1.86423 Y0.79219
G01 X1.86977 Y0.78877
G01 X1.87437 Y0.78418
G01 X1.87779 Y0.77865
G01 X1.87986 Y0.77246
G01 X1.88025 Y0.76862
G01 X1.88025 Y0.70776
G01 X1.87987 Y0.70397
G01 X1.87781 Y0.69778
G01 X1.87440 Y0.69224
G01 X1.86980 Y0.68764
G01 X1.86427 Y0.68421
G01 X1.85809 Y0.68215
G01 X1.85424 Y0.68175
G01 X1.80323 Y0.68175
G01 X1.79943 Y0.68214
G01 X1.79325 Y0.68419
G01 X1.78771 Y0.68761
G01 X1.78310 Y0.69221
G01 X1.77892 Y0.69875
G01 X1.77607 Y0.70059
G01 X1.77500 Y0.70087
G01 X1.77220 Y0.70079
G01 X1.77115 Y0.70045
G01 X1.76862 Y0.69870
G01 X1.76738 Y0.69722
G01 X1.76078 Y0.69149
G01 X1.75330 Y0.68696
G01 X1.74517 Y0.68375
G01 X1.73662 Y0.68195
G01 X1.72788 Y0.68162
G01 X1.71921 Y0.68277
G01 X1.71086 Y0.68537
G01 X1.70307 Y0.68933
G01 X1.69606 Y0.69455
G01 X1.69002 Y0.70087
G01 X1.68689 Y0.70552
G01 X1.68541 Y0.70711
G01 X1.68230 Y0.70842
G01 X1.68157 Y0.70856
G01 X1.67846 Y0.70798
G01 X1.67748 Y0.70746
G01 X1.67528 Y0.70531
G01 X1.67450 Y0.70398
G01 X1.66895 Y0.69722
G01 X1.66235 Y0.69149
G01 X1.65488 Y0.68696
G01 X1.64675 Y0.68375
G01 X1.63819 Y0.68195
G01 X1.62945 Y0.68162
G01 X1.62079 Y0.68277
G01 X1.61244 Y0.68537
G01 X1.60464 Y0.68933
G01 X1.59763 Y0.69455
G01 X1.59160 Y0.70087
G01 X1.58847 Y0.70552
G01 X1.58720 Y0.70691
G01 X1.58648 Y0.70740
G01 X1.58388 Y0.70842
G01 X1.58315 Y0.70856
G01 X1.58003 Y0.70798
G01 X1.57905 Y0.70746
G01 X1.57685 Y0.70531
G01 X1.57607 Y0.70398
G01 X1.57053 Y0.69722
G01 X1.56393 Y0.69149
G01 X1.55645 Y0.68696
G01 X1.54832 Y0.68375
G01 X1.53976 Y0.68195
G01 X1.53103 Y0.68162
G01 X1.52236 Y0.68277
G01 X1.51401 Y0.68537
G01 X1.50622 Y0.68933
G01 X1.49921 Y0.69455
G01 X1.49317 Y0.70087
G01 X1.48829 Y0.70812
G01 X1.48470 Y0.71610
G01 X1.48250 Y0.72456
G01 X1.48195 Y0.73107
G01 X1.48392 Y0.73115
G01 X1.48395 Y0.74781
G01 X1.48545 Y0.75607
G01 X1.48832 Y0.76397
G01 X1.49248 Y0.77128
G01 X1.49781 Y0.77778
G01 X1.50416 Y0.78330
G01 X1.51135 Y0.78766
G01 X1.51917 Y0.79075
G01 X1.52740 Y0.79247
G01 X1.53581 Y0.79278
G01 X1.54414 Y0.79168
G01 X1.55217 Y0.78918
G01 X1.55967 Y0.78537
G01 X1.56641 Y0.78035
G01 X1.57222 Y0.77427
G01 X1.57525 Y0.76976
G01 X1.57714 Y0.76773
G01 X1.57815 Y0.76715
G01 X1.58075 Y0.76612
G01 X1.58222 Y0.76585
G01 X1.58642 Y0.76669
G01 X1.58767 Y0.76750
G01 X1.59006 Y0.76986
G01 X1.59091 Y0.77128
G01 X1.59623 Y0.77778
G01 X1.60259 Y0.78330
G01 X1.60978 Y0.78766
G01 X1.61760 Y0.79075
G01 X1.62583 Y0.79247
G01 X1.63423 Y0.79278
G01 X1.64257 Y0.79168
G01 X1.65060 Y0.78918
G01 X1.65809 Y0.78537
G01 X1.66484 Y0.78035
G01 X1.67064 Y0.77427
G01 X1.67368 Y0.76976
G01 X1.67557 Y0.76773
G01 X1.67658 Y0.76715
G01 X1.67918 Y0.76612
G01 X1.68064 Y0.76585
G01 X1.68485 Y0.76669
G01 X1.68609 Y0.76750
G01 X1.68848 Y0.76986
G01 X1.68933 Y0.77128
G01 X1.69466 Y0.77778
G01 X1.70101 Y0.78330
G01 X1.70820 Y0.78766
G01 X1.71602 Y0.79075
G01 X1.72425 Y0.79247
G01 X1.73266 Y0.79278
G01 X1.74099 Y0.79168
G01 X1.74902 Y0.78918
G01 X1.75652 Y0.78537
G01 X1.76327 Y0.78035
G01 X1.76775 Y0.77570
G01 X1.76856 Y0.77505
G01 X1.77158 Y0.77370
G01 X1.77304 Y0.77338
G01 X1.77727 Y0.77407
G01 X1.77854 Y0.77484
G01 X1.78101 Y0.77711
G01 X1.78462 Y0.78292
G01 X1.78890 Y0.78720
G01 X1.79404 Y0.79038
G01 X1.79980 Y0.79232
G01 X1.80334 Y0.79266
G01 X1.85414 Y0.79266
G01 X1.85763 Y0.79233
G01 X1.86340 Y0.79040
G01 X1.86855 Y0.78723
G01 X1.87283 Y0.78295
G01 X1.87601 Y0.77781
G01 X1.87795 Y0.77205
G01 X1.87829 Y0.76851
G01 X1.87829 Y0.70786
G01 X1.87795 Y0.70438
G01 X1.87603 Y0.69861
G01 X1.87286 Y0.69346
G01 X1.86858 Y0.68918
G01 X1.86344 Y0.68600
G01 X1.85768 Y0.68408
G01 X1.85414 Y0.68372
G01 X1.80333 Y0.68372
G01 X1.79985 Y0.68405
G01 X1.79408 Y0.68598
G01 X1.78893 Y0.68915
G01 X1.78464 Y0.69344
G01 X1.78077 Y0.69956
G01 X1.77997 Y0.70047
G01 X1.77641 Y0.70259
G01 X1.77494 Y0.70284
G01 X1.77141 Y0.70267
G01 X1.77004 Y0.70208
G01 X1.76729 Y0.70015
G01 X1.76596 Y0.69860
G01 X1.75961 Y0.69309
G01 X1.75242 Y0.68873
G01 X1.74460 Y0.68564
G01 X1.73637 Y0.68391
G01 X1.72797 Y0.68359
G01 X1.71963 Y0.68469
G01 X1.71160 Y0.68719
G01 X1.70411 Y0.69100
G01 X1.69736 Y0.69602
G01 X1.69156 Y0.70211
G01 X1.68852 Y0.70662
G01 X1.68663 Y0.70865
G01 X1.68563 Y0.70923
G01 X1.68302 Y0.71026
G01 X1.68156 Y0.71053
G01 X1.67808 Y0.70991
G01 X1.67669 Y0.70935
G01 X1.67372 Y0.70652
G01 X1.67287 Y0.70510
G01 X1.66754 Y0.69860
G01 X1.66119 Y0.69309
G01 X1.65400 Y0.68873
G01 X1.64618 Y0.68564
G01 X1.63795 Y0.68391
G01 X1.62955 Y0.68359
G01 X1.62121 Y0.68469
G01 X1.61318 Y0.68719
G01 X1.60568 Y0.69100
G01 X1.59893 Y0.69602
G01 X1.59313 Y0.70211
G01 X1.59010 Y0.70662
G01 X1.58821 Y0.70865
G01 X1.58720 Y0.70923
G01 X1.58460 Y0.71026
G01 X1.58314 Y0.71053
G01 X1.57965 Y0.70991
G01 X1.57827 Y0.70935
G01 X1.57530 Y0.70652
G01 X1.57445 Y0.70510
G01 X1.56911 Y0.69860
G01 X1.56276 Y0.69309
G01 X1.55557 Y0.68873
G01 X1.54775 Y0.68564
G01 X1.53952 Y0.68391
G01 X1.53112 Y0.68359
G01 X1.52278 Y0.68469
G01 X1.51475 Y0.68719
G01 X1.50726 Y0.69100
G01 X1.50051 Y0.69602
G01 X1.49470 Y0.70211
G01 X1.49001 Y0.70908
G01 X1.48655 Y0.71675
G01 X1.48443 Y0.72489
G01 X1.48392 Y0.73115
G01 X1.48588 Y0.73123
G01 X1.48592 Y0.74763
G01 X1.48735 Y0.75555
G01 X1.49011 Y0.76314
G01 X1.49410 Y0.77016
G01 X1.49923 Y0.77641
G01 X1.50532 Y0.78170
G01 X1.51223 Y0.78589
G01 X1.51974 Y0.78886
G01 X1.52764 Y0.79051
G01 X1.53571 Y0.79081
G01 X1.54372 Y0.78975
G01 X1.55143 Y0.78735
G01 X1.55863 Y0.78370
G01 X1.56511 Y0.77887
G01 X1.57068 Y0.77303
G01 X1.57362 Y0.76866
G01 X1.57592 Y0.76619
G01 X1.57743 Y0.76532
G01 X1.58003 Y0.76429
G01 X1.58111 Y0.76398
G01 X1.58223 Y0.76388
G01 X1.58609 Y0.76454
G01 X1.58716 Y0.76487
G01 X1.58816 Y0.76539
G01 X1.58904 Y0.76609
G01 X1.59161 Y0.76865
G01 X1.59254 Y0.77016
G01 X1.59765 Y0.77641
G01 X1.60375 Y0.78170
G01 X1.61065 Y0.78589
G01 X1.61817 Y0.78886
G01 X1.62607 Y0.79051
G01 X1.63414 Y0.79081
G01 X1.64214 Y0.78975
G01 X1.64985 Y0.78735
G01 X1.65705 Y0.78370
G01 X1.66353 Y0.77887
G01 X1.66910 Y0.77303
G01 X1.67205 Y0.76866
G01 X1.67435 Y0.76619
G01 X1.67586 Y0.76532
G01 X1.67846 Y0.76429
G01 X1.67954 Y0.76398
G01 X1.68066 Y0.76388
G01 X1.68451 Y0.76454
G01 X1.68559 Y0.76487
G01 X1.68658 Y0.76539
G01 X1.68746 Y0.76609
G01 X1.69003 Y0.76865
G01 X1.69096 Y0.77016
G01 X1.69608 Y0.77641
G01 X1.70217 Y0.78170
G01 X1.70908 Y0.78589
G01 X1.71659 Y0.78886
G01 X1.72449 Y0.79051
G01 X1.73256 Y0.79081
G01 X1.74057 Y0.78975
G01 X1.74828 Y0.78735
G01 X1.75548 Y0.78370
G01 X1.76197 Y0.77887
G01 X1.76633 Y0.77433
G01 X1.76755 Y0.77337
G01 X1.77080 Y0.77190
G01 X1.77187 Y0.77155
G01 X1.77298 Y0.77141
G01 X1.77686 Y0.77194
G01 X1.77795 Y0.77222
G01 X1.77896 Y0.77271
G01 X1.78252 Y0.77585
G01 X1.78618 Y0.78169
G01 X1.79013 Y0.78565
G01 X1.79488 Y0.78859
G01 X1.80022 Y0.79038
G01 X1.80344 Y0.79069
G01 X1.85404 Y0.79069
G01 X1.85721 Y0.79038
G01 X1.86256 Y0.78861
G01 X1.86732 Y0.78567
G01 X1.87127 Y0.78172
G01 X1.87422 Y0.77697
G01 X1.87601 Y0.77163
G01 X1.87632 Y0.76841
G01 X1.87632 Y0.70796
G01 X1.87602 Y0.70479
G01 X1.87423 Y0.69945
G01 X1.87130 Y0.69469
G01 X1.86735 Y0.69073
G01 X1.86260 Y0.68779
G01 X1.85726 Y0.68600
G01 X1.85404 Y0.68569
G01 X1.80343 Y0.68569
G01 X1.80026 Y0.68599
G01 X1.79492 Y0.68777
G01 X1.79016 Y0.69071
G01 X1.78618 Y0.69468
G01 X1.78243 Y0.70062
G01 X1.78124 Y0.70198
G01 X1.77709 Y0.70444
G01 X1.77601 Y0.70473
G01 X1.77489 Y0.70480
G01 X1.77098 Y0.70459
G01 X1.76991 Y0.70425
G01 X1.76893 Y0.70370
G01 X1.76596 Y0.70161
G01 X1.76455 Y0.69998
G01 X1.75845 Y0.69469
G01 X1.75155 Y0.69050
G01 X1.74404 Y0.68753
G01 X1.73613 Y0.68587
G01 X1.72806 Y0.68556
G01 X1.72006 Y0.68662
G01 X1.71235 Y0.68902
G01 X1.70515 Y0.69268
G01 X1.69867 Y0.69750
G01 X1.69310 Y0.70335
G01 X1.69016 Y0.70772
G01 X1.68786 Y0.71019
G01 X1.68635 Y0.71106
G01 X1.68375 Y0.71209
G01 X1.68267 Y0.71240
G01 X1.68155 Y0.71250
G01 X1.67769 Y0.71184
G01 X1.67662 Y0.71152
G01 X1.67562 Y0.71099
G01 X1.67217 Y0.70773
G01 X1.67124 Y0.70622
G01 X1.66612 Y0.69998
G01 X1.66002 Y0.69469
G01 X1.65312 Y0.69050
G01 X1.64561 Y0.68753
G01 X1.63771 Y0.68587
G01 X1.62964 Y0.68556
G01 X1.62163 Y0.68662
G01 X1.61392 Y0.68902
G01 X1.60672 Y0.69268
G01 X1.60024 Y0.69750
G01 X1.59467 Y0.70335
G01 X1.59173 Y0.70772
G01 X1.58943 Y0.71019
G01 X1.58792 Y0.71106
G01 X1.58532 Y0.71209
G01 X1.58424 Y0.71240
G01 X1.58312 Y0.71250
G01 X1.57927 Y0.71184
G01 X1.57819 Y0.71152
G01 X1.57719 Y0.71099
G01 X1.57374 Y0.70773
G01 X1.57282 Y0.70622
G01 X1.56770 Y0.69998
G01 X1.56160 Y0.69469
G01 X1.55470 Y0.69050
G01 X1.54718 Y0.68753
G01 X1.53928 Y0.68587
G01 X1.53121 Y0.68556
G01 X1.52321 Y0.68662
G01 X1.51550 Y0.68902
G01 X1.50830 Y0.69268
G01 X1.50182 Y0.69750
G01 X1.49624 Y0.70334
G01 X1.49173 Y0.71004
G01 X1.48842 Y0.71741
G01 X1.48639 Y0.72522
G01 X1.48588 Y0.73123
G01 X1.48785 Y0.73131
G01 X1.48789 Y0.74745
G01 X1.48926 Y0.75504
G01 X1.49190 Y0.76232
G01 X1.49573 Y0.76904
G01 X1.50064 Y0.77503
G01 X1.50649 Y0.78010
G01 X1.51311 Y0.78412
G01 X1.52031 Y0.78696
G01 X1.52788 Y0.78855
G01 X1.53562 Y0.78884
G01 X1.54329 Y0.78782
G01 X1.55069 Y0.78552
G01 X1.55759 Y0.78202
G01 X1.56380 Y0.77739
G01 X1.56914 Y0.77179
G01 X1.57199 Y0.76756
G01 X1.57470 Y0.76464
G01 X1.57671 Y0.76348
G01 X1.57931 Y0.76246
G01 X1.58075 Y0.76205
G01 X1.58224 Y0.76191
G01 X1.58647 Y0.76261
G01 X1.58791 Y0.76304
G01 X1.58923 Y0.76374
G01 X1.59040 Y0.76467
G01 X1.59316 Y0.76745
G01 X1.59416 Y0.76904
G01 X1.59907 Y0.77503
G01 X1.60491 Y0.78010
G01 X1.61153 Y0.78412
G01 X1.61873 Y0.78696
G01 X1.62631 Y0.78855
G01 X1.63404 Y0.78884
G01 X1.64172 Y0.78782
G01 X1.64911 Y0.78552
G01 X1.65601 Y0.78202
G01 X1.66222 Y0.77740
G01 X1.66756 Y0.77179
G01 X1.67041 Y0.76756
G01 X1.67312 Y0.76464
G01 X1.67514 Y0.76348
G01 X1.67774 Y0.76246
G01 X1.67918 Y0.76205
G01 X1.68067 Y0.76191
G01 X1.68490 Y0.76261
G01 X1.68633 Y0.76304
G01 X1.68766 Y0.76374
G01 X1.68883 Y0.76467
G01 X1.69159 Y0.76745
G01 X1.69259 Y0.76904
G01 X1.69749 Y0.77503
G01 X1.70334 Y0.78010
G01 X1.70996 Y0.78412
G01 X1.71716 Y0.78696
G01 X1.72473 Y0.78855
G01 X1.73247 Y0.78884
G01 X1.74014 Y0.78782
G01 X1.74754 Y0.78552
G01 X1.75444 Y0.78202
G01 X1.76066 Y0.77738
G01 X1.76492 Y0.77297
G01 X1.76653 Y0.77168
G01 X1.77002 Y0.77009
G01 X1.77144 Y0.76963
G01 X1.77293 Y0.76944
G01 X1.77718 Y0.76999
G01 X1.77862 Y0.77037
G01 X1.77997 Y0.77102
G01 X1.78118 Y0.77191
G01 X1.78403 Y0.77459
G01 X1.78773 Y0.78046
G01 X1.79136 Y0.78409
G01 X1.79572 Y0.78679
G01 X1.80064 Y0.78845
G01 X1.80354 Y0.78872
G01 X1.85394 Y0.78872
G01 X1.85680 Y0.78845
G01 X1.86172 Y0.78681
G01 X1.86609 Y0.78412
G01 X1.86972 Y0.78049
G01 X1.87242 Y0.77613
G01 X1.87407 Y0.77121
G01 X1.87435 Y0.76831
G01 X1.87435 Y0.70806
G01 X1.87408 Y0.70521
G01 X1.87244 Y0.70029
G01 X1.86975 Y0.69592
G01 X1.86612 Y0.69229
G01 X1.86176 Y0.68959
G01 X1.85684 Y0.68793
G01 X1.85394 Y0.68766
G01 X1.80353 Y0.68766
G01 X1.80068 Y0.68793
G01 X1.79576 Y0.68957
G01 X1.79139 Y0.69226
G01 X1.78773 Y0.69592
G01 X1.78409 Y0.70167
G01 X1.78250 Y0.70349
G01 X1.77913 Y0.70564
G01 X1.77778 Y0.70629
G01 X1.77633 Y0.70667
G01 X1.77483 Y0.70677
G01 X1.77055 Y0.70651
G01 X1.76913 Y0.70605
G01 X1.76782 Y0.70533
G01 X1.76463 Y0.70306
G01 X1.76313 Y0.70136
G01 X1.75729 Y0.69628
G01 X1.75067 Y0.69227
G01 X1.74347 Y0.68942
G01 X1.73589 Y0.68783
G01 X1.72816 Y0.68754
G01 X1.72048 Y0.68855
G01 X1.71309 Y0.69085
G01 X1.70619 Y0.69436
G01 X1.69998 Y0.69898
G01 X1.69464 Y0.70458
G01 X1.69179 Y0.70882
G01 X1.68908 Y0.71174
G01 X1.68707 Y0.71290
G01 X1.68447 Y0.71392
G01 X1.68303 Y0.71433
G01 X1.68154 Y0.71447
G01 X1.67731 Y0.71377
G01 X1.67587 Y0.71334
G01 X1.67455 Y0.71264
G01 X1.67337 Y0.71171
G01 X1.67061 Y0.70893
G01 X1.66961 Y0.70734
G01 X1.66471 Y0.70136
G01 X1.65886 Y0.69628
G01 X1.65224 Y0.69227
G01 X1.64504 Y0.68942
G01 X1.63747 Y0.68783
G01 X1.62973 Y0.68754
G01 X1.62206 Y0.68855
G01 X1.61466 Y0.69085
G01 X1.60776 Y0.69436
G01 X1.60155 Y0.69898
G01 X1.59621 Y0.70458
G01 X1.59336 Y0.70882
G01 X1.59065 Y0.71174
G01 X1.58864 Y0.71290
G01 X1.58604 Y0.71392
G01 X1.58460 Y0.71433
G01 X1.58311 Y0.71447
G01 X1.57888 Y0.71377
G01 X1.57745 Y0.71334
G01 X1.57612 Y0.71264
G01 X1.57495 Y0.71171
G01 X1.57219 Y0.70893
G01 X1.57119 Y0.70734
G01 X1.56628 Y0.70136
G01 X1.56043 Y0.69628
G01 X1.55382 Y0.69227
G01 X1.54662 Y0.68942
G01 X1.53904 Y0.68783
G01 X1.53131 Y0.68754
G01 X1.52363 Y0.68855
G01 X1.51624 Y0.69085
G01 X1.50934 Y0.69436
G01 X1.50313 Y0.69898
G01 X1.49778 Y0.70458
G01 X1.49346 Y0.71100
G01 X1.49028 Y0.71806
G01 X1.48833 Y0.72555
G01 X1.48785 Y0.73131
G01 X1.48908 Y0.73135
G01 X1.48905 Y0.74421
G01 X1.48922 Y0.74738
G01 X1.49020 Y0.75342
G01 X1.49055 Y0.75476
G01 X1.49301 Y0.76174
G01 X1.49673 Y0.76826
G01 X1.50155 Y0.77406
G01 X1.50290 Y0.77542
G01 X1.50724 Y0.77900
G01 X1.51033 Y0.78107
G01 X1.51375 Y0.78296
G01 X1.52062 Y0.78575
G01 X1.52796 Y0.78729
G01 X1.53558 Y0.78753
G01 X1.53916 Y0.78718
G01 X1.54296 Y0.78653
G01 X1.54824 Y0.78504
G01 X1.55024 Y0.78428
G01 X1.55470 Y0.78215
G01 X1.55698 Y0.78089
G01 X1.56303 Y0.77643
G01 X1.56814 Y0.77097
G01 X1.57186 Y0.76555
G01 X1.57417 Y0.76263
G01 X1.57599 Y0.76165
G01 X1.57859 Y0.76063
G01 X1.58039 Y0.76011
G01 X1.58225 Y0.75995
G01 X1.58411 Y0.76014
G01 X1.58686 Y0.76068
G01 X1.58865 Y0.76122
G01 X1.59031 Y0.76209
G01 X1.59131 Y0.76289
G01 X1.59331 Y0.76543
G01 X1.59525 Y0.76839
G01 X1.59660 Y0.77014
G01 X1.59997 Y0.77406
G01 X1.60133 Y0.77541
G01 X1.60573 Y0.77905
G01 X1.60876 Y0.78106
G01 X1.61210 Y0.78293
G01 X1.61904 Y0.78574
G01 X1.62638 Y0.78731
G01 X1.63400 Y0.78753
G01 X1.63764 Y0.78719
G01 X1.64139 Y0.78653
G01 X1.64461 Y0.78569
G01 X1.64859 Y0.78431
G01 X1.65541 Y0.78090
G01 X1.66134 Y0.77651
G01 X1.66246 Y0.77541
G01 X1.66656 Y0.77097
G01 X1.67029 Y0.76555
G01 X1.67260 Y0.76263
G01 X1.67442 Y0.76165
G01 X1.67702 Y0.76063
G01 X1.67882 Y0.76011
G01 X1.68068 Y0.75995
G01 X1.68254 Y0.76014
G01 X1.68528 Y0.76068
G01 X1.68707 Y0.76122
G01 X1.68873 Y0.76209
G01 X1.69002 Y0.76324
G01 X1.69500 Y0.77010
G01 X1.69839 Y0.77407
G01 X1.70137 Y0.77683
G01 X1.70416 Y0.77905
G01 X1.70718 Y0.78106
G01 X1.71060 Y0.78296
G01 X1.71747 Y0.78574
G01 X1.72494 Y0.78733
G01 X1.73234 Y0.78753
G01 X1.73602 Y0.78720
G01 X1.73981 Y0.78653
G01 X1.74299 Y0.78570
G01 X1.74702 Y0.78431
G01 X1.75349 Y0.78110
G01 X1.75923 Y0.77692
G01 X1.76091 Y0.77539
G01 X1.76398 Y0.77208
G01 X1.76722 Y0.76916
G01 X1.77101 Y0.76771
G01 X1.77287 Y0.76748
G01 X1.77474 Y0.76760
G01 X1.77749 Y0.76805
G01 X1.77930 Y0.76853
G01 X1.78099 Y0.76933
G01 X1.78423 Y0.77201
G01 X1.78657 Y0.77627
G01 X1.78866 Y0.77963
G01 X1.79196 Y0.78296
G01 X1.79621 Y0.78563
G01 X1.80085 Y0.78720
G01 X1.80510 Y0.78757
G01 X1.85237 Y0.78757
G01 X1.85560 Y0.78734
G01 X1.85775 Y0.78689
G01 X1.86183 Y0.78532
G01 X1.86533 Y0.78310
G01 X1.86854 Y0.77995
G01 X1.87127 Y0.77568
G01 X1.87183 Y0.77415
G01 X1.87288 Y0.77087
G01 X1.87320 Y0.76676
G01 X1.87320 Y0.70962
G01 X1.87285 Y0.70539
G01 X1.87129 Y0.70073
G01 X1.86881 Y0.69676
G01 X1.86709 Y0.69489
G01 X1.86527 Y0.69323
G01 X1.86184 Y0.69105
G01 X1.85984 Y0.69020
G01 X1.85663 Y0.68918
G01 X1.85237 Y0.68881
G01 X1.80510 Y0.68881
G01 X1.80362 Y0.68883
G01 X1.80089 Y0.68920
G01 X1.79635 Y0.69070
G01 X1.79213 Y0.69327
G01 X1.78864 Y0.69676
G01 X1.78655 Y0.70009
G01 X1.78417 Y0.70460
G01 X1.78377 Y0.70500
G01 X1.78014 Y0.70732
G01 X1.77846 Y0.70813
G01 X1.77665 Y0.70861
G01 X1.77478 Y0.70874
G01 X1.77198 Y0.70866
G01 X1.77013 Y0.70843
G01 X1.76835 Y0.70786
G01 X1.76723 Y0.70724
G01 X1.76483 Y0.70503
G01 X1.76087 Y0.70097
G01 X1.75653 Y0.69738
G01 X1.75344 Y0.69532
G01 X1.75003 Y0.69341
G01 X1.74512 Y0.69136
G01 X1.74303 Y0.69061
G01 X1.73568 Y0.68907
G01 X1.72820 Y0.68884
G01 X1.72461 Y0.68920
G01 X1.72073 Y0.68987
G01 X1.71559 Y0.69133
G01 X1.71354 Y0.69210
G01 X1.70713 Y0.69527
G01 X1.70086 Y0.69987
G01 X1.69972 Y0.70099
G01 X1.69564 Y0.70541
G01 X1.69191 Y0.71083
G01 X1.68960 Y0.71375
G01 X1.68779 Y0.71473
G01 X1.68519 Y0.71575
G01 X1.68339 Y0.71627
G01 X1.68153 Y0.71643
G01 X1.67966 Y0.71624
G01 X1.67692 Y0.71570
G01 X1.67513 Y0.71516
G01 X1.67347 Y0.71429
G01 X1.67247 Y0.71349
G01 X1.67047 Y0.71094
G01 X1.66857 Y0.70806
G01 X1.66721 Y0.70628
G01 X1.66375 Y0.70226
G01 X1.66083 Y0.69955
G01 X1.65811 Y0.69738
G01 X1.65502 Y0.69532
G01 X1.65160 Y0.69342
G01 X1.64473 Y0.69064
G01 X1.63739 Y0.68909
G01 X1.62977 Y0.68884
G01 X1.62619 Y0.68920
G01 X1.62239 Y0.68985
G01 X1.61711 Y0.69134
G01 X1.61511 Y0.69210
G01 X1.61065 Y0.69423
G01 X1.60837 Y0.69549
G01 X1.60244 Y0.69987
G01 X1.60129 Y0.70099
G01 X1.59721 Y0.70541
G01 X1.59349 Y0.71083
G01 X1.59118 Y0.71375
G01 X1.58936 Y0.71473
G01 X1.58676 Y0.71575
G01 X1.58496 Y0.71627
G01 X1.58310 Y0.71643
G01 X1.58124 Y0.71624
G01 X1.57850 Y0.71570
G01 X1.57671 Y0.71516
G01 X1.57505 Y0.71429
G01 X1.57375 Y0.71314
G01 X1.56875 Y0.70624
G01 X1.56532 Y0.70226
G01 X1.56240 Y0.69955
G01 X1.55962 Y0.69733
G01 X1.55479 Y0.69426
G01 X1.55318 Y0.69342
G01 X1.54827 Y0.69136
G01 X1.54618 Y0.69061
G01 X1.53897 Y0.68909
G01 X1.53702 Y0.68895
G01 X1.53135 Y0.68884
G01 X1.52985 Y0.68895
G01 X1.52388 Y0.68986
G01 X1.52074 Y0.69069
G01 X1.51676 Y0.69206
G01 X1.51028 Y0.69527
G01 X1.50400 Y0.69986
G01 X1.49810 Y0.70630
G01 X1.49460 Y0.71168
G01 X1.49332 Y0.71419
G01 X1.49154 Y0.71847
G01 X1.49023 Y0.72298
G01 X1.48960 Y0.72585
G01 X1.48908 Y0.73135
G01 X1.49098 Y0.73328
G01 X1.49102 Y0.74412
G01 X1.49118 Y0.74714
G01 X1.49172 Y0.75095
G01 X1.49242 Y0.75416
G01 X1.49483 Y0.76096
G01 X1.49842 Y0.76724
G01 X1.50301 Y0.77275
G01 X1.50581 Y0.77534
G01 X1.50844 Y0.77743
G01 X1.51136 Y0.77937
G01 X1.51455 Y0.78117
G01 X1.52122 Y0.78386
G01 X1.52829 Y0.78535
G01 X1.53549 Y0.78556
G01 X1.53891 Y0.78523
G01 X1.54259 Y0.78460
G01 X1.54562 Y0.78381
G01 X1.54943 Y0.78248
G01 X1.55564 Y0.77941
G01 X1.56119 Y0.77535
G01 X1.56262 Y0.77403
G01 X1.56661 Y0.76973
G01 X1.57027 Y0.76440
G01 X1.57275 Y0.76127
G01 X1.57340 Y0.75976
G01 X1.57582 Y0.75211
G01 X1.57672 Y0.74414
G01 X1.57677 Y0.73327
G01 X1.57599 Y0.72528
G01 X1.57556 Y0.72327
G01 X1.57303 Y0.71565
G01 X1.57263 Y0.71487
G01 X1.57047 Y0.71213
G01 X1.56724 Y0.70750
G01 X1.56391 Y0.70363
G01 X1.56265 Y0.70239
G01 X1.55849 Y0.69895
G01 X1.55381 Y0.69596
G01 X1.55238 Y0.69521
G01 X1.54753 Y0.69318
G01 X1.54570 Y0.69252
G01 X1.53864 Y0.69103
G01 X1.53692 Y0.69092
G01 X1.53006 Y0.69091
G01 X1.52434 Y0.69178
G01 X1.51936 Y0.69320
G01 X1.51749 Y0.69390
G01 X1.51309 Y0.69599
G01 X1.51108 Y0.69710
G01 X1.50526 Y0.70139
G01 X1.50032 Y0.70665
G01 X1.49852 Y0.70913
G01 X1.49634 Y0.71262
G01 X1.49425 Y0.71693
G01 X1.49340 Y0.71915
G01 X1.49214 Y0.72346
G01 X1.49155 Y0.72607
G01 X1.49098 Y0.73328
G01 X1.49213 Y0.73327
G01 X1.49213 Y0.74311
G01 X1.49303 Y0.75171
G01 X1.49540 Y0.75916
G01 X1.49607 Y0.76066
G01 X1.50002 Y0.76741
G01 X1.50522 Y0.77325
G01 X1.50644 Y0.77435
G01 X1.51280 Y0.77891
G01 X1.51992 Y0.78213
G01 X1.52149 Y0.78264
G01 X1.52914 Y0.78422
G01 X1.53696 Y0.78427
G01 X1.53860 Y0.78409
G01 X1.54624 Y0.78243
G01 X1.55413 Y0.77891
G01 X1.56048 Y0.77435
G01 X1.56171 Y0.77325
G01 X1.56691 Y0.76741
G01 X1.57085 Y0.76066
G01 X1.57152 Y0.75916
G01 X1.57390 Y0.75171
G01 X1.57480 Y0.74311
G01 X1.57480 Y0.73327
G01 X1.57390 Y0.72467
G01 X1.57152 Y0.71722
G01 X1.57085 Y0.71572
G01 X1.56691 Y0.70897
G01 X1.56171 Y0.70313
G01 X1.56048 Y0.70203
G01 X1.55413 Y0.69747
G01 X1.54701 Y0.69425
G01 X1.54544 Y0.69374
G01 X1.53779 Y0.69216
G01 X1.52997 Y0.69211
G01 X1.52833 Y0.69229
G01 X1.52069 Y0.69395
G01 X1.51353 Y0.69709
G01 X1.51210 Y0.69792
G01 X1.50580 Y0.70255
G01 X1.50054 Y0.70833
G01 X1.49957 Y0.70966
G01 X1.49570 Y0.71645
G01 X1.49324 Y0.72388
G01 X1.49290 Y0.72549
G01 X1.49213 Y0.73327
G01 X1.49409 Y0.73327
G01 X1.49413 Y0.74373
G01 X1.49486 Y0.75069
G01 X1.49511 Y0.75189
G01 X1.49750 Y0.75912
G01 X1.50128 Y0.76573
G01 X1.50200 Y0.76673
G01 X1.50712 Y0.77237
G01 X1.51378 Y0.77721
G01 X1.52072 Y0.78033
G01 X1.52190 Y0.78071
G01 X1.52935 Y0.78226
G01 X1.53696 Y0.78230
G01 X1.53819 Y0.78217
G01 X1.54563 Y0.78055
G01 X1.55260 Y0.77749
G01 X1.55367 Y0.77687
G01 X1.55981 Y0.77237
G01 X1.56493 Y0.76673
G01 X1.56565 Y0.76573
G01 X1.56943 Y0.75912
G01 X1.57181 Y0.75189
G01 X1.57207 Y0.75069
G01 X1.57280 Y0.74373
G01 X1.57283 Y0.73327
G01 X1.57207 Y0.72569
G01 X1.57181 Y0.72449
G01 X1.56965 Y0.71783
G01 X1.56915 Y0.71670
G01 X1.56531 Y0.71013
G01 X1.56024 Y0.70445
G01 X1.55933 Y0.70362
G01 X1.55315 Y0.69917
G01 X1.54621 Y0.69605
G01 X1.54503 Y0.69567
G01 X1.53758 Y0.69411
G01 X1.52997 Y0.69408
G01 X1.52874 Y0.69421
G01 X1.52130 Y0.69583
G01 X1.51433 Y0.69889
G01 X1.51326 Y0.69951
G01 X1.50712 Y0.70401
G01 X1.50200 Y0.70965
G01 X1.50128 Y0.71065
G01 X1.49750 Y0.71726
G01 X1.49511 Y0.72449
G01 X1.49486 Y0.72569
G01 X1.49413 Y0.73265
G01 X1.49409 Y0.73327
G01 X1.49606 Y0.73327
G01 X1.49606 Y0.74311
G01 X1.49682 Y0.75048
G01 X1.49915 Y0.75794
G01 X1.50321 Y0.76509
G01 X1.50876 Y0.77116
G01 X1.51476 Y0.77550
G01 X1.52152 Y0.77853
G01 X1.52955 Y0.78031
G01 X1.53778 Y0.78024
G01 X1.54502 Y0.77868
G01 X1.55180 Y0.77569
G01 X1.55849 Y0.77091
G01 X1.56395 Y0.76475
G01 X1.56763 Y0.75832
G01 X1.56994 Y0.75129
G01 X1.57084 Y0.74352
G01 X1.57087 Y0.73327
G01 X1.57011 Y0.72590
G01 X1.56778 Y0.71844
G01 X1.56372 Y0.71128
G01 X1.55817 Y0.70521
G01 X1.55216 Y0.70088
G01 X1.54541 Y0.69785
G01 X1.53778 Y0.69614
G01 X1.52955 Y0.69607
G01 X1.52152 Y0.69785
G01 X1.51476 Y0.70088
G01 X1.50876 Y0.70521
G01 X1.50321 Y0.71128
G01 X1.49915 Y0.71844
G01 X1.49688 Y0.72549
G01 X1.49608 Y0.73286
G01 X1.49606 Y0.73327
G01 X1.49803 Y0.73327
G01 X1.49886 Y0.72570
G01 X1.50109 Y0.71886
G01 X1.50480 Y0.71244
G01 X1.50991 Y0.70681
G01 X1.51575 Y0.70258
G01 X1.52232 Y0.69964
G01 X1.52976 Y0.69803
G01 X1.53737 Y0.69806
G01 X1.54441 Y0.69957
G01 X1.55100 Y0.70249
G01 X1.55701 Y0.70681
G01 X1.56213 Y0.71244
G01 X1.56591 Y0.71905
G01 X1.56816 Y0.72610
G01 X1.56890 Y0.73327
G01 X1.56889 Y0.74332
G01 X1.56807 Y0.75068
G01 X1.56583 Y0.75752
G01 X1.56224 Y0.76377
G01 X1.55717 Y0.76944
G01 X1.55100 Y0.77389
G01 X1.54441 Y0.77681
G01 X1.53737 Y0.77832
G01 X1.52976 Y0.77835
G01 X1.52232 Y0.77674
G01 X1.51575 Y0.77380
G01 X1.50991 Y0.76957
G01 X1.50480 Y0.76394
G01 X1.50102 Y0.75733
G01 X1.49877 Y0.75027
G01 X1.49803 Y0.74311
G01 X1.49803 Y0.73327
G04 P0 ( dwell for no time -- G64 should not smooth over this point )
G00 Z0.01181 ( retract )

G00 X1.58858 Y0.73327 ( rapid move to begin. )
G01 F12.59843
( begin pre-milling-gcode )
M7
( end pre-milling-gcode )
( Mill infeed pass 1/1 )
G01 Z-0.00200
G04 P0 ( dwell for no time -- G64 should not smooth over this point )
G01 F31.49606
G01 X1.58858 Y0.73327
G01 X1.58858 Y0.74311
G01 X1.58937 Y0.75110
G01 X1.58980 Y0.75311
G01 X1.59196 Y0.75976
G01 X1.59272 Y0.76151
G01 X1.59492 Y0.76431
G01 X1.59686 Y0.76725
G01 X1.59811 Y0.76888
G01 X1.60144 Y0.77275
G01 X1.60423 Y0.77534
G01 X1.60686 Y0.77743
G01 X1.61155 Y0.78042
G01 X1.61298 Y0.78117
G01 X1.61965 Y0.78386
G01 X1.62671 Y0.78535
G01 X1.63391 Y0.78556
G01 X1.63733 Y0.78523
G01 X1.64101 Y0.78460
G01 X1.64599 Y0.78319
G01 X1.64786 Y0.78248
G01 X1.65406 Y0.77941
G01 X1.66010 Y0.77499
G01 X1.66565 Y0.76893
G01 X1.66869 Y0.76440
G01 X1.67118 Y0.76127
G01 X1.67182 Y0.75976
G01 X1.67425 Y0.75211
G01 X1.67520 Y0.74311
G01 X1.67514 Y0.73224
G01 X1.67425 Y0.72426
G01 X1.67145 Y0.71565
G01 X1.67106 Y0.71488
G01 X1.66889 Y0.71213
G01 X1.66566 Y0.70750
G01 X1.66234 Y0.70363
G01 X1.65954 Y0.70104
G01 X1.65692 Y0.69895
G01 X1.65223 Y0.69596
G01 X1.65080 Y0.69521
G01 X1.64413 Y0.69252
G01 X1.63707 Y0.69103
G01 X1.62986 Y0.69082
G01 X1.62645 Y0.69115
G01 X1.62276 Y0.69178
G01 X1.61974 Y0.69257
G01 X1.61592 Y0.69390
G01 X1.60951 Y0.69710
G01 X1.60368 Y0.70139
G01 X1.59874 Y0.70665
G01 X1.59508 Y0.71199
G01 X1.59260 Y0.71511
G01 X1.59196 Y0.71662
G01 X1.58953 Y0.72426
G01 X1.58858 Y0.73327
G01 X1.59055 Y0.73327
G01 X1.59055 Y0.74311
G01 X1.59145 Y0.75171
G01 X1.59413 Y0.75992
G01 X1.59800 Y0.76672
G01 X1.59896 Y0.76805
G01 X1.60423 Y0.77383
G01 X1.61053 Y0.77846
G01 X1.61195 Y0.77928
G01 X1.61912 Y0.78243
G01 X1.62757 Y0.78422
G01 X1.63539 Y0.78427
G01 X1.63702 Y0.78409
G01 X1.64466 Y0.78243
G01 X1.65182 Y0.77928
G01 X1.65325 Y0.77846
G01 X1.65955 Y0.77383
G01 X1.66533 Y0.76741
G01 X1.66928 Y0.76066
G01 X1.66995 Y0.75916
G01 X1.67211 Y0.75250
G01 X1.67245 Y0.75089
G01 X1.67323 Y0.74311
G01 X1.67318 Y0.73245
G01 X1.67245 Y0.72549
G01 X1.67211 Y0.72388
G01 X1.66965 Y0.71645
G01 X1.66578 Y0.70966
G01 X1.66481 Y0.70833
G01 X1.65955 Y0.70255
G01 X1.65256 Y0.69747
G01 X1.64466 Y0.69395
G01 X1.63702 Y0.69229
G01 X1.63539 Y0.69211
G01 X1.62757 Y0.69216
G01 X1.61991 Y0.69374
G01 X1.61835 Y0.69425
G01 X1.61122 Y0.69747
G01 X1.60423 Y0.70255
G01 X1.59896 Y0.70833
G01 X1.59800 Y0.70966
G01 X1.59413 Y0.71645
G01 X1.59167 Y0.72388
G01 X1.59133 Y0.72549
G01 X1.59055 Y0.73327
G01 X1.59252 Y0.73327
G01 X1.59252 Y0.74311
G01 X1.59328 Y0.75069
G01 X1.59354 Y0.75189
G01 X1.59592 Y0.75912
G01 X1.59970 Y0.76573
G01 X1.60043 Y0.76673
G01 X1.60555 Y0.77237
G01 X1.61169 Y0.77687
G01 X1.61276 Y0.77749
G01 X1.61972 Y0.78055
G01 X1.62716 Y0.78217
G01 X1.62839 Y0.78230
G01 X1.63600 Y0.78226
G01 X1.64346 Y0.78071
G01 X1.64463 Y0.78033
G01 X1.65157 Y0.77721
G01 X1.65823 Y0.77237
G01 X1.66335 Y0.76673
G01 X1.66408 Y0.76573
G01 X1.66786 Y0.75912
G01 X1.67024 Y0.75189
G01 X1.67050 Y0.75069
G01 X1.67123 Y0.74373
G01 X1.67126 Y0.73327
G01 X1.67050 Y0.72569
G01 X1.67024 Y0.72449
G01 X1.66808 Y0.71783
G01 X1.66757 Y0.71670
G01 X1.66374 Y0.71013
G01 X1.65867 Y0.70445
G01 X1.65775 Y0.70362
G01 X1.65157 Y0.69917
G01 X1.64463 Y0.69605
G01 X1.64346 Y0.69567
G01 X1.63600 Y0.69411
G01 X1.62839 Y0.69408
G01 X1.62716 Y0.69421
G01 X1.61972 Y0.69583
G01 X1.61276 Y0.69889
G01 X1.61169 Y0.69951
G01 X1.60555 Y0.70401
G01 X1.60043 Y0.70965
G01 X1.59970 Y0.71065
G01 X1.59592 Y0.71726
G01 X1.59354 Y0.72449
G01 X1.59328 Y0.72569
G01 X1.59255 Y0.73265
G01 X1.59252 Y0.73327
G01 X1.59449 Y0.73327
G01 X1.59449 Y0.74311
G01 X1.59524 Y0.75048
G01 X1.59757 Y0.75794
G01 X1.60163 Y0.76509
G01 X1.60718 Y0.77116
G01 X1.61319 Y0.77550
G01 X1.61995 Y0.77853
G01 X1.62798 Y0.78031
G01 X1.63621 Y0.78024
G01 X1.64345 Y0.77868
G01 X1.65022 Y0.77569
G01 X1.65692 Y0.77091
G01 X1.66237 Y0.76475
G01 X1.66606 Y0.75832
G01 X1.66837 Y0.75129
G01 X1.66927 Y0.74352
G01 X1.66929 Y0.73327
G01 X1.66854 Y0.72590
G01 X1.66620 Y0.71844
G01 X1.66215 Y0.71128
G01 X1.65660 Y0.70521
G01 X1.65059 Y0.70088
G01 X1.64383 Y0.69785
G01 X1.63621 Y0.69614
G01 X1.62798 Y0.69607
G01 X1.61995 Y0.69785
G01 X1.61319 Y0.70088
G01 X1.60718 Y0.70521
G01 X1.60163 Y0.71128
G01 X1.59757 Y0.71844
G01 X1.59531 Y0.72549
G01 X1.59451 Y0.73286
G01 X1.59449 Y0.73327
G01 X1.59646 Y0.73327
G01 X1.59728 Y0.72570
G01 X1.59952 Y0.71886
G01 X1.60322 Y0.71244
G01 X1.60834 Y0.70681
G01 X1.61417 Y0.70258
G01 X1.62075 Y0.69964
G01 X1.62819 Y0.69803
G01 X1.63580 Y0.69806
G01 X1.64284 Y0.69957
G01 X1.64942 Y0.70249
G01 X1.65544 Y0.70681
G01 X1.66056 Y0.71244
G01 X1.66433 Y0.71905
G01 X1.66658 Y0.72610
G01 X1.66732 Y0.73327
G01 X1.66731 Y0.74332
G01 X1.66649 Y0.75068
G01 X1.66426 Y0.75752
G01 X1.66067 Y0.76377
G01 X1.65560 Y0.76944
G01 X1.64942 Y0.77389
G01 X1.64284 Y0.77681
G01 X1.63580 Y0.77832
G01 X1.62819 Y0.77835
G01 X1.62075 Y0.77674
G01 X1.61417 Y0.77380
G01 X1.60834 Y0.76957
G01 X1.60322 Y0.76394
G01 X1.59945 Y0.75733
G01 X1.59720 Y0.75027
G01 X1.59646 Y0.74311
G01 X1.59646 Y0.73327
G04 P0 ( dwell for no time -- G64 should not smooth over this point )
G00 Z0.01181 ( retract )

G00 X1.68701 Y0.73327 ( rapid move to begin. )
G01 F12.59843
( begin pre-milling-gcode )
M7
( end pre-milling-gcode )
( Mill infeed pass 1/1 )
G01 Z-0.00200
G04 P0 ( dwell for no time -- G64 should not smooth over this point )
G01 F31.49606
G01 X1.68701 Y0.73327
G01 X1.68701 Y0.74311
G01 X1.68779 Y0.75110
G01 X1.68822 Y0.75311
G01 X1.69038 Y0.75976
G01 X1.69115 Y0.76150
G01 X1.69331 Y0.76425
G01 X1.69654 Y0.76888
