( pcb2gcode 2.5.0 )
( Software-independent Gcode )

G94 ( Millimeters per minute feed rate. )
G21 ( Units == Millimeters. )

G90 ( Absolute coordinates. )
G00 S24000 ( RPM spindle speed. )
G01 F680.00000 ( Feedrate. )


G00 Z50.00000 (Retract to tool change height)
T0
M5      (Spindle stop.)
G04 P1.00000 (Wait for spindle to stop)
(MSG, Change tool bit to mill diameter 0.10000mm)
M0      (Temporary machine stop.)
M3 ( Spindle on clockwise. )
G04 P1.00000 (Wait for spindle to get up to speed)
G04 P0 ( dwell for no time -- G64 should not smooth over this point )
G00 Z0.30000 ( retract )

G00 X-4.42498 Y7.90806 ( rapid move to begin. )
G01 F120.00000
( begin pre-milling-gcode )
M7
( end pre-milling-gcode )
( Mill infeed pass 1/1 )
G01 Z-0.05000
G04 P0 ( dwell for no time -- G64 should not smooth over this point )
G01 F680.00000
G01 X-4.42498 Y7.90806
G01 X-4.42387 Y7.52025
G01 X-4.41368 Y7.43384
G01 X-4.38036 Y7.33123
G01 X-4.32638 Y7.23778
G01 X-4.25420 Y7.15759
G01 X-4.16690 Y7.09414
G01 X-4.06832 Y7.05025
G01 X-3.98343 Y7.03110
G01 X-3.90881 Y7.02501
G01 X-2.38069 Y7.02528
G01 X-2.31653 Y7.03110
G01 X-2.23167 Y7.05025
G01 X-2.13309 Y7.09414
G01 X-2.06205 Y7.14441
G01 X-2.03098 Y7.17238
G01 X-1.97358 Y7.23778
G01 X-1.91963 Y7.33123
G01 X-1.88628 Y7.43384
G01 X-1.87609 Y7.52025
G01 X-1.87609 Y9.07971
G01 X-1.88628 Y9.16612
G01 X-1.91214 Y9.24921
G01 X-1.92913 Y9.28741
G01 X-1.97358 Y9.36221
G01 X-2.03098 Y9.42759
G01 X-2.06205 Y9.45556
G01 X-2.13309 Y9.50582
G01 X-2.21211 Y9.54220
G01 X-2.25189 Y9.55512
G01 X-2.31653 Y9.56887
G01 X-2.39116 Y9.57496
G01 X-3.91927 Y9.57471
G01 X-3.98343 Y9.56887
G01 X-4.04810 Y9.55512
G01 X-4.08785 Y9.54220
G01 X-4.16690 Y9.50582
G01 X-4.25420 Y9.44240
G01 X-4.32638 Y9.36221
G01 X-4.37083 Y9.28741
G01 X-4.38785 Y9.24921
G01 X-4.40827 Y9.18634
G01 X-4.41696 Y9.14545
G01 X-4.42498 Y9.05881
G01 X-4.42498 Y8.69165
G01 X-4.41246 Y8.45000
G01 X-4.41307 Y8.12703
G01 X-4.42498 Y7.90806
G01 X-4.46242 Y7.65833
G01 X-4.47497 Y7.59953
G01 X-4.47497 Y7.54116
G01 X-4.27500 Y7.54116
G01 X-4.27472 Y9.06404
G01 X-4.26700 Y9.13493
G01 X-4.24332 Y9.20775
G01 X-4.20505 Y9.27405
G01 X-4.15384 Y9.33094
G01 X-4.09189 Y9.37593
G01 X-4.02684 Y9.40519
G01 X-3.95227 Y9.42216
G01 X-3.91142 Y9.42492
G01 X-2.35549 Y9.42320
G01 X-2.27800 Y9.40707
G01 X-2.21275 Y9.37832
G01 X-2.14244 Y9.32724
G01 X-2.09492 Y9.27405
G01 X-2.05664 Y9.20775
G01 X-2.03299 Y9.13493
G01 X-2.02527 Y9.06404
G01 X-2.02527 Y7.53593
G01 X-2.03299 Y7.46503
G01 X-2.05664 Y7.39224
G01 X-2.09492 Y7.32592
G01 X-2.14244 Y7.27273
G01 X-2.21275 Y7.22168
G01 X-2.27800 Y7.19290
G01 X-2.35549 Y7.17680
G01 X-3.94447 Y7.17680
G01 X-4.02196 Y7.19290
G01 X-4.08724 Y7.22168
G01 X-4.15752 Y7.27273
G01 X-4.20505 Y7.32592
G01 X-4.24332 Y7.39224
G01 X-4.26700 Y7.46503
G01 X-4.27500 Y7.54116
G01 X-4.32498 Y7.54116
G01 X-4.31752 Y7.46498
G01 X-4.28424 Y7.36257
G01 X-4.24551 Y7.29656
G01 X-4.18729 Y7.23189
G01 X-4.11691 Y7.18076
G01 X-4.04719 Y7.14911
G01 X-3.94708 Y7.12686
G01 X-2.35288 Y7.12686
G01 X-2.25278 Y7.14911
G01 X-2.18308 Y7.18076
G01 X-2.11270 Y7.23189
G01 X-2.05448 Y7.29656
G01 X-2.01097 Y7.37189
G01 X-1.98410 Y7.45465
G01 X-1.97554 Y7.53072
G01 X-1.97554 Y9.06927
G01 X-1.98410 Y9.14535
G01 X-2.01097 Y9.22807
G01 X-2.05448 Y9.30344
G01 X-2.10528 Y9.36069
G01 X-2.19240 Y9.42398
G01 X-2.26256 Y9.45462
G01 X-2.33733 Y9.47108
G01 X-2.39116 Y9.47499
G01 X-3.94708 Y9.47311
G01 X-4.04719 Y9.45086
G01 X-4.11691 Y9.41923
G01 X-4.18729 Y9.36808
G01 X-4.24551 Y9.30344
G01 X-4.28899 Y9.22807
G01 X-4.31589 Y9.14535
G01 X-4.32443 Y9.06927
G01 X-4.32498 Y7.54116
G01 X-4.37497 Y7.54116
G01 X-4.36725 Y7.45975
G01 X-4.34030 Y7.36620
G01 X-4.32755 Y7.33758
G01 X-4.28595 Y7.26717
G01 X-4.22074 Y7.19473
G01 X-4.14190 Y7.13745
G01 X-4.06753 Y7.10344
G01 X-4.03771 Y7.09374
G01 X-3.94970 Y7.07692
G01 X-2.35026 Y7.07692
G01 X-2.26228 Y7.09374
G01 X-2.23246 Y7.10344
G01 X-2.15809 Y7.13745
G01 X-2.07924 Y7.19473
G01 X-2.01402 Y7.26717
G01 X-1.96530 Y7.35155
G01 X-1.93518 Y7.44423
G01 X-1.92583 Y7.52549
G01 X-1.92583 Y9.07448
G01 X-1.93518 Y9.15573
G01 X-1.95966 Y9.23376
G01 X-1.97244 Y9.26241
G01 X-2.01402 Y9.33282
G01 X-2.07924 Y9.40524
G01 X-2.14490 Y9.45398
G01 X-2.17208 Y9.46965
G01 X-2.26228 Y9.50623
G01 X-2.32692 Y9.51997
G01 X-2.39116 Y9.52497
G01 X-3.91665 Y9.52477
G01 X-3.97304 Y9.51997
G01 X-4.06753 Y9.49653
G01 X-4.14190 Y9.46252
G01 X-4.22074 Y9.40524
G01 X-4.28595 Y9.33282
G01 X-4.32755 Y9.26241
G01 X-4.34030 Y9.23376
G01 X-4.36725 Y9.14022
G01 X-4.37497 Y9.05881
G01 X-4.37497 Y7.54116
G01 X-4.47497 Y7.54116
G01 X-4.46260 Y7.42345
G01 X-4.43540 Y7.33532
G01 X-4.41414 Y7.28756
G01 X-4.36684 Y7.20839
G01 X-4.28765 Y7.12043
G01 X-4.21383 Y7.06511
G01 X-4.16857 Y7.03897
G01 X-4.10820 Y7.01210
G01 X-4.05849 Y6.99595
G01 X-3.99385 Y6.98221
G01 X-3.90881 Y6.97502
G01 X-2.39116 Y6.97502
G01 X-2.30614 Y6.98221
G01 X-2.24147 Y6.99595
G01 X-2.16027 Y7.02612
G01 X-2.00624 Y7.15284
G01 X-1.93396 Y7.24200
G01 X-1.87851 Y7.35203
G01 X-1.84897 Y7.47192
G01 X-1.84572 Y7.54146
G01 X-1.84640 Y9.08446
G01 X-1.85219 Y9.14626
G01 X-1.87851 Y9.24791
G01 X-1.93106 Y9.35373
G01 X-2.00510 Y9.44578
G01 X-2.09669 Y9.51939
G01 X-2.20246 Y9.57196
G01 X-2.32255 Y9.60176
G01 X-3.90863 Y9.60422
G01 X-3.97741 Y9.60176
G01 X-4.05326 Y9.58444
G01 X-4.09748 Y9.57196
G01 X-4.15930 Y9.54291
G01 X-4.20327 Y9.51936
G01 X-4.25432 Y9.48035
G01 X-4.29583 Y9.44484
G01 X-4.39595 Y9.34390
G01 X-4.42603 Y9.28908
G01 X-4.46260 Y9.17651
G01 X-4.47360 Y9.08494
G01 X-4.47497 Y9.00041
G01 X-4.46242 Y8.94161
G01 X-4.42498 Y8.69165
G01 X-4.47396 Y8.67936
G01 X-4.51170 Y8.93313
G01 X-4.52328 Y8.98749
G01 X-4.63873 Y9.18472
G01 X-4.75513 Y9.31603
G01 X-4.94899 Y9.45906
G01 X-5.01322 Y9.50092
G01 X-5.11871 Y9.55797
G01 X-5.24614 Y9.61075
G01 X-5.30167 Y9.63003
G01 X-5.49613 Y9.67102
G01 X-5.69285 Y9.67811
G01 X-5.75239 Y9.67458
G01 X-5.89290 Y9.65411
G01 X-6.05521 Y9.61113
G01 X-6.24360 Y9.52739
G01 X-6.28622 Y9.50214
G01 X-6.42066 Y9.40763
G01 X-6.45279 Y9.38098
G01 X-6.56295 Y9.27202
G01 X-6.74687 Y9.03910
G01 X-6.79191 Y8.95840
G01 X-6.86587 Y8.73514
G01 X-6.87675 Y8.68403
G01 X-6.89996 Y8.45000
G01 X-6.89996 Y8.15000
G01 X-6.69999 Y8.15000
G01 X-6.69999 Y8.45000
G01 X-6.67705 Y8.66828
G01 X-6.60921 Y8.87707
G01 X-6.49945 Y9.06716
G01 X-6.35257 Y9.23028
G01 X-6.17939 Y9.35647
G01 X-5.97446 Y9.44860
G01 X-5.75975 Y9.49424
G01 X-5.54545 Y9.49452
G01 X-5.32064 Y9.44672
G01 X-5.12498 Y9.35932
G01 X-4.94741 Y9.23028
G01 X-4.80052 Y9.06716
G01 X-4.69313 Y8.88172
G01 X-4.62293 Y8.66828
G01 X-4.59999 Y8.45000
G01 X-4.59999 Y8.15000
G01 X-4.62211 Y7.93684
G01 X-4.68889 Y7.72780
G01 X-4.80052 Y7.53280
G01 X-4.94741 Y7.36968
G01 X-5.12498 Y7.24065
G01 X-5.32552 Y7.15137
G01 X-5.54022 Y7.10575
G01 X-5.75975 Y7.10575
G01 X-5.97446 Y7.15137
G01 X-6.17939 Y7.24352
G01 X-6.35257 Y7.36968
G01 X-6.50230 Y7.53720
G01 X-6.60921 Y7.72292
G01 X-6.67568 Y7.92663
G01 X-6.69999 Y8.15000
G01 X-6.74997 Y8.15000
G01 X-6.72595 Y7.92129
G01 X-6.65488 Y7.70258
G01 X-6.53986 Y7.50341
G01 X-6.39343 Y7.33994
G01 X-6.19999 Y7.19737
G01 X-5.99968 Y7.10758
G01 X-5.75452 Y7.05546
G01 X-5.52468 Y7.05764
G01 X-5.31007 Y7.10382
G01 X-5.10931 Y7.19262
G01 X-4.91393 Y7.33252
G01 X-4.75437 Y7.51220
G01 X-4.64134 Y7.71235
G01 X-4.57403 Y7.92129
G01 X-4.55054 Y8.13953
G01 X-4.55000 Y8.45000
G01 X-4.57238 Y8.66836
G01 X-4.64985 Y8.90671
G01 X-4.76006 Y9.09655
G01 X-4.90654 Y9.26005
G01 X-5.09120 Y9.39691
G01 X-5.31007 Y9.49615
G01 X-5.53502 Y9.54395
G01 X-5.77530 Y9.54232
G01 X-5.98990 Y9.49615
G01 X-6.19067 Y9.40737
G01 X-6.38599 Y9.26744
G01 X-6.54561 Y9.08776
G01 X-6.65488 Y8.89739
G01 X-6.72323 Y8.68881
G01 X-6.74997 Y8.45000
G01 X-6.74997 Y8.15000
G01 X-6.79999 Y8.15000
G01 X-6.77484 Y7.91088
G01 X-6.70618 Y7.69691
G01 X-6.69343 Y7.66826
G01 X-6.58035 Y7.47405
G01 X-6.43057 Y7.30649
G01 X-6.40728 Y7.28551
G01 X-6.22498 Y7.15406
G01 X-6.02000 Y7.06191
G01 X-5.99018 Y7.05221
G01 X-5.77019 Y7.00629
G01 X-5.52978 Y7.00629
G01 X-5.30979 Y7.05221
G01 X-5.27997 Y7.06191
G01 X-5.07500 Y7.15406
G01 X-4.89270 Y7.28551
G01 X-4.86938 Y7.30649
G01 X-4.71962 Y7.47405
G01 X-4.59941 Y7.68226
G01 X-4.52920 Y7.89572
G01 X-4.52267 Y7.92640
G01 X-4.49999 Y8.15000
G01 X-4.49999 Y8.45000
G01 X-4.52267 Y8.67357
G01 X-4.52920 Y8.70425
G01 X-4.59941 Y8.91774
G01 X-4.71106 Y9.11276
G01 X-4.72951 Y9.13813
G01 X-4.86938 Y9.29350
G01 X-4.89270 Y9.31448
G01 X-5.07500 Y9.44590
G01 X-5.29463 Y9.54369
G01 X-5.51426 Y9.59122
G01 X-5.54545 Y9.59449
G01 X-5.77019 Y9.59368
G01 X-5.99018 Y9.54776
G01 X-6.02000 Y9.53806
G01 X-6.22498 Y9.44590
G01 X-6.41947 Y9.30460
G01 X-6.58035 Y9.12594
G01 X-6.70055 Y8.91774
G01 X-6.77078 Y8.70425
G01 X-6.77730 Y8.67357
G01 X-6.79999 Y8.45000
G01 X-6.79999 Y8.15000
G01 X-6.89996 Y8.15000
G01 X-6.89859 Y8.12386
G01 X-6.87266 Y7.89010
G01 X-6.80128 Y7.66600
G01 X-6.78002 Y7.61827
G01 X-6.67550 Y7.43722
G01 X-6.64474 Y7.39493
G01 X-6.48640 Y7.22107
G01 X-6.29691 Y7.08172
G01 X-6.25165 Y7.05559
G01 X-6.06067 Y6.97057
G01 X-6.01099 Y6.95442
G01 X-5.78063 Y6.90684
G01 X-5.54545 Y6.90550
G01 X-5.49349 Y6.91096
G01 X-5.26372 Y6.96117
G01 X-5.02501 Y7.06747
G01 X-4.83392 Y7.20461
G01 X-4.79509 Y7.23958
G01 X-4.63873 Y7.41528
G01 X-4.52326 Y7.61251
G01 X-4.47881 Y7.87456
G01 X-4.46248 Y8.15030
G01 X-4.46248 Y8.44967
G01 X-4.47578 Y8.69666
G01 X-4.54624 Y8.91852
G01 X-4.56326 Y8.95673
G01 X-4.67919 Y9.15533
G01 X-4.83225 Y9.32696
G01 X-4.86331 Y9.35492
G01 X-5.05000 Y9.48921
G01 X-5.25963 Y9.58375
G01 X-5.29938 Y9.59665
G01 X-5.52455 Y9.64339
G01 X-5.75452 Y9.64448
G01 X-5.79610 Y9.64011
G01 X-6.02079 Y9.59124
G01 X-6.23133 Y9.49871
G01 X-6.26753 Y9.47781
G01 X-6.45292 Y9.34174
G01 X-6.60763 Y9.17158
G01 X-6.63219 Y9.13778
G01 X-6.73671 Y8.95673
G01 X-6.75373 Y8.91852
G01 X-6.82376 Y8.69947
G01 X-6.84888 Y8.47090
G01 X-6.84997 Y8.15000
G01 X-6.82701 Y7.92117
G01 X-6.81833 Y7.88027
G01 X-6.75373 Y7.68144
G01 X-6.73671 Y7.64327
G01 X-6.62076 Y7.44466
G01 X-6.45292 Y7.25823
G01 X-6.24997 Y7.11078
G01 X-6.04035 Y7.01624
G01 X-6.00057 Y7.00331
G01 X-5.77543 Y6.95658
G01 X-5.54545 Y6.95549
G01 X-5.50388 Y6.95985
G01 X-5.27916 Y7.00872
G01 X-5.06865 Y7.10126
G01 X-5.03245 Y7.12216
G01 X-4.84703 Y7.25823
G01 X-4.69235 Y7.42838
G01 X-4.66778 Y7.46222
G01 X-4.55374 Y7.66191
G01 X-4.48165 Y7.88027
G01 X-4.47396 Y7.92058
G04 P0 ( dwell for no time -- G64 should not smooth over this point )
G00 Z0.30000 ( retract )

G00 X-9.04999 Y8.17499 ( rapid move to begin. )
G01 F120.00000
( begin pre-milling-gcode )
M7
( end pre-milling-gcode )
( Mill infeed pass 1/1 )
G01 Z-0.05000
G04 P0 ( dwell for no time -- G64 should not smooth over this point )
G01 F680.00000
G01 X-9.04999 Y8.17499
G01 X-9.04999 Y8.42498
G01 X-9.03115 Y8.60694
G01 X-8.97405 Y8.78616
G01 X-8.87811 Y8.95398
G01 X-8.74814 Y9.09711
G01 X-8.59998 Y9.20440
G01 X-8.43298 Y9.27905
G01 X-8.24405 Y9.32005
G01 X-8.05073 Y9.31923
G01 X-7.87187 Y9.28093
G01 X-7.70466 Y9.20679
G01 X-7.54776 Y9.09381
G01 X-7.41901 Y8.94961
G01 X-7.32780 Y8.79104
G01 X-7.27100 Y8.61715
G01 X-7.25025 Y8.43021
G01 X-7.25000 Y8.17499
G01 X-7.26884 Y7.99302
G01 X-7.32592 Y7.81380
G01 X-7.42188 Y7.64598
G01 X-7.55183 Y7.50286
G01 X-7.70466 Y7.39318
G01 X-7.87187 Y7.31904
G01 X-8.05073 Y7.28073
G01 X-8.24405 Y7.27992
G01 X-8.43298 Y7.32091
G01 X-8.59998 Y7.39557
G01 X-8.74814 Y7.50286
G01 X-8.87811 Y7.64598
G01 X-8.97217 Y7.80893
G01 X-9.02896 Y7.98281
G01 X-9.04999 Y8.17499
G01 X-9.09998 Y8.17499
G01 X-9.09942 Y8.16453
G01 X-9.07923 Y7.97748
G01 X-9.02160 Y7.79836
G01 X-8.92424 Y7.62538
G01 X-8.78566 Y7.46900
G01 X-8.61565 Y7.34751
G01 X-8.44354 Y7.27149
G01 X-8.25962 Y7.23184
G01 X-8.05068 Y7.23019
G01 X-7.84664 Y7.27525
G01 X-7.67499 Y7.35226
G01 X-7.52244 Y7.46242
G01 X-7.38142 Y7.61660
G01 X-7.27837 Y7.79836
G01 X-7.21911 Y7.98782
G01 X-7.19999 Y8.17499
G01 X-7.20054 Y8.43544
G01 X-7.22346 Y8.63262
G01 X-7.28213 Y8.81139
G01 X-7.37573 Y8.97461
G01 X-7.51431 Y9.13097
G01 X-7.68431 Y9.25246
G01 X-7.85642 Y9.32848
G01 X-8.04034 Y9.36813
G01 X-8.24928 Y9.36978
G01 X-8.45332 Y9.32475
G01 X-8.62498 Y9.24771
G01 X-8.77753 Y9.13755
G01 X-8.91855 Y8.98337
G01 X-9.02160 Y8.80161
G01 X-9.08086 Y8.61217
G01 X-9.09998 Y8.42498
G01 X-9.09998 Y8.17499
G01 X-9.14997 Y8.17499
G01 X-9.14916 Y8.15932
G01 X-9.13059 Y7.98259
G01 X-9.12406 Y7.95190
G01 X-9.06353 Y7.76826
G01 X-8.96755 Y7.60037
G01 X-8.94911 Y7.57502
G01 X-8.81911 Y7.43186
G01 X-8.66315 Y7.31751
G01 X-8.63600 Y7.30184
G01 X-8.45901 Y7.22394
G01 X-8.27001 Y7.18294
G01 X-8.23885 Y7.17967
G01 X-8.04545 Y7.18048
G01 X-7.85614 Y7.21987
G01 X-7.82632 Y7.22958
G01 X-7.65000 Y7.30898
G01 X-7.49308 Y7.42198
G01 X-7.46976 Y7.44296
G01 X-7.34098 Y7.58721
G01 X-7.24357 Y7.75426
G01 X-7.23082 Y7.78292
G01 X-7.17591 Y7.95190
G01 X-7.16940 Y7.98259
G01 X-7.15000 Y8.17499
G01 X-7.15081 Y8.44067
G01 X-7.16940 Y8.61738
G01 X-7.17591 Y8.64807
G01 X-7.23646 Y8.83173
G01 X-7.33242 Y8.99960
G01 X-7.35086 Y9.02498
G01 X-7.48086 Y9.16813
G01 X-7.65000 Y9.29102
G01 X-7.82632 Y9.37042
G01 X-7.85614 Y9.38009
G01 X-8.04545 Y9.41949
G01 X-8.23885 Y9.42033
G01 X-8.27001 Y9.41705
G01 X-8.45901 Y9.37603
G01 X-8.63600 Y9.29813
G01 X-8.66315 Y9.28246
G01 X-8.81911 Y9.16813
G01 X-8.94911 Y9.02498
G01 X-8.96755 Y8.99960
G01 X-9.06353 Y8.83173
G01 X-9.12406 Y8.64807
G01 X-9.13059 Y8.61738
G01 X-9.14997 Y8.42498
G01 X-9.14997 Y8.17499
G01 X-9.19998 Y8.17499
G01 X-9.18030 Y7.97735
G01 X-9.17161 Y7.93646
G01 X-9.10920 Y7.74791
G01 X-9.01085 Y7.57537
G01 X-8.98627 Y7.54156
G01 X-8.85256 Y7.39470
G01 X-8.67499 Y7.26567
G01 X-8.47446 Y7.17639
G01 X-8.28043 Y7.13402
G01 X-8.23885 Y7.12965
G01 X-8.04024 Y7.13075
G01 X-7.84576 Y7.17098
G01 X-7.80598 Y7.18388
G01 X-7.62500 Y7.26567
G01 X-7.44741 Y7.39470
G01 X-7.31370 Y7.54156
G01 X-7.28914 Y7.57537
G01 X-7.19079 Y7.74791
G01 X-7.12836 Y7.93646
G01 X-7.11967 Y7.97735
G01 X-7.10110 Y8.15409
G01 X-7.10001 Y8.42498
G01 X-7.11967 Y8.62261
G01 X-7.12836 Y8.66351
G01 X-7.18327 Y8.83252
G01 X-7.20029 Y8.87070
G01 X-7.30054 Y9.04215
G01 X-7.44741 Y9.20529
G01 X-7.60743 Y9.32289
G01 X-7.64365 Y9.34380
G01 X-7.82551 Y9.42358
G01 X-8.01957 Y9.46594
G01 X-8.06115 Y9.47031
G01 X-8.25975 Y9.46922
G01 X-8.47446 Y9.42358
G01 X-8.67499 Y9.33430
G01 X-8.83630 Y9.21845
G01 X-8.86737 Y9.19048
G01 X-8.99945 Y9.04215
G01 X-9.09970 Y8.87070
G01 X-9.11669 Y8.83252
G01 X-9.17702 Y8.64329
G01 X-9.19998 Y8.42498
G01 X-9.19998 Y8.17499
G01 X-9.24997 Y8.17499
G01 X-9.23003 Y7.97212
G01 X-9.21916 Y7.92102
G01 X-9.15487 Y7.72759
G01 X-9.05413 Y7.55038
G01 X-9.02343 Y7.50811
G01 X-8.88601 Y7.35754
G01 X-8.72193 Y7.23664
G01 X-8.67667 Y7.21050
G01 X-8.48990 Y7.12884
G01 X-8.29081 Y7.08513
G01 X-8.23885 Y7.07967
G01 X-8.03501 Y7.08104
G01 X-7.83534 Y7.12208
G01 X-7.78566 Y7.13821
G01 X-7.59998 Y7.22239
G01 X-7.41396 Y7.35754
G01 X-7.26008 Y7.52843
G01 X-7.14510 Y7.72759
G01 X-7.07405 Y7.94629
G01 X-7.05137 Y8.14885
G01 X-7.05000 Y8.42498
G01 X-7.07405 Y8.65368
G01 X-7.14510 Y8.87240
G01 X-7.22828 Y9.01916
G01 X-7.43351 Y9.23463
G01 X-7.58670 Y9.34692
G01 X-7.74433 Y9.42503
G01 X-7.79175 Y9.44288
G01 X-7.91771 Y9.47857
G01 X-8.01174 Y9.49460
G01 X-8.10334 Y9.50318
G01 X-8.28144 Y9.49787
G01 X-8.46087 Y9.46000
G01 X-8.63039 Y9.39155
G01 X-8.66666 Y9.37257
G01 X-8.78568 Y9.29668
G01 X-8.85246 Y9.24362
G01 X-8.92343 Y9.17776
G01 X-9.00786 Y9.07951
G01 X-9.08995 Y8.96188
G01 X-9.14484 Y8.89206
G01 X-9.16424 Y8.84796
G01 X-9.21916 Y8.67895
G01 X-9.23003 Y8.62785
G01 X-9.24997 Y8.42498
G01 X-9.24997 Y8.17499
G04 P0 ( dwell for no time -- G64 should not smooth over this point )
G00 Z0.30000 ( retract )

G00 X-11.72914 Y8.17527 ( rapid move to begin. )
G01 F120.00000
( begin pre-milling-gcode )
M7
( end pre-milling-gcode )
( Mill infeed pass 1/1 )
G01 Z-0.05000
G04 P0 ( dwell for no time -- G64 should not smooth over this point )
G01 F680.00000
G01 X-11.72914 Y8.17527
G01 X-11.72881 Y8.42460
G01 X-11.72398 Y8.52731
G01 X-11.70010 Y8.67522
G01 X-11.63137 Y8.87824
G01 X-11.53998 Y9.03785
G01 X-11.42342 Y9.17776
G01 X-11.35245 Y9.24362
G01 X-11.28568 Y9.29668
G01 X-11.21146 Y9.34606
G01 X-11.13038 Y9.39157
G01 X-10.96086 Y9.46000
G01 X-10.78144 Y9.49787
G01 X-10.59853 Y9.50326
G01 X-10.51174 Y9.49480
G01 X-10.41819 Y9.47870
G01 X-10.29172 Y9.44288
G01 X-10.24433 Y9.42503
G01 X-10.08672 Y9.34692
G01 X-9.93351 Y9.23460
G01 X-9.79233 Y9.08088
G01 X-9.71517 Y8.96569
G01 X-9.65213 Y8.88614
G01 X-9.63572 Y8.84796
G01 X-9.57405 Y8.65368
G01 X-9.55002 Y8.42498
G01 X-9.55137 Y8.14885
G01 X-9.57405 Y7.94629
G01 X-9.64512 Y7.72759
G01 X-9.76008 Y7.52843
G01 X-9.91395 Y7.35754
G01 X-10.10001 Y7.22239
G01 X-10.28565 Y7.13821
G01 X-10.33536 Y7.12208
G01 X-10.50917 Y7.08513
G01 X-10.56114 Y7.07967
G01 X-10.76498 Y7.08104
G01 X-10.91392 Y7.11129
G01 X-11.05560 Y7.17489
G01 X-11.21852 Y7.25627
G01 X-11.36645 Y7.36536
G01 X-11.49190 Y7.49892
G01 X-11.53747 Y7.56173
G01 X-11.59284 Y7.65043
G01 X-11.62469 Y7.71261
G01 X-11.66767 Y7.81627
G01 X-11.69965 Y7.92584
G01 X-11.71445 Y7.99219
G01 X-11.72914 Y8.17527
G01 X-11.69998 Y8.17499
G01 X-11.69998 Y8.42498
G01 X-11.67701 Y8.64329
G01 X-11.61669 Y8.83252
G01 X-11.59970 Y8.87070
G01 X-11.49944 Y9.04215
G01 X-11.36736 Y9.19048
G01 X-11.33630 Y9.21845
G01 X-11.17498 Y9.33430
G01 X-10.97445 Y9.42358
G01 X-10.75974 Y9.46922
G01 X-10.56114 Y9.47031
G01 X-10.51956 Y9.46594
G01 X-10.32553 Y9.42358
G01 X-10.14364 Y9.34380
G01 X-10.10745 Y9.32289
G01 X-9.94740 Y9.20529
G01 X-9.80054 Y9.04215
G01 X-9.70029 Y8.87070
G01 X-9.68327 Y8.83252
G01 X-9.62835 Y8.66351
G01 X-9.61967 Y8.62261
G01 X-9.60001 Y8.42498
G01 X-9.60110 Y8.15409
G01 X-9.61967 Y7.97735
G01 X-9.62835 Y7.93646
G01 X-9.69079 Y7.74791
G01 X-9.78913 Y7.57537
G01 X-9.81370 Y7.54156
G01 X-9.94740 Y7.39470
G01 X-10.12500 Y7.26567
G01 X-10.32553 Y7.17639
G01 X-10.51956 Y7.13402
G01 X-10.56114 Y7.12965
G01 X-10.75974 Y7.13075
G01 X-10.95423 Y7.17098
G01 X-10.99398 Y7.18388
G01 X-11.17498 Y7.26567
G01 X-11.35256 Y7.39470
G01 X-11.48626 Y7.54156
G01 X-11.51085 Y7.57537
G01 X-11.60920 Y7.74791
G01 X-11.67160 Y7.93646
G01 X-11.68029 Y7.97735
G01 X-11.69998 Y8.17499
G01 X-11.64999 Y8.17499
G01 X-11.64999 Y8.42498
G01 X-11.63058 Y8.61738
G01 X-11.62406 Y8.64807
G01 X-11.56353 Y8.83173
G01 X-11.46754 Y8.99960
G01 X-11.44913 Y9.02498
G01 X-11.31910 Y9.16813
G01 X-11.16315 Y9.28246
G01 X-11.13599 Y9.29813
G01 X-10.95901 Y9.37603
G01 X-10.77003 Y9.41705
G01 X-10.73884 Y9.42033
G01 X-10.54547 Y9.41949
G01 X-10.35614 Y9.38009
G01 X-10.32632 Y9.37042
G01 X-10.14999 Y9.29102
G01 X-9.98085 Y9.16813
G01 X-9.85086 Y9.02498
G01 X-9.83242 Y8.99960
G01 X-9.73645 Y8.83173
G01 X-9.67590 Y8.64807
G01 X-9.66940 Y8.61738
G01 X-9.65083 Y8.44067
G01 X-9.64999 Y8.17499
G01 X-9.66940 Y7.98259
G01 X-9.67590 Y7.95190
G01 X-9.73082 Y7.78292
G01 X-9.74357 Y7.75426
G01 X-9.84098 Y7.58721
G01 X-9.96975 Y7.44296
G01 X-9.99307 Y7.42198
G01 X-10.14999 Y7.30898
G01 X-10.32632 Y7.22958
G01 X-10.35614 Y7.21987
G01 X-10.54547 Y7.18048
G01 X-10.73884 Y7.17967
G01 X-10.77003 Y7.18294
G01 X-10.95901 Y7.22394
G01 X-11.13599 Y7.30184
G01 X-11.16315 Y7.31751
G01 X-11.31910 Y7.43186
G01 X-11.44913 Y7.57502
G01 X-11.46754 Y7.60037
G01 X-11.56353 Y7.76826
G01 X-11.62406 Y7.95190
G01 X-11.63058 Y7.98259
G01 X-11.64915 Y8.15932
G01 X-11.64999 Y8.17499
G01 X-11.59998 Y8.17499
G01 X-11.59998 Y8.42498
G01 X-11.58085 Y8.61217
G01 X-11.52159 Y8.80161
G01 X-11.41854 Y8.98337
G01 X-11.27752 Y9.13755
G01 X-11.12500 Y9.24771
G01 X-10.95332 Y9.32475
G01 X-10.74928 Y9.36978
G01 X-10.54034 Y9.36813
G01 X-10.35642 Y9.32848
G01 X-10.18431 Y9.25246
G01 X-10.01431 Y9.13097
G01 X-9.87572 Y8.97461
G01 X-9.78212 Y8.81139
G01 X-9.72345 Y8.63262
G01 X-9.70054 Y8.43544
G01 X-9.69998 Y8.17499
G01 X-9.71911 Y7.98782
G01 X-9.77836 Y7.79836
G01 X-9.88141 Y7.61660
G01 X-10.02246 Y7.46242
G01 X-10.17499 Y7.35226
G01 X-10.34664 Y7.27525
G01 X-10.55068 Y7.23019
G01 X-10.75962 Y7.23184
G01 X-10.94354 Y7.27149
G01 X-11.11565 Y7.34751
G01 X-11.28565 Y7.46900
G01 X-11.42426 Y7.62538
G01 X-11.52159 Y7.79836
G01 X-11.57922 Y7.97748
G01 X-11.59944 Y8.16453
G01 X-11.59998 Y8.17499
G01 X-11.54999 Y8.17499
G01 X-11.52896 Y7.98281
G01 X-11.47219 Y7.80893
G01 X-11.37811 Y7.64598
G01 X-11.24814 Y7.50286
G01 X-11.09998 Y7.39557
G01 X-10.93300 Y7.32091
G01 X-10.74407 Y7.27992
G01 X-10.55075 Y7.28073
G01 X-10.37186 Y7.31904
G01 X-10.20465 Y7.39318
G01 X-10.05185 Y7.50286
G01 X-9.92188 Y7.64598
G01 X-9.82591 Y7.81380
G01 X-9.76884 Y7.99302
G01 X-9.74999 Y8.17499
G01 X-9.75027 Y8.43021
G01 X-9.77100 Y8.61715
G01 X-9.82779 Y8.79104
G01 X-9.91903 Y8.94961
G01 X-10.04776 Y9.09381
G01 X-10.20465 Y9.20679
G01 X-10.37186 Y9.28093
G01 X-10.55075 Y9.31923
G01 X-10.74407 Y9.32005
G01 X-10.93300 Y9.27905
G01 X-11.09998 Y9.20440
G01 X-11.24814 Y9.09711
G01 X-11.37811 Y8.95398
G01 X-11.47404 Y8.78616
G01 X-11.53114 Y8.60694
G01 X-11.54999 Y8.42498
G01 X-11.54999 Y8.17499
G04 P0 ( dwell for no time -- G64 should not smooth over this point )
G00 Z0.30000 ( retract )

G00 X-4.55849 Y13.06914 ( rapid move to begin. )
G01 F120.00000
( begin pre-milling-gcode )
M7
( end pre-milling-gcode )
( Mill infeed pass 1/1 )
G01 Z-0.05000
G04 P0 ( dwell for no time -- G64 should not smooth over this point )
G01 F680.00000
G01 X-4.55849 Y13.06914
G01 X-4.55734 Y13.49873
G01 X-4.51787 Y13.71709
G01 X-4.44210 Y13.92583
G01 X-4.33222 Y14.11879
G01 X-4.19143 Y14.29050
G01 X-4.02372 Y14.43604
G01 X-3.93319 Y14.49100
G01 X-3.83388 Y14.55125
G01 X-3.62735 Y14.63281
G01 X-3.41003 Y14.67843
G01 X-3.18808 Y14.68674
G01 X-2.96799 Y14.65758
G01 X-2.75590 Y14.59172
G01 X-2.55798 Y14.49108
G01 X-2.37980 Y14.35852
G01 X-2.22651 Y14.19786
G01 X-2.14701 Y14.07975
G01 X-2.11485 Y14.04440
G01 X-2.09662 Y14.03203
G01 X-2.03053 Y14.00604
G01 X-2.01191 Y14.00256
G01 X-1.93284 Y14.01740
G01 X-1.90787 Y14.03045
G01 X-1.85204 Y14.08506
G01 X-1.83223 Y14.11879
G01 X-1.69144 Y14.29050
G01 X-1.52372 Y14.43604
G01 X-1.33388 Y14.55125
G01 X-1.12735 Y14.63281
G01 X-0.91003 Y14.67843
G01 X-0.68811 Y14.68674
G01 X-0.46799 Y14.65758
G01 X-0.25590 Y14.59172
G01 X-0.05796 Y14.49111
G01 X0.12014 Y14.35852
G01 X0.27343 Y14.19786
G01 X0.35293 Y14.07975
G01 X0.39058 Y14.03937
G01 X0.46942 Y14.00604
G01 X0.48804 Y14.00256
G01 X0.56711 Y14.01740
G01 X0.59207 Y14.03045
G01 X0.64790 Y14.08506
G01 X0.66772 Y14.11879
G01 X0.80851 Y14.29050
G01 X0.97622 Y14.43604
G01 X1.16606 Y14.55125
G01 X1.37259 Y14.63281
G01 X1.58991 Y14.67843
G01 X1.81183 Y14.68674
G01 X2.03197 Y14.65758
G01 X2.24404 Y14.59172
G01 X2.44198 Y14.49108
G01 X2.62024 Y14.35844
G01 X2.74178 Y14.23289
G01 X2.81816 Y14.19786
G01 X2.83662 Y14.19375
G01 X2.92537 Y14.20823
G01 X2.94157 Y14.21798
G01 X2.99433 Y14.26545
G01 X3.09019 Y14.41707
G01 X3.20690 Y14.53398
G01 X3.34739 Y14.62095
G01 X3.50444 Y14.67335
G01 X3.60215 Y14.68349
G01 X4.89783 Y14.68349
G01 X4.99427 Y14.67358
G01 X5.15145 Y14.62146
G01 X5.29206 Y14.53477
G01 X5.40901 Y14.41803
G01 X5.49595 Y14.27757
G01 X5.54835 Y14.12052
G01 X5.55849 Y14.02281
G01 X5.55849 Y12.47711
G01 X5.54860 Y12.38090
G01 X5.49275 Y12.21748
G01 X5.40977 Y12.08288
G01 X5.29306 Y11.96597
G01 X5.15257 Y11.87900
G01 X4.99554 Y11.82662
G01 X4.89781 Y11.81649
G01 X3.60213 Y11.81649
G01 X3.50563 Y11.82637
G01 X3.34851 Y11.87849
G01 X3.20782 Y11.96518
G01 X3.09075 Y12.08209
G01 X2.98463 Y12.24821
G01 X2.91214 Y12.29482
G01 X2.88488 Y12.30201
G01 X2.81391 Y12.30005
G01 X2.78714 Y12.29139
G01 X2.72291 Y12.24699
G01 X2.69143 Y12.20945
G01 X2.52372 Y12.06391
G01 X2.33388 Y11.94869
G01 X2.12735 Y11.86713
G01 X1.91003 Y11.82152
G01 X1.68813 Y11.81321
G01 X1.46799 Y11.84237
G01 X1.25590 Y11.90823
G01 X1.05796 Y12.00889
G01 X0.87981 Y12.14143
G01 X0.72652 Y12.30208
G01 X0.64701 Y12.42019
G01 X0.60940 Y12.46055
G01 X0.53053 Y12.49390
G01 X0.51194 Y12.49738
G01 X0.43287 Y12.48258
G01 X0.40787 Y12.46952
G01 X0.35204 Y12.41488
G01 X0.33223 Y12.38115
G01 X0.19144 Y12.20945
G01 X0.02372 Y12.06391
G01 X-0.16607 Y11.94869
G01 X-0.37259 Y11.86713
G01 X-0.58991 Y11.82152
G01 X-0.81181 Y11.81321
G01 X-1.03198 Y11.84237
G01 X-1.24404 Y11.90823
G01 X-1.44198 Y12.00889
G01 X-1.62009 Y12.14143
G01 X-1.77343 Y12.30208
G01 X-1.85293 Y12.42019
G01 X-1.88514 Y12.45555
G01 X-1.90335 Y12.46792
G01 X-1.96941 Y12.49390
G01 X-1.98801 Y12.49738
G01 X-2.06708 Y12.48258
G01 X-2.09207 Y12.46952
G01 X-2.14790 Y12.41488
G01 X-2.16771 Y12.38115
G01 X-2.30850 Y12.20945
G01 X-2.47625 Y12.06391
G01 X-2.66606 Y11.94869
G01 X-2.87259 Y11.86713
G01 X-3.08994 Y11.82152
G01 X-3.31183 Y11.81321
G01 X-3.53197 Y11.84237
G01 X-3.74404 Y11.90823
G01 X-3.94198 Y12.00889
G01 X-4.12013 Y12.14143
G01 X-4.27342 Y12.30208
G01 X-4.39743 Y12.48628
G01 X-4.48864 Y12.68877
G01 X-4.54442 Y12.90371
G01 X-4.55849 Y13.06914
G01 X-4.50853 Y13.07120
G01 X-4.50756 Y13.49421
G01 X-4.46961 Y13.70406
G01 X-4.39671 Y13.90485
G01 X-4.29103 Y14.09047
G01 X-4.15559 Y14.25565
G01 X-3.99428 Y14.39565
G01 X-3.81165 Y14.50647
G01 X-3.61297 Y14.58493
G01 X-3.40393 Y14.62880
G01 X-3.19049 Y14.63662
G01 X-2.97876 Y14.60858
G01 X-2.77477 Y14.54523
G01 X-2.58440 Y14.44846
G01 X-2.41303 Y14.32093
G01 X-2.26563 Y14.16642
G01 X-2.18849 Y14.05184
G01 X-2.14048 Y14.00023
G01 X-2.11491 Y13.98549
G01 X-2.04881 Y13.95951
G01 X-2.01160 Y13.95258
G01 X-1.90487 Y13.97384
G01 X-1.87315 Y13.99449
G01 X-1.81254 Y14.05440
G01 X-1.79090 Y14.09037
G01 X-1.65560 Y14.25565
G01 X-1.49428 Y14.39565
G01 X-1.31166 Y14.50647
G01 X-1.11298 Y14.58493
G01 X-0.90394 Y14.62880
G01 X-0.69047 Y14.63662
G01 X-0.47876 Y14.60858
G01 X-0.27478 Y14.54523
G01 X-0.08440 Y14.44846
G01 X0.08689 Y14.32095
G01 X0.23431 Y14.16642
G01 X0.31145 Y14.05184
G01 X0.35951 Y14.00023
G01 X0.38506 Y13.98549
G01 X0.45113 Y13.95951
G01 X0.48834 Y13.95258
G01 X0.59507 Y13.97384
G01 X0.62680 Y13.99449
G01 X0.68740 Y14.05440
G01 X0.70904 Y14.09037
G01 X0.84435 Y14.25565
G01 X1.00566 Y14.39565
G01 X1.18829 Y14.50647
G01 X1.38697 Y14.58493
G01 X1.59601 Y14.62880
G01 X1.80947 Y14.63662
G01 X2.02121 Y14.60858
G01 X2.22517 Y14.54523
G01 X2.41554 Y14.44846
G01 X2.58709 Y14.32080
G01 X2.70091 Y14.20261
G01 X2.72143 Y14.18628
G01 X2.79824 Y14.15199
G01 X2.83517 Y14.14376
G01 X2.94262 Y14.16129
G01 X2.97503 Y14.18082
G01 X3.03769 Y14.23858
G01 X3.12943 Y14.38608
G01 X3.23794 Y14.49481
G01 X3.36860 Y14.57566
G01 X3.51495 Y14.62481
G01 X3.60474 Y14.63350
G01 X4.89527 Y14.63350
G01 X4.98381 Y14.62471
G01 X5.13032 Y14.57615
G01 X5.26108 Y14.49555
G01 X5.36984 Y14.38699
G01 X5.45066 Y14.25636
G01 X5.49981 Y14.11000
G01 X5.50850 Y14.02022
G01 X5.50850 Y12.47968
G01 X5.49979 Y12.39159
G01 X5.44754 Y12.23881
G01 X5.37055 Y12.11387
G01 X5.26202 Y12.00513
G01 X5.13136 Y11.92428
G01 X4.98503 Y11.87516
G01 X4.89522 Y11.86647
G01 X3.60467 Y11.86640
G01 X3.51612 Y11.87524
G01 X3.36964 Y11.92380
G01 X3.23880 Y12.00440
G01 X3.12979 Y12.11341
G01 X3.03146 Y12.26886
G01 X3.01127 Y12.29190
G01 X2.92087 Y12.34585
G01 X2.88351 Y12.35199
G01 X2.79370 Y12.34770
G01 X2.75897 Y12.33269
G01 X2.68915 Y12.28387
G01 X2.65547 Y12.24443
G01 X2.49418 Y12.10445
G01 X2.31158 Y11.99363
G01 X2.11292 Y11.91519
G01 X1.90391 Y11.87132
G01 X1.69047 Y11.86315
G01 X1.47871 Y11.89119
G01 X1.27470 Y11.95456
G01 X1.08430 Y12.05136
G01 X0.91293 Y12.17887
G01 X0.76556 Y12.33348
G01 X0.68849 Y12.44811
G01 X0.64049 Y12.49972
G01 X0.61491 Y12.51445
G01 X0.54882 Y12.54044
G01 X0.51163 Y12.54737
G01 X0.42311 Y12.53162
G01 X0.38804 Y12.51732
G01 X0.31255 Y12.44554
G01 X0.29091 Y12.40958
G01 X0.15547 Y12.24443
G01 X-0.00582 Y12.10445
G01 X-0.18837 Y11.99363
G01 X-0.38702 Y11.91519
G01 X-0.59604 Y11.87132
G01 X-0.80950 Y11.86315
G01 X-1.02126 Y11.89119
G01 X-1.22525 Y11.95456
G01 X-1.41564 Y12.05136
G01 X-1.58702 Y12.17887
G01 X-1.73439 Y12.33348
G01 X-1.81145 Y12.44811
G01 X-1.85951 Y12.49972
G01 X-1.88506 Y12.51445
G01 X-1.95113 Y12.54044
G01 X-1.98831 Y12.54737
G01 X-2.07683 Y12.53162
G01 X-2.11191 Y12.51732
G01 X-2.18740 Y12.44554
G01 X-2.20904 Y12.40958
G01 X-2.34447 Y12.24443
G01 X-2.50579 Y12.10445
G01 X-2.68836 Y11.99363
G01 X-2.88701 Y11.91519
G01 X-3.09606 Y11.87132
G01 X-3.30949 Y11.86312
G01 X-3.52125 Y11.89119
G01 X-3.72524 Y11.95456
G01 X-3.91564 Y12.05136
G01 X-4.08701 Y12.17887
G01 X-4.23446 Y12.33343
G01 X-4.35374 Y12.51062
G01 X-4.44149 Y12.70533
G01 X-4.49514 Y12.91214
G01 X-4.50853 Y13.07120
G01 X-4.45854 Y13.07325
G01 X-4.45757 Y13.48966
G01 X-4.42117 Y13.69101
G01 X-4.35117 Y13.88379
G01 X-4.24970 Y14.06205
G01 X-4.11963 Y14.22067
G01 X-3.96471 Y14.35511
G01 X-3.78935 Y14.46152
G01 X-3.59854 Y14.53688
G01 X-3.39781 Y14.57899
G01 X-3.19286 Y14.58651
G01 X-2.98953 Y14.55956
G01 X-2.79364 Y14.49875
G01 X-2.61084 Y14.40581
G01 X-2.44627 Y14.28336
G01 X-2.30472 Y14.13497
G01 X-2.22997 Y14.02392
G01 X-2.17157 Y13.96108
G01 X-2.13319 Y13.93896
G01 X-2.06710 Y13.91298
G01 X-2.03970 Y13.90510
G01 X-2.01130 Y13.90256
G01 X-1.91331 Y13.91933
G01 X-1.88600 Y13.92753
G01 X-1.86075 Y13.94074
G01 X-1.83845 Y13.95852
G01 X-1.77307 Y14.02372
G01 X-1.74955 Y14.06195
G01 X-1.61961 Y14.22065
G01 X-1.46472 Y14.35511
G01 X-1.28935 Y14.46154
G01 X-1.09855 Y14.53688
G01 X-0.89781 Y14.57899
G01 X-0.69284 Y14.58651
G01 X-0.48953 Y14.55956
G01 X-0.29365 Y14.49875
G01 X-0.11085 Y14.40581
G01 X0.05364 Y14.28336
G01 X0.19522 Y14.13497
G01 X0.26998 Y14.02392
G01 X0.32842 Y13.96106
G01 X0.36675 Y13.93896
G01 X0.43282 Y13.91298
G01 X0.46022 Y13.90510
G01 X0.48865 Y13.90256
G01 X0.58664 Y13.91933
G01 X0.61394 Y13.92753
G01 X0.63919 Y13.94074
G01 X0.66149 Y13.95852
G01 X0.72687 Y14.02372
G01 X0.75039 Y14.06195
G01 X0.88034 Y14.22065
G01 X1.03523 Y14.35511
G01 X1.21059 Y14.46154
G01 X1.40139 Y14.53688
G01 X1.60211 Y14.57899
G01 X1.80711 Y14.58651
G01 X2.01044 Y14.55956
G01 X2.20629 Y14.49875
G01 X2.38910 Y14.40581
G01 X2.55394 Y14.28316
G01 X2.66489 Y14.16794
G01 X2.69568 Y14.14343
G01 X2.77833 Y14.10614
G01 X2.80546 Y14.09733
G01 X2.83375 Y14.09380
G01 X2.93228 Y14.10711
G01 X2.95986 Y14.11437
G01 X2.98557 Y14.12669
G01 X3.07607 Y14.20655
G01 X3.16893 Y14.35486
G01 X3.26916 Y14.45537
G01 X3.38996 Y14.53010
G01 X3.52557 Y14.57564
G01 X3.60733 Y14.58349
G01 X4.89270 Y14.58349
G01 X4.97324 Y14.57554
G01 X5.10906 Y14.53053
G01 X5.22989 Y14.45603
G01 X5.33039 Y14.35572
G01 X5.40509 Y14.23500
G01 X5.45064 Y14.09939
G01 X5.45849 Y14.01762
G01 X5.45849 Y12.48225
G01 X5.45061 Y12.40236
G01 X5.40205 Y12.26028
G01 X5.33103 Y12.14506
G01 X5.23075 Y12.04458
G01 X5.11000 Y11.96985
G01 X4.97441 Y11.92433
G01 X4.89262 Y11.91649
G01 X3.60723 Y11.91641
G01 X3.52666 Y11.92444
G01 X3.39090 Y11.96942
G01 X3.27005 Y12.04392
G01 X3.16906 Y12.14488
G01 X3.07368 Y12.29563
G01 X3.04340 Y12.33020
G01 X2.93820 Y12.39274
G01 X2.91061 Y12.40003
G01 X2.88214 Y12.40196
G01 X2.78287 Y12.39652
G01 X2.75577 Y12.38776
G01 X2.73080 Y12.37402
G01 X2.65539 Y12.32075
G01 X2.61950 Y12.27943
G01 X2.46461 Y12.14498
G01 X2.28925 Y12.03858
G01 X2.09850 Y11.96325
G01 X1.89779 Y11.92113
G01 X1.69283 Y11.91326
G01 X1.48948 Y11.94021
G01 X1.29360 Y12.00104
G01 X1.11074 Y12.09401
G01 X0.94618 Y12.21646
G01 X0.80467 Y12.36492
G01 X0.72997 Y12.47602
G01 X0.67158 Y12.53886
G01 X0.63320 Y12.56099
G01 X0.56711 Y12.58697
G01 X0.53972 Y12.59484
G01 X0.51133 Y12.59738
G01 X0.41336 Y12.58065
G01 X0.38603 Y12.57244
G01 X0.36073 Y12.55921
G01 X0.27305 Y12.47620
G01 X0.24955 Y12.43800
G01 X0.11951 Y12.27940
G01 X-0.03538 Y12.14498
G01 X-0.21069 Y12.03858
G01 X-0.40145 Y11.96325
G01 X-0.60216 Y11.92113
G01 X-0.80714 Y11.91326
G01 X-1.01046 Y11.94021
G01 X-1.20635 Y12.00104
G01 X-1.38920 Y12.09401
G01 X-1.55377 Y12.21646
G01 X-1.69527 Y12.36492
G01 X-1.76997 Y12.47602
G01 X-1.82842 Y12.53889
G01 X-1.86675 Y12.56099
G01 X-1.93281 Y12.58697
G01 X-1.96022 Y12.59484
G01 X-1.98862 Y12.59738
G01 X-2.08658 Y12.58065
G01 X-2.11391 Y12.57244
G01 X-2.13921 Y12.55921
G01 X-2.22689 Y12.47620
G01 X-2.25039 Y12.43800
G01 X-2.38044 Y12.27940
G01 X-2.53535 Y12.14498
G01 X-2.71069 Y12.03858
G01 X-2.90144 Y11.96325
G01 X-3.10215 Y11.92113
G01 X-3.30713 Y11.91324
G01 X-3.51046 Y11.94021
G01 X-3.70634 Y12.00104
G01 X-3.88920 Y12.09401
G01 X-4.05376 Y12.21646
G01 X-4.19534 Y12.36487
G01 X-4.30990 Y12.53500
G01 X-4.39415 Y12.72205
G01 X-4.44569 Y12.92060
G01 X-4.45854 Y13.07325
G01 X-4.40853 Y13.07531
G01 X-4.40761 Y13.48511
G01 X-4.37271 Y13.67793
G01 X-4.30563 Y13.86276
G01 X-4.20835 Y14.03363
G01 X-4.08366 Y14.18570
G01 X-3.93515 Y14.31458
G01 X-3.76705 Y14.41658
G01 X-3.58414 Y14.48882
G01 X-3.39171 Y14.52921
G01 X-3.19517 Y14.53639
G01 X-3.00030 Y14.51056
G01 X-2.81252 Y14.45224
G01 X-2.63728 Y14.36317
G01 X-2.47952 Y14.24577
G01 X-2.34384 Y14.10353
G01 X-2.27145 Y13.99601
G01 X-2.20266 Y13.92192
G01 X-2.15148 Y13.89243
G01 X-2.08539 Y13.86644
G01 X-2.04887 Y13.85595
G01 X-2.01099 Y13.85258
G01 X-1.90353 Y13.87030
G01 X-1.86713 Y13.88123
G01 X-1.83345 Y13.89885
G01 X-1.80373 Y13.92253
G01 X-1.73358 Y13.99306
G01 X-1.70820 Y14.03353
G01 X-1.58369 Y14.18572
G01 X-1.43515 Y14.31458
G01 X-1.26703 Y14.41658
G01 X-1.08415 Y14.48882
G01 X-0.89172 Y14.52921
G01 X-0.69520 Y14.53639
G01 X-0.50030 Y14.51056
G01 X-0.31252 Y14.45224
G01 X-0.13729 Y14.36317
G01 X0.02040 Y14.24579
G01 X0.15611 Y14.10353
G01 X0.22850 Y13.99601
G01 X0.29736 Y13.92189
G01 X0.34846 Y13.89243
G01 X0.41453 Y13.86644
G01 X0.45108 Y13.85595
G01 X0.48895 Y13.85258
G01 X0.59642 Y13.87030
G01 X0.63282 Y13.88123
G01 X0.66650 Y13.89885
G01 X0.69621 Y13.92253
G01 X0.76637 Y13.99306
G01 X0.79174 Y14.03353
G01 X0.91625 Y14.18572
G01 X1.06479 Y14.31458
G01 X1.23292 Y14.41658
G01 X1.41580 Y14.48882
G01 X1.60823 Y14.52921
G01 X1.80475 Y14.53639
G01 X1.99967 Y14.51056
G01 X2.18742 Y14.45224
G01 X2.36268 Y14.36317
G01 X2.52080 Y14.24549
G01 X2.62890 Y14.13327
G01 X2.66992 Y14.10058
G01 X2.75841 Y14.06027
G01 X2.79458 Y14.04851
G01 X2.83230 Y14.04381
G01 X2.94033 Y14.05778
G01 X2.97708 Y14.06743
G01 X3.01137 Y14.08387
G01 X3.04190 Y14.10650
G01 X3.11445 Y14.17452
G01 X3.20845 Y14.32367
G01 X3.30048 Y14.41592
G01 X3.41132 Y14.48453
G01 X3.53619 Y14.52649
G01 X3.60992 Y14.53350
G01 X4.89016 Y14.53350
G01 X4.96270 Y14.52636
G01 X5.08777 Y14.48491
G01 X5.19869 Y14.41653
G01 X5.29095 Y14.32446
G01 X5.35950 Y14.21364
G01 X5.40149 Y14.08877
G01 X5.40850 Y14.01503
G01 X5.40850 Y12.48479
G01 X5.40146 Y12.41316
G01 X5.35656 Y12.28174
G01 X5.29153 Y12.17625
G01 X5.19948 Y12.08402
G01 X5.08866 Y12.01544
G01 X4.96379 Y11.97348
G01 X4.89003 Y11.96647
G01 X3.60977 Y11.96640
G01 X3.53720 Y11.97361
G01 X3.41219 Y12.01504
G01 X3.30124 Y12.08341
G01 X3.20827 Y12.17633
G01 X3.11589 Y12.32243
G01 X3.07553 Y12.36850
G01 X2.98978 Y12.42314
G01 X2.95549 Y12.43965
G01 X2.91871 Y12.44938
G01 X2.88077 Y12.45194
G01 X2.77208 Y12.44534
G01 X2.73594 Y12.43363
G01 X2.70266 Y12.41532
G01 X2.62166 Y12.35763
G01 X2.58354 Y12.31440
G01 X2.43505 Y12.18552
G01 X2.26695 Y12.08352
G01 X2.08410 Y12.01130
G01 X1.89169 Y11.97092
G01 X1.69520 Y11.96337
G01 X1.50028 Y11.98921
G01 X1.31247 Y12.04752
G01 X1.13718 Y12.13665
G01 X0.97942 Y12.25403
G01 X0.84379 Y12.39637
G01 X0.77145 Y12.50394
G01 X0.70267 Y12.57803
G01 X0.65148 Y12.60752
G01 X0.58539 Y12.63350
G01 X0.54887 Y12.64399
G01 X0.51102 Y12.64737
G01 X0.40361 Y12.62969
G01 X0.36716 Y12.61875
G01 X0.33345 Y12.60112
G01 X0.30368 Y12.57739
G01 X0.23358 Y12.50686
G01 X0.20820 Y12.46642
G01 X0.08354 Y12.31438
G01 X-0.06495 Y12.18552
G01 X-0.23299 Y12.08352
G01 X-0.41585 Y12.01130
G01 X-0.60825 Y11.97092
G01 X-0.80475 Y11.96337
G01 X-0.99969 Y11.98921
G01 X-1.18748 Y12.04752
G01 X-1.36276 Y12.13665
G01 X-1.52052 Y12.25403
G01 X-1.65616 Y12.39637
G01 X-1.72850 Y12.50394
G01 X-1.79735 Y12.57805
G01 X-1.84846 Y12.60752
G01 X-1.91452 Y12.63350
G01 X-1.95105 Y12.64397
G01 X-1.98890 Y12.64737
G01 X-2.09634 Y12.62969
G01 X-2.13279 Y12.61875
G01 X-2.16649 Y12.60112
G01 X-2.19626 Y12.57739
G01 X-2.26637 Y12.50686
G01 X-2.29174 Y12.46642
G01 X-2.41640 Y12.31440
G01 X-2.56492 Y12.18552
G01 X-2.73299 Y12.08352
G01 X-2.91584 Y12.01130
G01 X-3.10827 Y11.97092
G01 X-3.30477 Y11.96337
G01 X-3.49969 Y11.98921
G01 X-3.68747 Y12.04752
G01 X-3.86276 Y12.13665
G01 X-4.02052 Y12.25403
G01 X-4.15625 Y12.39629
G01 X-4.26606 Y12.55941
G01 X-4.34683 Y12.73868
G01 X-4.39623 Y12.92903
G01 X-4.40853 Y13.07531
G01 X-4.37741 Y13.07633
G01 X-4.37807 Y13.40289
G01 X-4.37365 Y13.48331
G01 X-4.34934 Y13.63558
G01 X-4.27754 Y13.84811
G01 X-4.18308 Y14.01381
G01 X-4.06062 Y14.16116
G01 X-4.02595 Y14.19532
G01 X-3.91594 Y14.28651
G01 X-3.83751 Y14.33873
G01 X-3.75072 Y14.38725
G01 X-3.57622 Y14.45763
G01 X-3.38976 Y14.49720
G01 X-3.19631 Y14.50322
G01 X-3.10518 Y14.49438
G01 X-3.00868 Y14.47780
G01 X-2.87470 Y14.43987
G01 X-2.82377 Y14.42062
G01 X-2.71046 Y14.36665
G01 X-2.65267 Y14.33459
G01 X-2.49908 Y14.22128
G01 X-2.36929 Y14.08262
G01 X-2.27470 Y13.94503
G01 X-2.21592 Y13.87066
G01 X-2.16979 Y13.84590
G01 X-2.10370 Y13.81991
G01 X-2.05801 Y13.80681
G01 X-2.01066 Y13.80259
G01 X-1.96339 Y13.80739
G01 X-1.89377 Y13.82126
G01 X-1.84826 Y13.83495
G01 X-1.80617 Y13.85697
G01 X-1.77335 Y13.88633
G01 X-1.64617 Y14.06159
G01 X-1.55943 Y14.16294
G01 X-1.52598 Y14.19530
G01 X-1.41425 Y14.28773
G01 X-1.33767 Y14.33906
G01 X-1.25070 Y14.38725
G01 X-1.07635 Y14.45798
G01 X-0.88636 Y14.49766
G01 X-0.69629 Y14.50322
G01 X-0.60518 Y14.49438
G01 X-0.50869 Y14.47780
G01 X-0.42675 Y14.45646
G01 X-0.32573 Y14.42146
G01 X-0.21046 Y14.36665
G01 X-0.15268 Y14.33459
G01 X0.00084 Y14.22131
G01 X0.02700 Y14.19461
G01 X0.13068 Y14.08262
G01 X0.22532 Y13.94493
G01 X0.28400 Y13.87066
G01 X0.33015 Y13.84592
G01 X0.39621 Y13.81994
G01 X0.44191 Y13.80681
G01 X0.48925 Y13.80259
G01 X0.53655 Y13.80739
G01 X0.60617 Y13.82126
G01 X0.65169 Y13.83495
G01 X0.69378 Y13.85697
G01 X0.71928 Y13.87729
G01 X0.77008 Y13.94198
G01 X0.81945 Y14.01717
G01 X0.85293 Y14.06058
G01 X0.94051 Y14.16294
G01 X1.01488 Y14.23152
G01 X1.08400 Y14.28648
G01 X1.16228 Y14.33906
G01 X1.24925 Y14.38725
G01 X1.42359 Y14.45798
G01 X1.61018 Y14.49720
G01 X1.80155 Y14.50327
G01 X1.89611 Y14.49451
G01 X1.99128 Y14.47780
G01 X2.07195 Y14.45682
G01 X2.17625 Y14.42088
G01 X2.33876 Y14.33990
G01 X2.48442 Y14.23373
G01 X2.52641 Y14.19540
G01 X2.60515 Y14.11087
G01 X2.68732 Y14.03665
G01 X2.78371 Y13.99972
G01 X2.83088 Y13.99385
G01 X2.87830 Y13.99700
G01 X2.94838 Y14.00843
G01 X2.99433 Y14.02050
G01 X3.03718 Y14.04104
G01 X3.11932 Y14.10891
G01 X3.17889 Y14.21722
G01 X3.23185 Y14.30246
G01 X3.31945 Y14.39052
G01 X3.42395 Y14.45468
G01 X3.54178 Y14.49415
G01 X3.61208 Y14.50376
G01 X3.64965 Y14.50424
G01 X4.85028 Y14.50424
G01 X4.93217 Y14.49842
G01 X4.98808 Y14.48595
G01 X5.09079 Y14.44742
G01 X5.17947 Y14.39067
G01 X5.26456 Y14.30622
G01 X5.33029 Y14.20231
G01 X5.34449 Y14.16327
G01 X5.37032 Y14.08397
G01 X5.37924 Y13.97498
G01 X5.37924 Y12.52499
G01 X5.37152 Y12.42210
G01 X5.32922 Y12.29680
G01 X5.26776 Y12.19774
G01 X5.22366 Y12.15067
G01 X5.17789 Y12.10808
G01 X5.07601 Y12.04526
G01 X4.98699 Y12.01308
G01 X4.93314 Y12.00170
G01 X4.85028 Y11.99573
G01 X3.64965 Y11.99573
G01 X3.54259 Y12.00498
G01 X3.42461 Y12.04458
G01 X3.31488 Y12.11364
G01 X3.23157 Y12.19777
G01 X3.17835 Y12.28222
G01 X3.11803 Y12.39667
G01 X3.10764 Y12.40683
G01 X3.01567 Y12.46591
G01 X2.97282 Y12.48656
G01 X2.92682 Y12.49870
G01 X2.87937 Y12.50191
G01 X2.80840 Y12.49995
G01 X2.76128 Y12.49416
G01 X2.71610 Y12.47953
G01 X2.68778 Y12.46393
G01 X2.62664 Y12.40767
G01 X2.52499 Y12.30373
G01 X2.41424 Y12.21222
G01 X2.29045 Y12.13340
G01 X2.25069 Y12.11270
G01 X2.12613 Y12.06040
G01 X2.07289 Y12.04138
G01 X1.88641 Y12.00193
G01 X1.69842 Y11.99670
G01 X1.60518 Y12.00526
G01 X1.50663 Y12.02261
G01 X1.37460 Y12.05979
G01 X1.32380 Y12.07933
G01 X1.15250 Y12.16513
G01 X1.00185 Y12.27663
G01 X0.97348 Y12.30457
G01 X0.86921 Y12.41727
G01 X0.77470 Y12.55492
G01 X0.71595 Y12.62929
G01 X0.66980 Y12.65405
G01 X0.60371 Y12.68004
G01 X0.55804 Y12.69314
G01 X0.51074 Y12.69736
G01 X0.46347 Y12.69256
G01 X0.39385 Y12.67871
G01 X0.34831 Y12.66505
G01 X0.30617 Y12.64300
G01 X0.28067 Y12.62268
G01 X0.22984 Y12.55791
G01 X0.18054 Y12.48283
G01 X0.14704 Y12.43937
G01 X0.05921 Y12.33724
G01 X-0.01488 Y12.26843
G01 X-0.08402 Y12.21344
G01 X-0.16137 Y12.16190
G01 X-0.24925 Y12.11270
G01 X-0.42372 Y12.04232
G01 X-0.61016 Y12.00249
G01 X-0.80368 Y11.99657
G01 X-0.89474 Y12.00556
G01 X-0.99131 Y12.02205
G01 X-1.12530 Y12.05995
G01 X-1.17615 Y12.07933
G01 X-1.28958 Y12.13312
G01 X-1.34727 Y12.16538
G01 X-1.50086 Y12.27866
G01 X-1.63068 Y12.41727
G01 X-1.72532 Y12.55502
G01 X-1.78399 Y12.62926
G01 X-1.83015 Y12.65403
G01 X-1.89621 Y12.68001
G01 X-1.94188 Y12.69312
G01 X-1.98920 Y12.69736
G01 X-2.03647 Y12.69256
G01 X-2.10609 Y12.67871
G01 X-2.15163 Y12.66505
G01 X-2.19377 Y12.64300
G01 X-2.22661 Y12.61359
G01 X-2.35374 Y12.43835
G01 X-2.44076 Y12.33726
G01 X-2.51488 Y12.26843
G01 X-2.58572 Y12.21222
G01 X-2.70835 Y12.13404
G01 X-2.74925 Y12.11270
G01 X-2.87381 Y12.06040
G01 X-2.92699 Y12.04138
G01 X-3.11018 Y12.00277
G01 X-3.15953 Y11.99937
G01 X-3.30363 Y11.99657
G01 X-3.34178 Y11.99929
G01 X-3.49336 Y12.02248
G01 X-3.57317 Y12.04349
G01 X-3.67614 Y12.07933
G01 X-3.83766 Y12.15941
G01 X-3.99809 Y12.27663
G01 X-4.14744 Y12.43881
G01 X-4.23700 Y12.57658
G01 X-4.26951 Y12.64041
G01 X-4.31485 Y12.74917
G01 X-4.34818 Y12.86370
G01 X-4.36446 Y12.93637
G01 X-4.37741 Y13.07633
G01 X-4.32915 Y13.12525
G01 X-4.32811 Y13.40056
G01 X-4.32399 Y13.47732
G01 X-4.31018 Y13.57414
G01 X-4.29247 Y13.65562
G01 X-4.23139 Y13.82822
G01 X-4.14000 Y13.98786
G01 X-4.02341 Y14.12776
G01 X-3.95244 Y14.19362
G01 X-3.88567 Y14.24671
G01 X-3.81147 Y14.29603
G01 X-3.73037 Y14.34155
G01 X-3.56085 Y14.41000
G01 X-3.38145 Y14.44788
G01 X-3.19855 Y14.45326
G01 X-3.11173 Y14.44480
G01 X-3.01821 Y14.42870
G01 X-2.94124 Y14.40861
G01 X-2.84432 Y14.37503
G01 X-2.68674 Y14.29692
G01 X-2.54564 Y14.19385
G01 X-2.50934 Y14.16030
G01 X-2.40805 Y14.05103
G01 X-2.31516 Y13.91567
G01 X-2.25209 Y13.83612
G01 X-2.23573 Y13.79797
G01 X-2.17404 Y13.60368
G01 X-2.15138 Y13.40112
G01 X-2.15001 Y13.12497
G01 X-2.16995 Y12.92212
G01 X-2.18082 Y12.87102
G01 X-2.24511 Y12.67760
G01 X-2.25524 Y12.65773
G01 X-2.31005 Y12.58801
G01 X-2.39210 Y12.47043
G01 X-2.47653 Y12.37219
G01 X-2.50853 Y12.34077
G01 X-2.61429 Y12.25324
G01 X-2.73324 Y12.17739
G01 X-2.76959 Y12.15840
G01 X-2.89258 Y12.10673
G01 X-2.93908 Y12.08994
G01 X-3.11848 Y12.05210
G01 X-3.16215 Y12.04930
G01 X-3.33652 Y12.04900
G01 X-3.48176 Y12.07125
G01 X-3.60822 Y12.10709
G01 X-3.65559 Y12.12489
G01 X-3.76738 Y12.17816
G01 X-3.81851 Y12.20627
G01 X-3.96644 Y12.31537
G01 X-4.09191 Y12.44895
G01 X-4.13748 Y12.51174
G01 X-4.19283 Y12.60041
G01 X-4.24597 Y12.71003
G01 X-4.26766 Y12.76624
G01 X-4.29966 Y12.87584
G01 X-4.31447 Y12.94221
G01 X-4.32915 Y13.12525
G01 X-4.29997 Y13.12497
G01 X-4.29997 Y13.37498
G01 X-4.27703 Y13.59329
G01 X-4.21670 Y13.78252
G01 X-4.19969 Y13.82070
G01 X-4.09943 Y13.99215
G01 X-3.96738 Y14.14048
G01 X-3.93629 Y14.16845
G01 X-3.77497 Y14.28430
G01 X-3.59400 Y14.36609
G01 X-3.55422 Y14.37899
G01 X-3.35973 Y14.41922
G01 X-3.16113 Y14.42032
G01 X-3.11955 Y14.41595
G01 X-2.92552 Y14.37358
G01 X-2.72499 Y14.28430
G01 X-2.56367 Y14.16845
G01 X-2.53261 Y14.14048
G01 X-2.40053 Y13.99215
G01 X-2.30027 Y13.82070
G01 X-2.28328 Y13.78252
G01 X-2.22296 Y13.59329
G01 X-2.20000 Y13.37498
G01 X-2.20000 Y13.12497
G01 X-2.22296 Y12.90665
G01 X-2.28328 Y12.71745
G01 X-2.30027 Y12.67927
G01 X-2.40053 Y12.50782
G01 X-2.53261 Y12.35949
G01 X-2.56367 Y12.33152
G01 X-2.72499 Y12.21567
G01 X-2.90599 Y12.13388
G01 X-2.94574 Y12.12098
G01 X-3.14023 Y12.08075
G01 X-3.33883 Y12.07966
G01 X-3.38041 Y12.08402
G01 X-3.57444 Y12.12639
G01 X-3.75633 Y12.20617
G01 X-3.79252 Y12.22708
G01 X-3.95257 Y12.34470
G01 X-4.08628 Y12.49154
G01 X-4.11084 Y12.52537
G01 X-4.20919 Y12.69792
G01 X-4.27162 Y12.88646
G01 X-4.28031 Y12.92736
G01 X-4.29997 Y13.12497
G01 X-4.24998 Y13.12497
G01 X-4.24917 Y13.39068
G01 X-4.23057 Y13.56738
G01 X-4.22407 Y13.59807
G01 X-4.16352 Y13.78171
G01 X-4.06756 Y13.94960
G01 X-4.04912 Y13.97498
G01 X-3.91912 Y14.11813
G01 X-3.74998 Y14.24099
G01 X-3.57365 Y14.32042
G01 X-3.54383 Y14.33010
G01 X-3.35453 Y14.36949
G01 X-3.16113 Y14.37033
G01 X-3.12997 Y14.36705
G01 X-2.94096 Y14.32603
G01 X-2.76398 Y14.24813
G01 X-2.73682 Y14.23246
G01 X-2.58087 Y14.11813
G01 X-2.45085 Y13.97498
G01 X-2.43243 Y13.94960
G01 X-2.33644 Y13.78171
G01 X-2.27592 Y13.59807
G01 X-2.26939 Y13.56738
G01 X-2.25082 Y13.39068
G01 X-2.25001 Y13.12497
G01 X-2.26939 Y12.93256
G01 X-2.27592 Y12.90190
G01 X-2.33083 Y12.73289
G01 X-2.34358 Y12.70424
G01 X-2.44099 Y12.53721
G01 X-2.56977 Y12.39294
G01 X-2.59306 Y12.37196
G01 X-2.74998 Y12.25898
G01 X-2.92631 Y12.17955
G01 X-2.95613 Y12.16988
G01 X-3.12997 Y12.13292
G01 X-3.16113 Y12.12964
G01 X-3.35453 Y12.13048
G01 X-3.54383 Y12.16988
G01 X-3.57365 Y12.17955
G01 X-3.74998 Y12.25898
G01 X-3.90690 Y12.37196
G01 X-3.93022 Y12.39294
G01 X-4.05900 Y12.53721
G01 X-4.15641 Y12.70424
G01 X-4.16916 Y12.73289
G01 X-4.22813 Y12.91707
G01 X-4.24917 Y13.10932
G01 X-4.24998 Y13.12497
G01 X-4.19999 Y13.12497
G01 X-4.19999 Y13.37498
G01 X-4.18087 Y13.56215
G01 X-4.12161 Y13.75161
G01 X-4.01856 Y13.93337
G01 X-3.87751 Y14.08755
G01 X-3.72499 Y14.19771
G01 X-3.55333 Y14.27472
G01 X-3.34929 Y14.31978
G01 X-3.14035 Y14.31813
G01 X-2.95643 Y14.27848
G01 X-2.78432 Y14.20246
G01 X-2.61432 Y14.08097
G01 X-2.47571 Y13.92461
G01 X-2.38211 Y13.76139
G01 X-2.32346 Y13.58262
G01 X-2.30053 Y13.38544
G01 X-2.30000 Y13.12497
G01 X-2.31912 Y12.93782
G01 X-2.37838 Y12.74836
G01 X-2.48143 Y12.56660
G01 X-2.62245 Y12.41242
G01 X-2.77500 Y12.30226
G01 X-2.94665 Y12.22525
G01 X-3.15069 Y12.18019
G01 X-3.35963 Y12.18184
G01 X-3.54355 Y12.22149
G01 X-3.71566 Y12.29751
G01 X-3.88567 Y12.41900
G01 X-4.02425 Y12.57536
G01 X-4.11785 Y12.73858
G01 X-4.17652 Y12.91735
G01 X-4.19943 Y13.11453
G01 X-4.19999 Y13.12497
G01 X-4.14998 Y13.12497
G01 X-4.13032 Y12.93785
G01 X-4.07406 Y12.76378
G01 X-3.97810 Y12.59599
G01 X-3.84813 Y12.45286
G01 X-3.69999 Y12.34557
G01 X-3.53299 Y12.27092
G01 X-3.34406 Y12.22992
G01 X-3.15074 Y12.23073
G01 X-2.97188 Y12.26904
G01 X-2.80464 Y12.34318
G01 X-2.65184 Y12.45286
G01 X-2.52186 Y12.59599
G01 X-2.42593 Y12.76378
G01 X-2.36883 Y12.94303
G01 X-2.34998 Y13.12497
G01 X-2.35026 Y13.38021
G01 X-2.37101 Y13.56716
G01 X-2.42781 Y13.74104
G01 X-2.51902 Y13.89962
G01 X-2.64777 Y14.04381
G01 X-2.80464 Y14.15679
G01 X-2.97188 Y14.23093
G01 X-3.15074 Y14.26924
G01 X-3.34406 Y14.27005
G01 X-3.53299 Y14.22905
G01 X-3.69999 Y14.15440
G01 X-3.84813 Y14.04711
G01 X-3.97810 Y13.90399
G01 X-4.07406 Y13.73617
G01 X-4.13113 Y13.55695
G01 X-4.14998 Y13.37498
G01 X-4.14998 Y13.12497
G04 P0 ( dwell for no time -- G64 should not smooth over this point )
G00 Z0.30000 ( retract )

G00 X-1.84996 Y13.12497 ( rapid move to begin. )
G01 F120.00000
( begin pre-milling-gcode )
M7
( end pre-milling-gcode )
( Mill infeed pass 1/1 )
G01 Z-0.05000
G04 P0 ( dwell for no time -- G64 should not smooth over this point )
G01 F680.00000
G01 X-1.84996 Y13.12497
G01 X-1.84996 Y13.37498
G01 X-1.83002 Y13.57785
G01 X-1.81915 Y13.62895
G01 X-1.76426 Y13.79797
G01 X-1.74485 Y13.84203
G01 X-1.68994 Y13.91188
G01 X-1.60779 Y14.02951
G01 X-1.52339 Y14.12776
G01 X-1.45242 Y14.19362
G01 X-1.38567 Y14.24668
G01 X-1.26670 Y14.32255
G01 X-1.23038 Y14.34155
G01 X-1.06086 Y14.41000
G01 X-0.88146 Y14.44788
G01 X-0.69853 Y14.45326
G01 X-0.61173 Y14.44480
G01 X-0.51821 Y14.42870
G01 X-0.39169 Y14.39286
G01 X-0.34432 Y14.37503
G01 X-0.18672 Y14.29692
G01 X-0.03353 Y14.18460
G01 X0.10765 Y14.03088
G01 X0.18486 Y13.91557
G01 X0.24790 Y13.83607
G01 X0.26424 Y13.79797
G01 X0.32593 Y13.60368
G01 X0.34996 Y13.37498
G01 X0.34859 Y13.09886
G01 X0.32593 Y12.89627
G01 X0.25486 Y12.67760
G01 X0.24470 Y12.65776
G01 X0.18885 Y12.58656
G01 X0.10787 Y12.47046
G01 X0.02342 Y12.37219
G01 X-0.04752 Y12.30633
G01 X-0.11430 Y12.25324
G01 X-0.23325 Y12.17739
G01 X-0.26960 Y12.15840
G01 X-0.43909 Y12.08994
G01 X-0.61849 Y12.05210
G01 X-0.80140 Y12.04669
G01 X-0.88819 Y12.05514
G01 X-0.98176 Y12.07125
G01 X-1.05865 Y12.09131
G01 X-1.15560 Y12.12492
G01 X-1.31851 Y12.20627
G01 X-1.46644 Y12.31537
G01 X-1.59189 Y12.44892
G01 X-1.68486 Y12.58438
G01 X-1.74788 Y12.66388
G01 X-1.76426 Y12.70201
G01 X-1.82593 Y12.89627
G01 X-1.84996 Y13.12497
G01 X-1.79997 Y13.12497
G01 X-1.79997 Y13.37498
G01 X-1.77703 Y13.59329
G01 X-1.70919 Y13.80206
G01 X-1.61084 Y13.97460
G01 X-1.58628 Y14.00843
G01 X-1.45258 Y14.15527
G01 X-1.29253 Y14.27290
G01 X-1.25633 Y14.29380
G01 X-1.07445 Y14.37358
G01 X-0.85974 Y14.41922
G01 X-0.66114 Y14.42032
G01 X-0.61956 Y14.41595
G01 X-0.42553 Y14.37358
G01 X-0.24364 Y14.29380
G01 X-0.20744 Y14.27290
G01 X-0.04742 Y14.15527
G01 X0.09944 Y13.99215
G01 X0.19967 Y13.82070
G01 X0.21669 Y13.78252
G01 X0.27160 Y13.61351
G01 X0.28031 Y13.57262
G01 X0.29997 Y13.37498
G01 X0.29888 Y13.10406
G01 X0.27704 Y12.90665
G01 X0.21669 Y12.71745
G01 X0.19967 Y12.67927
G01 X0.11085 Y12.52537
G01 X0.08626 Y12.49154
G01 X-0.04742 Y12.34470
G01 X-0.22499 Y12.21567
G01 X-0.42553 Y12.12639
G01 X-0.61956 Y12.08402
G01 X-0.66114 Y12.07966
G01 X-0.85974 Y12.08075
G01 X-1.05423 Y12.12098
G01 X-1.09400 Y12.13388
G01 X-1.27498 Y12.21567
G01 X-1.45258 Y12.34470
G01 X-1.58628 Y12.49154
G01 X-1.61084 Y12.52537
G01 X-1.70919 Y12.69792
G01 X-1.77160 Y12.88646
G01 X-1.78031 Y12.92736
G01 X-1.79997 Y13.12497
G01 X-1.74998 Y13.12497
G01 X-1.74998 Y13.37498
G01 X-1.73058 Y13.56738
G01 X-1.72405 Y13.59807
G01 X-1.66347 Y13.78171
G01 X-1.56754 Y13.94960
G01 X-1.54912 Y13.97498
G01 X-1.41912 Y14.11813
G01 X-1.26314 Y14.23246
G01 X-1.23599 Y14.24813
G01 X-1.05900 Y14.32603
G01 X-0.87003 Y14.36705
G01 X-0.83883 Y14.37033
G01 X-0.64546 Y14.36949
G01 X-0.45613 Y14.33010
G01 X-0.42631 Y14.32042
G01 X-0.24999 Y14.24099
G01 X-0.08087 Y14.11813
G01 X0.04912 Y13.97498
G01 X0.06754 Y13.94960
G01 X0.16353 Y13.78171
G01 X0.22405 Y13.59807
G01 X0.23058 Y13.56738
G01 X0.24915 Y13.39068
G01 X0.24999 Y13.12497
G01 X0.23058 Y12.93256
G01 X0.22405 Y12.90190
G01 X0.16914 Y12.73289
G01 X0.15639 Y12.70424
G01 X0.05900 Y12.53721
G01 X-0.06977 Y12.39294
G01 X-0.09307 Y12.37196
G01 X-0.24999 Y12.25898
G01 X-0.42631 Y12.17955
G01 X-0.45613 Y12.16988
G01 X-0.62995 Y12.13292
G01 X-0.66114 Y12.12964
G01 X-0.85451 Y12.13048
G01 X-1.04384 Y12.16988
G01 X-1.07366 Y12.17955
G01 X-1.24998 Y12.25898
G01 X-1.40691 Y12.37196
G01 X-1.43022 Y12.39294
G01 X-1.55900 Y12.53721
G01 X-1.65638 Y12.70424
G01 X-1.66916 Y12.73289
G01 X-1.72811 Y12.91707
G01 X-1.74915 Y13.10932
G01 X-1.74998 Y13.12497
G01 X-1.69997 Y13.12497
G01 X-1.69997 Y13.37498
G01 X-1.68087 Y13.56215
G01 X-1.62161 Y13.75161
G01 X-1.51854 Y13.93337
G01 X-1.37752 Y14.08755
G01 X-1.22499 Y14.19771
G01 X-1.05331 Y14.27472
G01 X-0.84930 Y14.31978
G01 X-0.64036 Y14.31813
G01 X-0.45641 Y14.27848
G01 X-0.28433 Y14.20246
G01 X-0.11433 Y14.08097
G01 X0.02426 Y13.92461
G01 X0.11786 Y13.76139
G01 X0.17650 Y13.58262
G01 X0.19944 Y13.38544
G01 X0.19997 Y13.12497
G01 X0.18085 Y12.93782
G01 X0.12159 Y12.74836
G01 X0.01854 Y12.56660
G01 X-0.12245 Y12.41242
G01 X-0.27498 Y12.30226
G01 X-0.44666 Y12.22525
G01 X-0.65070 Y12.18019
G01 X-0.85964 Y12.18184
G01 X-1.04356 Y12.22149
G01 X-1.21567 Y12.29751
G01 X-1.38565 Y12.41900
G01 X-1.52425 Y12.57536
G01 X-1.62161 Y12.74836
G01 X-1.67922 Y12.92746
G01 X-1.69944 Y13.11453
G01 X-1.69997 Y13.12497
G01 X-1.64998 Y13.12497
G01 X-1.63032 Y12.93785
G01 X-1.57406 Y12.76378
G01 X-1.47810 Y12.59599
G01 X-1.34813 Y12.45286
G01 X-1.20000 Y12.34557
G01 X-1.03299 Y12.27092
G01 X-0.84407 Y12.22992
G01 X-0.65075 Y12.23073
G01 X-0.47188 Y12.26904
G01 X-0.30465 Y12.34318
G01 X-0.15184 Y12.45286
G01 X-0.02187 Y12.59599
G01 X0.07407 Y12.76378
G01 X0.13114 Y12.94303
G01 X0.14999 Y13.12497
G01 X0.14971 Y13.38021
G01 X0.13033 Y13.56210
G01 X0.07407 Y13.73617
G01 X-0.01902 Y13.89962
G01 X-0.14778 Y14.04381
G01 X-0.30465 Y14.15679
G01 X-0.47188 Y14.23093
G01 X-0.65075 Y14.26924
G01 X-0.84407 Y14.27005
G01 X-1.03299 Y14.22905
G01 X-1.20000 Y14.15440
G01 X-1.34813 Y14.04711
G01 X-1.47810 Y13.90399
G01 X-1.57406 Y13.73617
G01 X-1.63114 Y13.55695
G01 X-1.64998 Y13.37498
G01 X-1.64998 Y13.12497
G04 P0 ( dwell for no time -- G64 should not smooth over this point )
G00 Z0.30000 ( retract )

G00 X0.65001 Y13.12497 ( rapid move to begin. )
G01 F120.00000
( begin pre-milling-gcode )
M7
( end pre-milling-gcode )
( Mill infeed pass 1/1 )
G01 Z-0.05000
G04 P0 ( dwell for no time -- G64 should not smooth over this point )
G01 F680.00000
G01 X0.65001 Y13.12497
G01 X0.65001 Y13.37498
G01 X0.66995 Y13.57785
G01 X0.68082 Y13.62895
G01 X0.73574 Y13.79797
G01 X0.75517 Y13.84214
G01 X0.81001 Y13.91188
G01 X0.89210 Y14.02951
G01 X0.97655 Y14.12776
G01 X1.04752 Y14.19362
G01 X1.11427 Y14.24668
G01 X1.23325 Y14.32255
G01 X1.26957 Y14.34155
G01 X1.43909 Y14.41000
G01 X1.61849 Y14.44788
G01 X1.80142 Y14.45326
G01 X1.88821 Y14.44480
G01 X1.98176 Y14.42870
G01 X2.10825 Y14.39286
G01 X2.15562 Y14.37503
G01 X2.31323 Y14.29692
G01 X2.46692 Y14.18420
G01 X2.57015 Y14.07518
G01 X2.65455 Y13.99888
G01 X2.75486 Y13.82240
G01 X2.82593 Y13.60368
G01 X2.84996 Y13.37498
G01 X2.84861 Y13.09886
G01 X2.82593 Y12.89627
G01 X2.75486 Y12.67760
G01 X2.65504 Y12.50191
G01 X2.45242 Y12.30633
G01 X2.38567 Y12.25326
G01 X2.26670 Y12.17739
G01 X2.23037 Y12.15840
G01 X2.06085 Y12.08994
G01 X1.88145 Y12.05210
G01 X1.69855 Y12.04669
G01 X1.61176 Y12.05514
G01 X1.51821 Y12.07125
G01 X1.44130 Y12.09131
G01 X1.34435 Y12.12492
G01 X1.18143 Y12.20627
G01 X1.03350 Y12.31537
G01 X0.90805 Y12.44892
G01 X0.81516 Y12.58428
G01 X0.75212 Y12.66383
G01 X0.73574 Y12.70201
G01 X0.67404 Y12.89627
G01 X0.65001 Y13.12497
G01 X0.70000 Y13.12497
G01 X0.70000 Y13.37498
G01 X0.72293 Y13.59329
G01 X0.78329 Y13.78252
G01 X0.80028 Y13.82070
G01 X0.90053 Y13.99215
G01 X1.03261 Y14.14048
G01 X1.06368 Y14.16845
G01 X1.22499 Y14.28430
G01 X1.42552 Y14.37358
G01 X1.64018 Y14.41922
G01 X1.83883 Y14.42032
G01 X1.88041 Y14.41595
G01 X2.07444 Y14.37358
G01 X2.25633 Y14.29380
G01 X2.29253 Y14.27290
G01 X2.45257 Y14.15527
G01 X2.59944 Y13.99215
G01 X2.69969 Y13.82070
G01 X2.71671 Y13.78252
G01 X2.77160 Y13.61351
G01 X2.78031 Y13.57262
G01 X2.79997 Y13.37498
G01 X2.79888 Y13.10406
G01 X2.77703 Y12.90665
G01 X2.71671 Y12.71745
G01 X2.69969 Y12.67927
G01 X2.61084 Y12.52537
G01 X2.58628 Y12.49154
G01 X2.45257 Y12.34470
G01 X2.27498 Y12.21567
G01 X2.07444 Y12.12639
G01 X1.88041 Y12.08402
G01 X1.83883 Y12.07966
G01 X1.64018 Y12.08075
G01 X1.44574 Y12.12098
G01 X1.40599 Y12.13388
G01 X1.22499 Y12.21567
G01 X1.04742 Y12.34470
G01 X0.91371 Y12.49154
G01 X0.88913 Y12.52537
G01 X0.79078 Y12.69792
G01 X0.72837 Y12.88646
G01 X0.71968 Y12.92736
G01 X0.70000 Y13.12497
G01 X0.74999 Y13.12497
G01 X0.74999 Y13.37498
G01 X0.76939 Y13.56738
G01 X0.77592 Y13.59807
G01 X0.83645 Y13.78171
G01 X0.93243 Y13.94960
G01 X0.95085 Y13.97498
G01 X1.08087 Y14.11813
G01 X1.23683 Y14.23246
G01 X1.26398 Y14.24813
G01 X1.44097 Y14.32603
G01 X1.62994 Y14.36705
G01 X1.66113 Y14.37033
G01 X1.85450 Y14.36949
G01 X2.04384 Y14.33010
G01 X2.07366 Y14.32042
G01 X2.24998 Y14.24099
G01 X2.41912 Y14.11813
G01 X2.54912 Y13.97498
G01 X2.56756 Y13.94960
G01 X2.66352 Y13.78171
G01 X2.72407 Y13.59807
G01 X2.73058 Y13.56738
G01 X2.74914 Y13.39068
G01 X2.74998 Y13.12497
G01 X2.73058 Y12.93256
G01 X2.72407 Y12.90190
G01 X2.66916 Y12.73289
G01 X2.65641 Y12.70424
G01 X2.55900 Y12.53721
G01 X2.43022 Y12.39294
G01 X2.40690 Y12.37196
G01 X2.24998 Y12.25898
G01 X2.07366 Y12.17955
G01 X2.04384 Y12.16988
G01 X1.87002 Y12.13292
G01 X1.83883 Y12.12964
G01 X1.64546 Y12.13048
G01 X1.45613 Y12.16988
G01 X1.42631 Y12.17955
G01 X1.24998 Y12.25898
G01 X1.09306 Y12.37196
G01 X1.06977 Y12.39294
G01 X0.94097 Y12.53721
G01 X0.84358 Y12.70424
G01 X0.83083 Y12.73289
G01 X0.77186 Y12.91707
G01 X0.75082 Y13.10932
G01 X0.74999 Y13.12497
G01 X0.80000 Y13.12497
G01 X0.80000 Y13.37498
G01 X0.81912 Y13.56215
G01 X0.87838 Y13.75161
G01 X0.98143 Y13.93337
G01 X1.12245 Y14.08755
G01 X1.27498 Y14.19771
G01 X1.44666 Y14.27472
G01 X1.65070 Y14.31978
G01 X1.85964 Y14.31813
G01 X2.04356 Y14.27848
G01 X2.21567 Y14.20246
G01 X2.38567 Y14.08097
G01 X2.52425 Y13.92461
G01 X2.61785 Y13.76139
G01 X2.67652 Y13.58262
G01 X2.69944 Y13.38544
G01 X2.69999 Y13.12497
G01 X2.68087 Y12.93782
G01 X2.62161 Y12.74836
G01 X2.51854 Y12.56660
G01 X2.37752 Y12.41242
G01 X2.22499 Y12.30226
G01 X2.05334 Y12.22525
G01 X1.84930 Y12.18019
G01 X1.64036 Y12.18184
G01 X1.45641 Y12.22149
G01 X1.28433 Y12.29751
G01 X1.11432 Y12.41900
G01 X0.97572 Y12.57536
G01 X0.88212 Y12.73858
G01 X0.82344 Y12.91735
G01 X0.80053 Y13.11453
G01 X0.80000 Y13.12497
G01 X0.84999 Y13.12497
G01 X0.86965 Y12.93785
G01 X0.92593 Y12.76378
G01 X1.02187 Y12.59599
G01 X1.15184 Y12.45286
G01 X1.30000 Y12.34557
G01 X1.46698 Y12.27092
G01 X1.65590 Y12.22992
G01 X1.84922 Y12.23073
G01 X2.02811 Y12.26904
G01 X2.19532 Y12.34318
G01 X2.34813 Y12.45286
G01 X2.47810 Y12.59599
G01 X2.57406 Y12.76378
G01 X2.63114 Y12.94303
G01 X2.64998 Y13.12497
G01 X2.64970 Y13.38021
G01 X2.62898 Y13.56716
G01 X2.57218 Y13.74104
G01 X2.48094 Y13.89962
G01 X2.35219 Y14.04381
G01 X2.19532 Y14.15679
G01 X2.02811 Y14.23093
G01 X1.84922 Y14.26924
G01 X1.65590 Y14.27005
G01 X1.46698 Y14.22905
G01 X1.30000 Y14.15440
G01 X1.15184 Y14.04711
G01 X1.02187 Y13.90399
G01 X0.92593 Y13.73617
G01 X0.86883 Y13.55695
G01 X0.84999 Y13.37498
G01 X0.84999 Y13.12497
G04 P0 ( dwell for no time -- G64 should not smooth over this point )
G00 Z0.30000 ( retract )

G00 X3.15001 Y12.52499 ( rapid move to begin. )
G01 F120.00000
( begin pre-milling-gcode )
M7
( end pre-milling-gcode )
( Mill infeed pass 1/1 )
G01 Z-0.05000
G04 P0 ( dwell for no time -- G64 should not smooth over this point )
G01 F680.00000
G01 X3.15001 Y12.52499
G01 X3.15001 Y13.97498
G01 X3.15684 Y14.05308
G01 X3.16194 Y14.08267
G01 X3.24836 Y14.23599
G01 X3.27271 Y14.27290
G01 X3.34899 Y14.34937
G01 X3.44604 Y14.40983
G01 X3.55359 Y14.44556
G01 X3.61406 Y14.45346
G01 X4.86280 Y14.45407
G01 X4.94546 Y14.44574
G01 X5.05315 Y14.41016
G01 X5.14812 Y14.35171
G01 X5.18876 Y14.31346
G01 X5.22668 Y14.27353
G01 X5.28541 Y14.17894
G01 X5.32117 Y14.07160
G01 X5.32922 Y13.97465
G01 X5.32803 Y12.48959
G01 X5.32150 Y12.43046
G01 X5.28290 Y12.31661
G01 X5.22719 Y12.22705
G01 X5.18876 Y12.18646
G01 X5.14883 Y12.14877
G01 X5.05394 Y12.09015
G01 X4.94640 Y12.05441
G01 X4.88704 Y12.04658
G01 X3.65013 Y12.04572
G01 X3.57406 Y12.05113
G01 X3.52684 Y12.06170
G01 X3.44681 Y12.08979
G01 X3.35181 Y12.14824
G01 X3.31109 Y12.18656
G01 X3.27228 Y12.22751
G01 X3.22146 Y12.30757
G01 X3.16065 Y12.42289
G01 X3.15684 Y12.44689
G01 X3.15001 Y12.52499
G01 X3.19999 Y12.52499
G01 X3.20109 Y13.99588
G01 X3.20982 Y14.06855
G01 X3.23141 Y14.13848
G01 X3.24841 Y14.17665
G01 X3.29910 Y14.25575
G01 X3.34889 Y14.30939
G01 X3.42499 Y14.36469
G01 X3.51094 Y14.40294
G01 X3.61338 Y14.42334
G01 X4.84998 Y14.42496
G01 X4.91769 Y14.41922
G01 X4.98904 Y14.40294
G01 X5.05633 Y14.37419
G01 X5.09255 Y14.35329
G01 X5.15109 Y14.30939
G01 X5.21404 Y14.23949
G01 X5.25158 Y14.17665
G01 X5.28472 Y14.08877
G01 X5.29341 Y14.04788
G01 X5.29996 Y13.97498
G01 X5.29996 Y12.52499
G01 X5.29013 Y12.43142
G01 X5.26857 Y12.36149
G01 X5.25158 Y12.32332
G01 X5.20085 Y12.24422
G01 X5.15109 Y12.19058
G01 X5.07497 Y12.13528
G01 X4.98904 Y12.09703
G01 X4.88658 Y12.07663
G01 X3.61338 Y12.07663
G01 X3.53116 Y12.09162
G01 X3.49138 Y12.10452
G01 X3.42499 Y12.13528
G01 X3.34889 Y12.19058
G01 X3.28595 Y12.26050
G01 X3.24841 Y12.32332
G01 X3.21526 Y12.41120
G01 X3.20657 Y12.45210
G01 X3.19999 Y12.52499
G01 X3.25001 Y12.52499
G01 X3.25077 Y13.99068
G01 X3.25874 Y14.05814
G01 X3.27896 Y14.12301
G01 X3.29166 Y14.15166
G01 X3.33626 Y14.22230
G01 X3.38234 Y14.27223
G01 X3.44998 Y14.32138
G01 X3.52638 Y14.35539
G01 X3.61599 Y14.37340
G01 X4.84998 Y14.37498
G01 X4.90731 Y14.37033
G01 X4.97360 Y14.35539
G01 X5.03598 Y14.32852
G01 X5.11764 Y14.27223
G01 X5.17357 Y14.21011
G01 X5.20827 Y14.15166
G01 X5.23718 Y14.07333
G01 X5.24370 Y14.04264
G01 X5.24998 Y13.97498
G01 X5.24998 Y12.52499
G01 X5.24124 Y12.44183
G01 X5.22102 Y12.37696
G01 X5.20827 Y12.34831
G01 X5.16372 Y12.27767
G01 X5.11764 Y12.22774
G01 X5.04998 Y12.17859
G01 X4.97360 Y12.14458
G01 X4.88396 Y12.12657
G01 X3.61599 Y12.12657
G01 X3.54155 Y12.14051
G01 X3.51173 Y12.15019
G01 X3.44998 Y12.17859
G01 X3.38234 Y12.22774
G01 X3.32638 Y12.28989
G01 X3.29166 Y12.34831
G01 X3.26276 Y12.42667
G01 X3.25628 Y12.45733
G01 X3.25001 Y12.52499
G01 X3.29999 Y12.52499
G01 X3.30055 Y13.98544
G01 X3.30764 Y14.04775
G01 X3.32651 Y14.10757
G01 X3.37342 Y14.18885
G01 X3.41579 Y14.23507
G01 X3.47500 Y14.27810
G01 X3.54183 Y14.30785
G01 X3.61861 Y14.32347
G01 X4.84998 Y14.32499
G01 X4.89692 Y14.32143
G01 X4.95813 Y14.30785
G01 X5.01566 Y14.28285
G01 X5.08419 Y14.23507
G01 X5.13314 Y14.18072
G01 X5.16496 Y14.12667
G01 X5.19397 Y14.03741
G01 X5.19999 Y13.97498
G01 X5.19999 Y12.52499
G01 X5.19234 Y12.45222
G01 X5.17347 Y12.39241
G01 X5.12656 Y12.31113
G01 X5.08419 Y12.26490
G01 X5.02498 Y12.22187
G01 X4.95813 Y12.19213
G01 X4.88135 Y12.17651
G01 X3.61861 Y12.17651
G01 X3.53207 Y12.19586
G01 X3.47500 Y12.22187
G01 X3.41579 Y12.26490
G01 X3.36685 Y12.31925
G01 X3.33499 Y12.37331
G01 X3.30601 Y12.46256
G01 X3.29999 Y12.52499
G01 X3.34998 Y12.52499
G01 X3.35653 Y12.46261
G01 X3.37591 Y12.40297
G01 X3.40728 Y12.34864
G01 X3.44554 Y12.30574
G01 X3.50464 Y12.26282
G01 X3.55727 Y12.23968
G01 X3.62123 Y12.22642
G01 X4.87873 Y12.22642
G01 X4.94269 Y12.23968
G01 X4.99999 Y12.26518
G01 X5.05071 Y12.30203
G01 X5.08940 Y12.34458
G01 X5.12592 Y12.40785
G01 X5.14342 Y12.46261
G01 X5.14998 Y12.52499
G01 X5.14998 Y13.97498
G01 X5.14426 Y14.03218
G01 X5.12168 Y14.10167
G01 X5.09270 Y14.15133
G01 X5.05071 Y14.19794
G01 X4.99999 Y14.23479
G01 X4.94759 Y14.25842
G01 X4.87873 Y14.27356
G01 X3.62123 Y14.27356
G01 X3.55727 Y14.26030
G01 X3.49999 Y14.23479
G01 X3.44924 Y14.19794
G01 X3.41058 Y14.15539
G01 X3.37406 Y14.09212
G01 X3.35653 Y14.03736
G01 X3.34998 Y13.97498
G01 X3.34998 Y12.52499
G04 P0 ( dwell for no time -- G64 should not smooth over this point )
G00 Z0.30000 ( retract )

G00 X2.29580 Y8.17527 ( rapid move to begin. )
G01 F120.00000
( begin pre-milling-gcode )
M7
( end pre-milling-gcode )
( Mill infeed pass 1/1 )
G01 Z-0.05000
G04 P0 ( dwell for no time -- G64 should not smooth over this point )
G01 F680.00000
G01 X2.29580 Y8.17527
G01 X2.29613 Y8.42460
G01 X2.30096 Y8.52731
G01 X2.32484 Y8.67522
G01 X2.39357 Y8.87824
G01 X2.48496 Y9.03785
G01 X2.60152 Y9.17776
G01 X2.67249 Y9.24362
G01 X2.73926 Y9.29668
G01 X2.81348 Y9.34606
G01 X2.89458 Y9.39157
G01 X3.05963 Y9.45863
G01 X3.24399 Y9.49792
G01 X3.42590 Y9.50326
G01 X3.51315 Y9.49460
G01 X3.61140 Y9.47748
G01 X3.73324 Y9.44288
G01 X3.78061 Y9.42505
G01 X3.93824 Y9.34692
G01 X4.09143 Y9.23460
G01 X4.23263 Y9.08088
G01 X4.30972 Y8.96577
G01 X4.37291 Y8.88606
G01 X4.38925 Y8.84796
G01 X4.45092 Y8.65368
G01 X4.47497 Y8.42498
G01 X4.47360 Y8.14885
G01 X4.45092 Y7.94629
G01 X4.37987 Y7.72759
G01 X4.26489 Y7.52843
G01 X4.11102 Y7.35754
G01 X3.92499 Y7.22239
G01 X3.73934 Y7.13821
G01 X3.68963 Y7.12208
G01 X3.51582 Y7.08513
G01 X3.46385 Y7.07967
G01 X3.25996 Y7.08104
G01 X3.11102 Y7.11131
G01 X2.96939 Y7.17489
G01 X2.80645 Y7.25627
G01 X2.65849 Y7.36536
G01 X2.53301 Y7.49894
G01 X2.48747 Y7.56173
G01 X2.43210 Y7.65040
G01 X2.40025 Y7.71261
G01 X2.35730 Y7.81627
G01 X2.32529 Y7.92584
G01 X2.31049 Y7.99221
G01 X2.29580 Y8.17527
G01 X2.32501 Y8.17499
G01 X2.32501 Y8.42498
G01 X2.34795 Y8.64329
G01 X2.40828 Y8.83252
G01 X2.42529 Y8.87070
G01 X2.52552 Y9.04215
G01 X2.65760 Y9.19048
G01 X2.68867 Y9.21845
G01 X2.85001 Y9.33430
G01 X3.05051 Y9.42358
G01 X3.26525 Y9.46922
G01 X3.46385 Y9.47031
G01 X3.50540 Y9.46594
G01 X3.69946 Y9.42358
G01 X3.88132 Y9.34380
G01 X3.91754 Y9.32289
G01 X4.07756 Y9.20529
G01 X4.22445 Y9.04215
G01 X4.32471 Y8.87070
G01 X4.34170 Y8.83252
G01 X4.39661 Y8.66351
G01 X4.40530 Y8.62261
G01 X4.42498 Y8.42498
G01 X4.42387 Y8.15409
G01 X4.40530 Y7.97735
G01 X4.39661 Y7.93646
G01 X4.33421 Y7.74791
G01 X4.23586 Y7.57537
G01 X4.21127 Y7.54156
G01 X4.07756 Y7.39470
G01 X3.89999 Y7.26567
G01 X3.69946 Y7.17639
G01 X3.50540 Y7.13402
G01 X3.46385 Y7.12965
G01 X3.26525 Y7.13075
G01 X3.07073 Y7.17098
G01 X3.03098 Y7.18388
G01 X2.85001 Y7.26567
G01 X2.67241 Y7.39470
G01 X2.53870 Y7.54156
G01 X2.51414 Y7.57537
G01 X2.41577 Y7.74791
G01 X2.35336 Y7.93646
G01 X2.34467 Y7.97735
G01 X2.32501 Y8.17499
G01 X2.37500 Y8.17499
G01 X2.37500 Y8.42498
G01 X2.39438 Y8.61738
G01 X2.40091 Y8.64807
G01 X2.46146 Y8.83173
G01 X2.55742 Y8.99960
G01 X2.57586 Y9.02498
G01 X2.70586 Y9.16813
G01 X2.86182 Y9.28246
G01 X2.88897 Y9.29813
G01 X3.06598 Y9.37603
G01 X3.25496 Y9.41705
G01 X3.28610 Y9.42033
G01 X3.47952 Y9.41949
G01 X3.66883 Y9.38009
G01 X3.69865 Y9.37042
G01 X3.87497 Y9.29102
G01 X4.04411 Y9.16813
G01 X4.17411 Y9.02498
G01 X4.19255 Y8.99960
G01 X4.28854 Y8.83173
G01 X4.34906 Y8.64807
G01 X4.35559 Y8.61738
G01 X4.37416 Y8.44067
G01 X4.37497 Y8.17499
G01 X4.35559 Y7.98259
G01 X4.34906 Y7.95190
G01 X4.29415 Y7.78292
G01 X4.28140 Y7.75426
G01 X4.18399 Y7.58721
G01 X4.05521 Y7.44296
G01 X4.03192 Y7.42198
G01 X3.87497 Y7.30898
G01 X3.69865 Y7.22958
G01 X3.66883 Y7.21987
G01 X3.47952 Y7.18048
G01 X3.28610 Y7.17967
G01 X3.25496 Y7.18294
G01 X3.06598 Y7.22394
G01 X2.88897 Y7.30184
G01 X2.86182 Y7.31751
G01 X2.70586 Y7.43186
G01 X2.57586 Y7.57502
G01 X2.55742 Y7.60037
G01 X2.46146 Y7.76826
G01 X2.40091 Y7.95190
G01 X2.39438 Y7.98259
G01 X2.37581 Y8.15932
G01 X2.37500 Y8.17499
G01 X2.42499 Y8.17499
G01 X2.42499 Y8.42498
G01 X2.44412 Y8.61217
G01 X2.50337 Y8.80161
G01 X2.60642 Y8.98337
G01 X2.74744 Y9.13755
G01 X2.89999 Y9.24771
G01 X3.07165 Y9.32475
G01 X3.27569 Y9.36978
G01 X3.48463 Y9.36813
G01 X3.66855 Y9.32848
G01 X3.84066 Y9.25246
G01 X4.01066 Y9.13097
G01 X4.14924 Y8.97461
G01 X4.24284 Y8.81139
G01 X4.30152 Y8.63262
G01 X4.32443 Y8.43544
G01 X4.32498 Y8.17499
G01 X4.30586 Y7.98782
G01 X4.24660 Y7.79836
G01 X4.14355 Y7.61660
G01 X4.00253 Y7.46242
G01 X3.84998 Y7.35226
G01 X3.67833 Y7.27525
G01 X3.47429 Y7.23019
G01 X3.26535 Y7.23184
G01 X3.08143 Y7.27149
G01 X2.90932 Y7.34751
G01 X2.73931 Y7.46900
G01 X2.60073 Y7.62538
G01 X2.50337 Y7.79836
G01 X2.44574 Y7.97748
G01 X2.42555 Y8.16453
G01 X2.42499 Y8.17499
G01 X2.47498 Y8.17499
G01 X2.49466 Y7.98787
G01 X2.55092 Y7.81380
G01 X2.64688 Y7.64598
G01 X2.77683 Y7.50286
G01 X2.92499 Y7.39557
G01 X3.09199 Y7.32091
G01 X3.28092 Y7.27992
G01 X3.47424 Y7.28073
G01 X3.65310 Y7.31904
G01 X3.82031 Y7.39318
G01 X3.97314 Y7.50286
G01 X4.10309 Y7.64598
G01 X4.19905 Y7.81380
G01 X4.25615 Y7.99302
G01 X4.27500 Y8.17499
G01 X4.27472 Y8.43021
G01 X4.25397 Y8.61715
G01 X4.19717 Y8.79104
G01 X4.10596 Y8.94961
G01 X3.97721 Y9.09381
G01 X3.82031 Y9.20679
G01 X3.65310 Y9.28093
G01 X3.47424 Y9.31923
G01 X3.28092 Y9.32005
G01 X3.09199 Y9.27905
G01 X2.92499 Y9.20440
G01 X2.77683 Y9.09711
G01 X2.64688 Y8.95398
G01 X2.55092 Y8.78616
G01 X2.49385 Y8.60694
G01 X2.47498 Y8.42498
G01 X2.47498 Y8.17499
G04 P0 ( dwell for no time -- G64 should not smooth over this point )
G00 Z0.30000 ( retract )

G00 X4.77500 Y8.17499 ( rapid move to begin. )
G01 F120.00000
( begin pre-milling-gcode )
M7
( end pre-milling-gcode )
( Mill infeed pass 1/1 )
G01 Z-0.05000
G04 P0 ( dwell for no time -- G64 should not smooth over this point )
G01 F680.00000
G01 X4.77500 Y8.17499
G01 X4.77500 Y8.42498
G01 X4.79496 Y8.62785
G01 X4.80581 Y8.67895
G01 X4.86072 Y8.84796
G01 X4.88018 Y8.89213
G01 X4.93606 Y8.96333
G01 X4.98518 Y9.03818
G01 X5.01711 Y9.07951
G01 X5.10156 Y9.17778
G01 X5.17248 Y9.24359
G01 X5.23928 Y9.29668
G01 X5.35828 Y9.37257
G01 X5.39458 Y9.39157
G01 X5.56410 Y9.46000
G01 X5.74350 Y9.49787
G01 X5.92640 Y9.50326
G01 X6.01322 Y9.49480
G01 X6.10674 Y9.47870
G01 X6.23324 Y9.44288
G01 X6.28061 Y9.42505
G01 X6.43821 Y9.34692
G01 X6.59145 Y9.23460
G01 X6.73263 Y9.08088
G01 X6.80971 Y8.96577
G01 X6.87291 Y8.88604
G01 X6.88924 Y8.84796
G01 X6.95094 Y8.65368
G01 X6.97497 Y8.42498
G01 X6.97360 Y8.14885
G01 X6.95094 Y7.94629
G01 X6.87987 Y7.72759
G01 X6.76488 Y7.52843
G01 X6.61101 Y7.35754
G01 X6.42498 Y7.22239
G01 X6.23933 Y7.13821
G01 X6.18962 Y7.12208
G01 X5.98996 Y7.08104
G01 X5.78615 Y7.07967
G01 X5.73418 Y7.08513
G01 X5.53507 Y7.12884
G01 X5.34830 Y7.21050
G01 X5.30306 Y7.23664
G01 X5.13895 Y7.35754
G01 X5.00154 Y7.50811
G01 X4.97083 Y7.55038
G01 X4.87009 Y7.72759
G01 X4.80581 Y7.92102
G01 X4.79496 Y7.97212
G01 X4.77500 Y8.17499
G01 X4.82501 Y8.17499
G01 X4.82501 Y8.42498
G01 X4.84795 Y8.64329
G01 X4.90827 Y8.83252
G01 X4.92529 Y8.87070
G01 X5.02554 Y9.04215
G01 X5.15760 Y9.19048
G01 X5.18869 Y9.21845
G01 X5.35000 Y9.33430
G01 X5.55053 Y9.42358
G01 X5.76524 Y9.46922
G01 X5.96384 Y9.47031
G01 X6.00542 Y9.46594
G01 X6.19945 Y9.42358
G01 X6.38129 Y9.34380
G01 X6.41754 Y9.32289
G01 X6.57756 Y9.20529
G01 X6.72445 Y9.04215
G01 X6.82470 Y8.87070
G01 X6.84169 Y8.83252
G01 X6.89661 Y8.66351
G01 X6.90529 Y8.62261
G01 X6.92498 Y8.42498
G01 X6.92389 Y8.15409
G01 X6.90529 Y7.97735
G01 X6.89661 Y7.93646
G01 X6.83420 Y7.74791
G01 X6.73585 Y7.57537
G01 X6.71126 Y7.54156
G01 X6.57756 Y7.39470
G01 X6.39999 Y7.26567
G01 X6.19945 Y7.17639
G01 X6.00542 Y7.13402
G01 X5.96384 Y7.12965
G01 X5.76524 Y7.13075
G01 X5.57075 Y7.17098
G01 X5.53098 Y7.18388
G01 X5.35000 Y7.26567
G01 X5.17241 Y7.39470
G01 X5.03870 Y7.54156
G01 X5.01414 Y7.57537
G01 X4.91579 Y7.74791
G01 X4.85336 Y7.93646
G01 X4.84467 Y7.97735
G01 X4.82501 Y8.17499
G01 X4.87500 Y8.17499
G01 X4.87500 Y8.42498
G01 X4.89440 Y8.61738
G01 X4.90090 Y8.64807
G01 X4.96146 Y8.83173
G01 X5.05742 Y8.99960
G01 X5.07586 Y9.02498
G01 X5.20586 Y9.16813
G01 X5.36181 Y9.28246
G01 X5.38899 Y9.29813
G01 X5.56598 Y9.37603
G01 X5.75495 Y9.41705
G01 X5.78615 Y9.42033
G01 X5.97952 Y9.41949
G01 X6.16885 Y9.38009
G01 X6.19867 Y9.37042
G01 X6.37497 Y9.29102
G01 X6.54408 Y9.16813
G01 X6.67410 Y9.02498
G01 X6.69254 Y8.99960
G01 X6.78853 Y8.83173
G01 X6.84906 Y8.64807
G01 X6.85559 Y8.61738
G01 X6.87415 Y8.44067
G01 X6.87497 Y8.17499
G01 X6.85559 Y7.98259
G01 X6.84906 Y7.95190
G01 X6.79414 Y7.78292
G01 X6.78139 Y7.75426
G01 X6.68398 Y7.58721
G01 X6.55521 Y7.44296
G01 X6.53191 Y7.42198
G01 X6.37497 Y7.30898
G01 X6.19867 Y7.22958
G01 X6.16885 Y7.21987
G01 X5.97952 Y7.18048
G01 X5.78615 Y7.17967
G01 X5.75495 Y7.18294
G01 X5.56598 Y7.22394
G01 X5.38899 Y7.30184
G01 X5.36181 Y7.31751
G01 X5.20586 Y7.43186
G01 X5.07586 Y7.57502
G01 X5.05742 Y7.60037
G01 X4.96146 Y7.76826
G01 X4.90090 Y7.95190
G01 X4.89440 Y7.98259
G01 X4.87581 Y8.15932
G01 X4.87500 Y8.17499
G01 X4.92498 Y8.17499
G01 X4.92498 Y8.42498
G01 X4.94411 Y8.61217
G01 X5.00337 Y8.80161
G01 X5.10642 Y8.98337
G01 X5.24746 Y9.13755
G01 X5.39999 Y9.24771
G01 X5.57164 Y9.32475
G01 X5.77568 Y9.36978
G01 X5.98462 Y9.36813
G01 X6.16854 Y9.32848
G01 X6.34065 Y9.25246
G01 X6.51065 Y9.13097
G01 X6.64924 Y8.97461
G01 X6.74286 Y8.81139
G01 X6.80151 Y8.63262
G01 X6.82445 Y8.43544
G01 X6.82498 Y8.17499
G01 X6.80585 Y7.98782
G01 X6.74660 Y7.79836
G01 X6.64352 Y7.61660
G01 X6.50250 Y7.46242
G01 X6.34997 Y7.35226
G01 X6.17832 Y7.27525
G01 X5.97428 Y7.23019
G01 X5.76534 Y7.23184
G01 X5.58142 Y7.27149
G01 X5.40931 Y7.34751
G01 X5.23931 Y7.46900
G01 X5.10073 Y7.62538
G01 X5.00337 Y7.79836
G01 X4.94576 Y7.97748
G01 X4.92554 Y8.16453
G01 X4.92498 Y8.17499
G01 X4.97500 Y8.17499
G01 X4.99600 Y7.98281
G01 X5.05280 Y7.80893
G01 X5.14688 Y7.64598
G01 X5.27682 Y7.50286
G01 X5.42498 Y7.39557
G01 X5.59199 Y7.32091
G01 X5.78091 Y7.27992
G01 X5.97423 Y7.28073
G01 X6.15310 Y7.31904
G01 X6.32033 Y7.39318
G01 X6.47314 Y7.50286
G01 X6.60311 Y7.64598
G01 X6.69905 Y7.81380
G01 X6.75615 Y7.99302
G01 X6.77499 Y8.17499
G01 X6.77471 Y8.43021
G01 X6.75396 Y8.61715
G01 X6.69717 Y8.79104
G01 X6.60596 Y8.94961
G01 X6.47720 Y9.09381
G01 X6.32033 Y9.20679
G01 X6.15310 Y9.28093
G01 X5.97423 Y9.31923
G01 X5.78091 Y9.32005
G01 X5.59199 Y9.27905
G01 X5.42498 Y9.20440
G01 X5.27682 Y9.09711
G01 X5.14688 Y8.95398
G01 X5.05092 Y8.78616
G01 X4.99384 Y8.60694
G01 X4.97500 Y8.42498
G01 X4.97500 Y8.17499
G04 P0 ( dwell for no time -- G64 should not smooth over this point )
G00 Z0.30000 ( retract )

G00 X7.27502 Y8.17499 ( rapid move to begin. )
G01 F120.00000
( begin pre-milling-gcode )
M7
( end pre-milling-gcode )
( Mill infeed pass 1/1 )
G01 Z-0.05000
G04 P0 ( dwell for no time -- G64 should not smooth over this point )
G01 F680.00000
G01 X7.27502 Y8.17499
G01 X7.27502 Y8.42498
G01 X7.29496 Y8.62785
G01 X7.30583 Y8.67895
G01 X7.36072 Y8.84796
G01 X7.38015 Y8.89211
G01 X7.43501 Y8.96188
G01 X7.51710 Y9.07951
G01 X7.60156 Y9.17778
G01 X7.67250 Y9.24362
G01 X7.73928 Y9.29668
G01 X7.85830 Y9.37257
G01 X7.89457 Y9.39155
G01 X8.06409 Y9.46000
G01 X8.24349 Y9.49787
G01 X8.42640 Y9.50326
G01 X8.51322 Y9.49480
G01 X8.60674 Y9.47870
G01 X8.73323 Y9.44288
G01 X8.78063 Y9.42503
G01 X8.93823 Y9.34692
G01 X9.09193 Y9.23422
G01 X9.19513 Y9.12518
G01 X9.27956 Y9.04885
G01 X9.37986 Y8.87240
G01 X9.45093 Y8.65368
G01 X9.47496 Y8.42498
G01 X9.47359 Y8.14885
G01 X9.45093 Y7.94629
G01 X9.37986 Y7.72759
G01 X9.26488 Y7.52843
G01 X9.11101 Y7.35754
G01 X8.92498 Y7.22239
G01 X8.73933 Y7.13821
G01 X8.68962 Y7.12208
G01 X8.48998 Y7.08104
G01 X8.28614 Y7.07967
G01 X8.23417 Y7.08513
G01 X8.03509 Y7.12884
G01 X7.84832 Y7.21050
G01 X7.80306 Y7.23664
G01 X7.63895 Y7.35754
G01 X7.50156 Y7.50811
G01 X7.47083 Y7.55038
G01 X7.37011 Y7.72759
G01 X7.30583 Y7.92102
G01 X7.29496 Y7.97212
G01 X7.27502 Y8.17499
G01 X7.32500 Y8.17499
G01 X7.32500 Y8.42498
G01 X7.34794 Y8.64329
G01 X7.41578 Y8.85205
G01 X7.51413 Y9.02459
G01 X7.53869 Y9.05843
G01 X7.67240 Y9.20529
G01 X7.83245 Y9.32289
G01 X7.86864 Y9.34380
G01 X8.05053 Y9.42358
G01 X8.26524 Y9.46922
G01 X8.46384 Y9.47031
G01 X8.50542 Y9.46594
G01 X8.69945 Y9.42358
G01 X8.88134 Y9.34380
G01 X8.91753 Y9.32289
G01 X9.07755 Y9.20529
G01 X9.22444 Y9.04215
G01 X9.32470 Y8.87070
G01 X9.34169 Y8.83252
G01 X9.39660 Y8.66351
G01 X9.40529 Y8.62261
G01 X9.42497 Y8.42498
G01 X9.42388 Y8.15409
G01 X9.40529 Y7.97735
G01 X9.39660 Y7.93646
G01 X9.33420 Y7.74791
G01 X9.23585 Y7.57537
G01 X9.21126 Y7.54156
G01 X9.07755 Y7.39470
G01 X8.89998 Y7.26567
G01 X8.69945 Y7.17639
G01 X8.50542 Y7.13402
G01 X8.46384 Y7.12965
G01 X8.26524 Y7.13075
G01 X8.07075 Y7.17098
G01 X8.03097 Y7.18388
G01 X7.85000 Y7.26567
G01 X7.67240 Y7.39470
G01 X7.53869 Y7.54156
G01 X7.51413 Y7.57537
G01 X7.41578 Y7.74791
G01 X7.35338 Y7.93646
G01 X7.34466 Y7.97735
G01 X7.32500 Y8.17499
G01 X7.37499 Y8.17499
G01 X7.37499 Y8.42498
G01 X7.39440 Y8.61738
G01 X7.40092 Y8.64807
G01 X7.46145 Y8.83173
G01 X7.55744 Y8.99960
G01 X7.57585 Y9.02498
G01 X7.70585 Y9.16813
G01 X7.86183 Y9.28246
G01 X7.88899 Y9.29813
G01 X8.06597 Y9.37603
G01 X8.25495 Y9.41705
G01 X8.28614 Y9.42033
G01 X8.47951 Y9.41949
G01 X8.66884 Y9.38009
G01 X8.69866 Y9.37042
G01 X8.87499 Y9.29102
G01 X9.04410 Y9.16813
G01 X9.17412 Y9.02498
G01 X9.19254 Y8.99960
G01 X9.28853 Y8.83173
G01 X9.34905 Y8.64807
G01 X9.35558 Y8.61738
G01 X9.37415 Y8.44067
G01 X9.37499 Y8.17499
G01 X9.35558 Y7.98259
G01 X9.34905 Y7.95190
G01 X9.29414 Y7.78292
G01 X9.28139 Y7.75426
G01 X9.18400 Y7.58721
G01 X9.05520 Y7.44296
G01 X9.03191 Y7.42198
G01 X8.87499 Y7.30898
G01 X8.69866 Y7.22958
G01 X8.66884 Y7.21987
G01 X8.47951 Y7.18048
G01 X8.28614 Y7.17967
G01 X8.25495 Y7.18294
G01 X8.06597 Y7.22394
G01 X7.88899 Y7.30184
G01 X7.86183 Y7.31751
G01 X7.70585 Y7.43186
G01 X7.57585 Y7.57502
G01 X7.55744 Y7.60037
G01 X7.46859 Y7.75426
G01 X7.45581 Y7.78292
G01 X7.39686 Y7.96707
G01 X7.37583 Y8.15932
G01 X7.37499 Y8.17499
G01 X7.42500 Y8.17499
G01 X7.42500 Y8.42498
G01 X7.44410 Y8.61217
G01 X7.50336 Y8.80161
G01 X7.60644 Y8.98337
G01 X7.74746 Y9.13755
G01 X7.89998 Y9.24771
G01 X8.07166 Y9.32475
G01 X8.27568 Y9.36978
G01 X8.48462 Y9.36813
G01 X8.66856 Y9.32848
G01 X8.84065 Y9.25246
G01 X9.01065 Y9.13097
G01 X9.14926 Y8.97461
G01 X9.24286 Y8.81139
G01 X9.30151 Y8.63262
G01 X9.32444 Y8.43544
G01 X9.32497 Y8.17499
G01 X9.30585 Y7.98782
G01 X9.24659 Y7.79836
G01 X9.14354 Y7.61660
G01 X9.00252 Y7.46242
G01 X8.84999 Y7.35226
G01 X8.67832 Y7.27525
G01 X8.47428 Y7.23019
G01 X8.26534 Y7.23184
G01 X8.08142 Y7.27149
G01 X7.90931 Y7.34751
G01 X7.73933 Y7.46900
G01 X7.60072 Y7.62538
G01 X7.50336 Y7.79836
G01 X7.44576 Y7.97748
G01 X7.42554 Y8.16453
G01 X7.42500 Y8.17499
G01 X7.47499 Y8.17499
G01 X7.49600 Y7.98281
G01 X7.55279 Y7.80893
G01 X7.64687 Y7.64598
G01 X7.77684 Y7.50286
G01 X7.92498 Y7.39557
G01 X8.09198 Y7.32091
G01 X8.28091 Y7.27992
G01 X8.47423 Y7.28073
G01 X8.65309 Y7.31904
G01 X8.82033 Y7.39318
G01 X8.97313 Y7.50286
G01 X9.10311 Y7.64598
G01 X9.19904 Y7.81380
G01 X9.25614 Y7.99302
G01 X9.27499 Y8.17499
G01 X9.27471 Y8.43021
G01 X9.25396 Y8.61715
G01 X9.19719 Y8.79104
G01 X9.10595 Y8.94961
G01 X8.97720 Y9.09381
G01 X8.82033 Y9.20679
G01 X8.65309 Y9.28093
G01 X8.47423 Y9.31923
G01 X8.28091 Y9.32005
G01 X8.09198 Y9.27905
G01 X7.92498 Y9.20440
G01 X7.77684 Y9.09711
G01 X7.64687 Y8.95398
G01 X7.55091 Y8.78616
G01 X7.49384 Y8.60694
G01 X7.47499 Y8.42498
G01 X7.47499 Y8.17499
G04 P0 ( dwell for no time -- G64 should not smooth over this point )
G00 Z0.30000 ( retract )

G00 X9.77501 Y7.57499 ( rapid move to begin. )
G01 F120.00000
( begin pre-milling-gcode )
M7
( end pre-milling-gcode )
( Mill infeed pass 1/1 )
G01 Z-0.05000
G04 P0 ( dwell for no time -- G64 should not smooth over this point )
G01 F680.00000
G01 X9.77501 Y7.57499
G01 X9.77501 Y9.02498
G01 X9.78184 Y9.10311
G01 X9.78695 Y9.13270
G01 X9.87334 Y9.28599
G01 X9.89774 Y9.32289
G01 X9.97400 Y9.39937
G01 X10.07102 Y9.45980
G01 X10.17859 Y9.49556
G01 X10.23907 Y9.50346
G01 X11.48781 Y9.50407
G01 X11.56924 Y9.49594
G01 X11.68349 Y9.45733
G01 X11.77313 Y9.40171
G01 X11.81377 Y9.36346
G01 X11.85167 Y9.32355
G01 X11.91042 Y9.22894
G01 X11.94615 Y9.12160
G01 X11.95423 Y9.02465
G01 X11.95304 Y7.53958
G01 X11.94633 Y7.47923
G01 X11.91077 Y7.37177
G01 X11.85220 Y7.27707
G01 X11.81382 Y7.23654
G01 X11.77384 Y7.19877
G01 X11.73622 Y7.17352
G01 X11.58507 Y7.08863
G01 X11.51420 Y7.07672
G01 X10.23577 Y7.07672
G01 X10.14575 Y7.09270
G01 X10.09607 Y7.10885
G01 X10.02500 Y7.14200
G01 X9.94044 Y7.20344
G01 X9.87049 Y7.28111
G01 X9.83010 Y7.34832
G01 X9.80884 Y7.39605
G01 X9.78593 Y7.47103
G01 X9.78184 Y7.49689
G01 X9.77501 Y7.57499
G01 X9.82500 Y7.57499
G01 X9.82609 Y9.04588
G01 X9.83483 Y9.11855
G01 X9.85639 Y9.18848
G01 X9.87341 Y9.22665
G01 X9.92411 Y9.30575
G01 X9.97389 Y9.35939
G01 X10.04999 Y9.41469
G01 X10.13595 Y9.45294
G01 X10.23838 Y9.47334
G01 X11.47498 Y9.47496
G01 X11.54270 Y9.46922
G01 X11.61405 Y9.45294
G01 X11.68133 Y9.42419
G01 X11.71753 Y9.40328
G01 X11.77607 Y9.35939
G01 X11.83904 Y9.28949
G01 X11.87656 Y9.22665
G01 X11.89358 Y9.18848
G01 X11.91842 Y9.09787
G01 X11.92497 Y9.02498
G01 X11.92497 Y7.57499
G01 X11.91514 Y7.48142
G01 X11.89358 Y7.41152
G01 X11.85045 Y7.32805
G01 X11.82586 Y7.29422
G01 X11.77607 Y7.24057
G01 X11.69998 Y7.18528
G01 X11.61405 Y7.14703
G01 X11.51158 Y7.12666
G01 X10.23838 Y7.12666
G01 X10.15616 Y7.14162
G01 X10.11639 Y7.15452
G01 X10.04999 Y7.18528
G01 X9.97389 Y7.24057
G01 X9.91095 Y7.31050
G01 X9.87341 Y7.37332
G01 X9.85639 Y7.41152
G01 X9.83155 Y7.50209
G01 X9.82500 Y7.57499
G01 X9.87499 Y7.57499
G01 X9.87582 Y9.04067
G01 X9.88375 Y9.10816
G01 X9.90394 Y9.17303
G01 X9.94283 Y9.24692
G01 X9.96127 Y9.27230
G01 X10.00735 Y9.32223
G01 X10.07499 Y9.37138
G01 X10.15139 Y9.40539
G01 X10.24100 Y9.42340
G01 X11.47498 Y9.42497
G01 X11.53231 Y9.42033
G01 X11.59858 Y9.40539
G01 X11.66099 Y9.37852
G01 X11.74262 Y9.32223
G01 X11.79858 Y9.26010
G01 X11.83328 Y9.20166
G01 X11.86218 Y9.12332
G01 X11.86868 Y9.09264
G01 X11.87498 Y9.02498
G01 X11.87498 Y7.57499
G01 X11.86624 Y7.49183
G01 X11.84603 Y7.42696
G01 X11.83328 Y7.39831
G01 X11.78870 Y7.32767
G01 X11.74262 Y7.27773
G01 X11.67498 Y7.22859
G01 X11.59858 Y7.19458
G01 X11.50897 Y7.17657
G01 X10.24100 Y7.17657
G01 X10.16655 Y7.19051
G01 X10.13673 Y7.20019
G01 X10.07499 Y7.22859
G01 X10.00735 Y7.27773
G01 X9.95139 Y7.33989
G01 X9.91669 Y7.39831
G01 X9.90394 Y7.42696
G01 X9.88129 Y7.50733
G01 X9.87499 Y7.57499
G01 X9.92500 Y7.57499
G01 X9.92553 Y9.03544
G01 X9.93264 Y9.09775
G01 X9.95149 Y9.15756
G01 X9.99843 Y9.23884
G01 X10.04080 Y9.28507
G01 X10.09998 Y9.32810
G01 X10.16683 Y9.35784
G01 X10.24362 Y9.37346
G01 X11.47498 Y9.37499
G01 X11.52190 Y9.37143
G01 X11.58314 Y9.35784
G01 X11.64067 Y9.33285
G01 X11.70917 Y9.28507
G01 X11.75814 Y9.23072
G01 X11.78997 Y9.17666
G01 X11.81898 Y9.08741
G01 X11.82497 Y9.02498
G01 X11.82497 Y7.57499
G01 X11.81732 Y7.50222
G01 X11.79848 Y7.44240
G01 X11.75156 Y7.36112
G01 X11.70917 Y7.31490
G01 X11.64999 Y7.27189
G01 X11.58314 Y7.24212
G01 X11.50635 Y7.22650
G01 X10.24362 Y7.22650
G01 X10.15705 Y7.24588
G01 X10.09998 Y7.27189
G01 X10.04080 Y7.31490
G01 X9.99183 Y7.36928
G01 X9.96000 Y7.42330
G01 X9.93099 Y7.51256
G01 X9.92500 Y7.57499
G01 X9.97499 Y7.57499
G01 X9.98154 Y7.51261
G01 X10.00092 Y7.45297
G01 X10.03229 Y7.39866
G01 X10.07054 Y7.35574
G01 X10.12965 Y7.31281
G01 X10.18228 Y7.28967
G01 X10.24623 Y7.27641
G01 X11.50374 Y7.27641
G01 X11.56769 Y7.28967
G01 X11.62500 Y7.31517
G01 X11.67572 Y7.35206
G01 X11.71440 Y7.39458
G01 X11.75093 Y7.45785
G01 X11.76843 Y7.51261
G01 X11.77498 Y7.57499
G01 X11.77498 Y9.02498
G01 X11.76924 Y9.08220
G01 X11.74669 Y9.15167
G01 X11.71768 Y9.20133
G01 X11.67572 Y9.24794
G01 X11.62500 Y9.28479
G01 X11.57257 Y9.30844
G01 X11.50374 Y9.32355
G01 X10.24623 Y9.32355
G01 X10.18228 Y9.31029
G01 X10.12500 Y9.28479
G01 X10.07425 Y9.24794
G01 X10.03557 Y9.20539
G01 X9.99904 Y9.14212
G01 X9.98154 Y9.08736
G01 X9.97499 Y9.02498
G01 X9.97499 Y7.57499
G04 P0 ( dwell for no time -- G64 should not smooth over this point )
G00 Z0.30000 ( retract )

G00 X18.24998 Y23.62500 ( rapid move to begin. )
G01 F120.00000
( begin pre-milling-gcode )
M7
( end pre-milling-gcode )
( Mill infeed pass 1/1 )
G01 Z-0.05000
G04 P0 ( dwell for no time -- G64 should not smooth over this point )
G01 F680.00000
G01 X18.24998 Y23.62500
G01 X18.24998 Y25.07498
G01 X18.25655 Y25.13736
G01 X18.27406 Y25.19213
G01 X18.31058 Y25.25540
G01 X18.34924 Y25.29794
G01 X18.39999 Y25.33480
G01 X18.45729 Y25.36030
G01 X18.52125 Y25.37356
G01 X19.77873 Y25.37356
G01 X19.84759 Y25.35842
G01 X19.89999 Y25.33480
G01 X19.95073 Y25.29794
G01 X19.99270 Y25.25133
G01 X20.02168 Y25.20168
G01 X20.04426 Y25.13218
G01 X20.05000 Y25.07498
G01 X20.05000 Y23.62500
G01 X20.04342 Y23.56261
G01 X20.02592 Y23.50785
G01 X19.98939 Y23.44458
G01 X19.95073 Y23.40204
G01 X19.89999 Y23.36518
G01 X19.84268 Y23.33968
G01 X19.77873 Y23.32642
G01 X18.52125 Y23.32642
G01 X18.45729 Y23.33968
G01 X18.40466 Y23.36279
G01 X18.34556 Y23.40574
G01 X18.30728 Y23.44864
G01 X18.27593 Y23.50298
G01 X18.25655 Y23.56261
G01 X18.24998 Y23.62500
G01 X18.19999 Y23.62500
G01 X18.20601 Y23.56256
G01 X18.23499 Y23.47331
G01 X18.26684 Y23.41926
G01 X18.31579 Y23.36490
G01 X18.37499 Y23.32187
G01 X18.43207 Y23.29586
G01 X18.51863 Y23.27651
G01 X19.78134 Y23.27651
G01 X19.85815 Y23.29213
G01 X19.92498 Y23.32187
G01 X19.98419 Y23.36490
G01 X20.02655 Y23.41113
G01 X20.07347 Y23.49241
G01 X20.09234 Y23.55223
G01 X20.09999 Y23.62500
G01 X20.09999 Y25.07498
G01 X20.09397 Y25.13741
G01 X20.06498 Y25.22667
G01 X20.03313 Y25.28072
G01 X19.98419 Y25.33508
G01 X19.91566 Y25.38285
G01 X19.85815 Y25.40782
G01 X19.79691 Y25.42144
G01 X19.75000 Y25.42499
G01 X18.51863 Y25.42344
G01 X18.44182 Y25.40782
G01 X18.37499 Y25.37808
G01 X18.31579 Y25.33508
G01 X18.27342 Y25.28885
G01 X18.22651 Y25.20757
G01 X18.20763 Y25.14775
G01 X18.20055 Y25.08545
G01 X18.19999 Y23.62500
G01 X18.15000 Y23.62500
G01 X18.15628 Y23.55733
G01 X18.16280 Y23.52665
G01 X18.19171 Y23.44831
G01 X18.22638 Y23.38987
G01 X18.28234 Y23.32774
G01 X18.35000 Y23.27859
G01 X18.41172 Y23.25019
G01 X18.44154 Y23.24052
G01 X18.51602 Y23.22657
G01 X19.78396 Y23.22657
G01 X19.87359 Y23.24458
G01 X19.94997 Y23.27859
G01 X20.01764 Y23.32774
G01 X20.06371 Y23.37768
G01 X20.10827 Y23.44831
G01 X20.12102 Y23.47697
G01 X20.14123 Y23.54181
G01 X20.14997 Y23.62500
G01 X20.14997 Y25.07498
G01 X20.14370 Y25.14265
G01 X20.12102 Y25.22301
G01 X20.10827 Y25.25166
G01 X20.07359 Y25.31008
G01 X20.01764 Y25.37224
G01 X19.93600 Y25.42852
G01 X19.87359 Y25.45540
G01 X19.80730 Y25.47033
G01 X19.75000 Y25.47498
G01 X18.51602 Y25.47341
G01 X18.42638 Y25.45540
G01 X18.35000 Y25.42139
G01 X18.28234 Y25.37224
G01 X18.23626 Y25.32230
G01 X18.19171 Y25.25166
G01 X18.17896 Y25.22301
G01 X18.15874 Y25.15814
G01 X18.15081 Y25.09065
G01 X18.15000 Y23.62500
G01 X18.10001 Y23.62500
G01 X18.10657 Y23.55210
G01 X18.11525 Y23.51121
G01 X18.14840 Y23.42332
G01 X18.18594 Y23.36048
G01 X18.24888 Y23.29058
G01 X18.32498 Y23.23528
G01 X18.39140 Y23.20453
G01 X18.43115 Y23.19160
G01 X18.51340 Y23.17664
G01 X19.78657 Y23.17664
G01 X19.88904 Y23.19703
G01 X19.97499 Y23.23528
G01 X20.05109 Y23.29058
G01 X20.10085 Y23.34423
G01 X20.15157 Y23.42332
G01 X20.16857 Y23.46150
G01 X20.19013 Y23.53142
G01 X20.19998 Y23.62500
G01 X20.19998 Y25.07498
G01 X20.19341 Y25.14788
G01 X20.18472 Y25.18877
G01 X20.15157 Y25.27666
G01 X20.11403 Y25.33947
G01 X20.05109 Y25.40940
G01 X19.99254 Y25.45326
G01 X19.95632 Y25.47419
G01 X19.88904 Y25.50295
G01 X19.81769 Y25.51923
G01 X19.75000 Y25.52497
G01 X18.51340 Y25.52332
G01 X18.41094 Y25.50295
G01 X18.32498 Y25.46469
G01 X18.24888 Y25.40940
G01 X18.19913 Y25.35575
G01 X18.14840 Y25.27666
G01 X18.13141 Y25.23848
G01 X18.10984 Y25.16856
G01 X18.10111 Y25.09589
G01 X18.10001 Y23.62500
G01 X18.05000 Y23.62500
G01 X18.05683 Y23.54687
G01 X18.06064 Y23.52286
G01 X18.12145 Y23.40755
G01 X18.17228 Y23.32749
G01 X18.21117 Y23.28649
G01 X18.25180 Y23.24824
G01 X18.34680 Y23.18979
G01 X18.42686 Y23.16170
G01 X18.47411 Y23.15111
G01 X18.55013 Y23.14572
G01 X19.78589 Y23.14649
G01 X19.84637 Y23.15439
G01 X19.95394 Y23.19015
G01 X20.04883 Y23.24875
G01 X20.08876 Y23.28647
G01 X20.12719 Y23.32706
G01 X20.18289 Y23.41662
G01 X20.22150 Y23.53046
G01 X20.22922 Y23.62530
G01 X20.22805 Y25.11019
G01 X20.22117 Y25.17158
G01 X20.18541 Y25.27894
G01 X20.12666 Y25.37353
G01 X20.08876 Y25.41344
G01 X20.04814 Y25.45169
G01 X19.95315 Y25.51016
G01 X19.84548 Y25.54575
G01 X19.76285 Y25.55405
G01 X18.51292 Y25.55337
G01 X18.45356 Y25.54554
G01 X18.34601 Y25.50980
G01 X18.24896 Y25.44933
G01 X18.17276 Y25.37290
G01 X18.14835 Y25.33599
G01 X18.06194 Y25.18270
G01 X18.05683 Y25.15309
G01 X18.05000 Y25.07498
G01 X18.05000 Y23.62500
G04 P0 ( dwell for no time -- G64 should not smooth over this point )
G00 Z0.30000 ( retract )

G00 X15.74998 Y24.22500 ( rapid move to begin. )
G01 F120.00000
( begin pre-milling-gcode )
M7
( end pre-milling-gcode )
( Mill infeed pass 1/1 )
G01 Z-0.05000
G04 P0 ( dwell for no time -- G64 should not smooth over this point )
G01 F680.00000
G01 X15.74998 Y24.22500
G01 X15.74998 Y24.47498
G01 X15.76883 Y24.65695
G01 X15.82593 Y24.83617
G01 X15.92186 Y25.00399
G01 X16.05183 Y25.14712
G01 X16.19999 Y25.25441
G01 X16.36700 Y25.32906
G01 X16.55592 Y25.37005
G01 X16.74924 Y25.36924
G01 X16.92811 Y25.33094
G01 X17.09532 Y25.25679
G01 X17.25221 Y25.14382
G01 X17.38094 Y24.99959
G01 X17.47406 Y24.83617
G01 X17.53032 Y24.66210
G01 X17.54972 Y24.48022
G01 X17.54998 Y24.22500
G01 X17.53113 Y24.04303
G01 X17.47406 Y23.86381
G01 X17.37810 Y23.69599
G01 X17.24815 Y23.55286
G01 X17.09532 Y23.44318
G01 X16.92811 Y23.36904
G01 X16.74924 Y23.33074
G01 X16.55592 Y23.32993
G01 X16.36700 Y23.37092
G01 X16.19999 Y23.44557
G01 X16.05183 Y23.55286
G01 X15.92186 Y23.69599
G01 X15.82781 Y23.85893
G01 X15.77101 Y24.03282
G01 X15.74998 Y24.22500
G01 X15.69999 Y24.22500
G01 X15.70053 Y24.21453
G01 X15.72346 Y24.01735
G01 X15.78211 Y23.83859
G01 X15.87574 Y23.67537
G01 X16.01432 Y23.51900
G01 X16.18432 Y23.39751
G01 X16.35643 Y23.32149
G01 X16.54035 Y23.28184
G01 X16.74929 Y23.28019
G01 X16.95333 Y23.32525
G01 X17.12498 Y23.40226
G01 X17.27751 Y23.51242
G01 X17.41856 Y23.66660
G01 X17.52161 Y23.84836
G01 X17.58086 Y24.03780
G01 X17.59999 Y24.22500
G01 X17.59943 Y24.48545
G01 X17.57652 Y24.68260
G01 X17.51785 Y24.86139
G01 X17.42425 Y25.02461
G01 X17.28567 Y25.18098
G01 X17.11566 Y25.30246
G01 X16.94355 Y25.37849
G01 X16.75963 Y25.41814
G01 X16.55069 Y25.41979
G01 X16.34665 Y25.37473
G01 X16.17500 Y25.29771
G01 X16.02245 Y25.18755
G01 X15.88143 Y25.03338
G01 X15.77838 Y24.85161
G01 X15.71912 Y24.66216
G01 X15.69999 Y24.47498
G01 X15.69999 Y24.22500
G01 X15.65001 Y24.22500
G01 X15.65082 Y24.20930
G01 X15.67185 Y24.01707
G01 X15.73083 Y23.83292
G01 X15.74358 Y23.80427
G01 X15.84099 Y23.63721
G01 X15.96977 Y23.49294
G01 X15.99306 Y23.47196
G01 X16.14998 Y23.35898
G01 X16.32631 Y23.27956
G01 X16.35613 Y23.26988
G01 X16.54546 Y23.23048
G01 X16.73883 Y23.22965
G01 X16.77002 Y23.23292
G01 X16.94383 Y23.26988
G01 X16.97365 Y23.27956
G01 X17.14998 Y23.35898
G01 X17.30690 Y23.47196
G01 X17.33022 Y23.49294
G01 X17.45899 Y23.63721
G01 X17.55640 Y23.80427
G01 X17.56915 Y23.83292
G01 X17.62407 Y24.00191
G01 X17.63057 Y24.03259
G01 X17.64998 Y24.22500
G01 X17.64916 Y24.49065
G01 X17.63057 Y24.66739
G01 X17.62407 Y24.69807
G01 X17.56352 Y24.88171
G01 X17.46755 Y25.04961
G01 X17.44911 Y25.07496
G01 X17.31912 Y25.21814
G01 X17.14998 Y25.34100
G01 X16.97365 Y25.42040
G01 X16.94383 Y25.43010
G01 X16.75453 Y25.46949
G01 X16.56113 Y25.47033
G01 X16.52996 Y25.46703
G01 X16.34096 Y25.42603
G01 X16.16398 Y25.34813
G01 X16.13682 Y25.33246
G01 X15.98087 Y25.21814
G01 X15.85087 Y25.07496
G01 X15.83243 Y25.04961
G01 X15.73644 Y24.88171
G01 X15.67591 Y24.69807
G01 X15.66939 Y24.66739
G01 X15.65001 Y24.47498
G01 X15.65001 Y24.22500
G01 X15.59999 Y24.22500
G01 X15.61968 Y24.02736
G01 X15.62837 Y23.98646
G01 X15.69077 Y23.79792
G01 X15.78912 Y23.62538
G01 X15.81371 Y23.59155
G01 X15.94742 Y23.44471
G01 X16.12499 Y23.31568
G01 X16.32552 Y23.22640
G01 X16.51955 Y23.18403
G01 X16.56113 Y23.17966
G01 X16.75973 Y23.18075
G01 X16.95422 Y23.22098
G01 X16.99400 Y23.23389
G01 X17.17497 Y23.31568
G01 X17.35257 Y23.44471
G01 X17.48627 Y23.59155
G01 X17.51084 Y23.62538
G01 X17.59969 Y23.77928
G01 X17.61670 Y23.81745
G01 X17.67703 Y24.00668
G01 X17.69887 Y24.20409
G01 X17.69996 Y24.47498
G01 X17.68031 Y24.67262
G01 X17.67162 Y24.71351
G01 X17.61670 Y24.88250
G01 X17.59969 Y24.92070
G01 X17.49943 Y25.09215
G01 X17.35257 Y25.25527
G01 X17.17497 Y25.38430
G01 X16.99400 Y25.46609
G01 X16.95422 Y25.47899
G01 X16.75973 Y25.51923
G01 X16.56113 Y25.52032
G01 X16.51955 Y25.51593
G01 X16.32552 Y25.47356
G01 X16.12499 Y25.38430
G01 X15.96367 Y25.26845
G01 X15.93261 Y25.24049
G01 X15.80053 Y25.09215
G01 X15.70027 Y24.92070
G01 X15.68328 Y24.88250
G01 X15.62296 Y24.69330
G01 X15.59999 Y24.47498
G01 X15.59999 Y24.22500
G01 X15.55001 Y24.22500
G01 X15.57404 Y23.99629
G01 X15.63573 Y23.80201
G01 X15.65214 Y23.76381
G01 X15.71516 Y23.68428
G01 X15.80805 Y23.54892
G01 X15.93350 Y23.41535
G01 X16.08143 Y23.30625
G01 X16.24432 Y23.22492
G01 X16.34124 Y23.19134
G01 X16.41820 Y23.17125
G01 X16.51173 Y23.15515
G01 X16.59854 Y23.14669
G01 X16.78145 Y23.15207
G01 X16.96085 Y23.18995
G01 X17.13037 Y23.25837
G01 X17.16667 Y23.27737
G01 X17.28567 Y23.35327
G01 X17.35247 Y23.40635
G01 X17.55503 Y23.60193
G01 X17.65488 Y23.77757
G01 X17.72592 Y23.99629
G01 X17.74861 Y24.19886
G01 X17.74998 Y24.47498
G01 X17.72592 Y24.70368
G01 X17.65488 Y24.92238
G01 X17.55455 Y25.09888
G01 X17.47015 Y25.17518
G01 X17.36695 Y25.28420
G01 X17.21325 Y25.39690
G01 X17.05559 Y25.47506
G01 X17.00822 Y25.49286
G01 X16.88175 Y25.52868
G01 X16.78818 Y25.54481
G01 X16.70141 Y25.55326
G01 X16.51851 Y25.54785
G01 X16.33908 Y25.51001
G01 X16.16959 Y25.44155
G01 X16.13324 Y25.42256
G01 X16.01429 Y25.34671
G01 X15.94752 Y25.29362
G01 X15.87652 Y25.22776
G01 X15.79209 Y25.12952
G01 X15.71005 Y25.01194
G01 X15.65514 Y24.94209
G01 X15.63573 Y24.89797
G01 X15.58082 Y24.72896
G01 X15.56995 Y24.67785
G01 X15.55001 Y24.47498
G01 X15.55001 Y24.22500
G04 P0 ( dwell for no time -- G64 should not smooth over this point )
G00 Z0.30000 ( retract )

G00 X13.24999 Y24.22500 ( rapid move to begin. )
G01 F120.00000
( begin pre-milling-gcode )
M7
( end pre-milling-gcode )
( Mill infeed pass 1/1 )
G01 Z-0.05000
G04 P0 ( dwell for no time -- G64 should not smooth over this point )
G01 F680.00000
G01 X13.24999 Y24.22500
G01 X13.24999 Y24.47498
G01 X13.26883 Y24.65695
G01 X13.32593 Y24.83617
G01 X13.42187 Y25.00399
G01 X13.55184 Y25.14712
G01 X13.70000 Y25.25441
G01 X13.86698 Y25.32906
G01 X14.05590 Y25.37005
G01 X14.24922 Y25.36924
G01 X14.42811 Y25.33094
G01 X14.59532 Y25.25679
G01 X14.75219 Y25.14382
G01 X14.88095 Y24.99959
G01 X14.97406 Y24.83617
G01 X15.03032 Y24.66210
G01 X15.04970 Y24.48022
G01 X15.04998 Y24.22500
G01 X15.03114 Y24.04303
G01 X14.97406 Y23.86381
G01 X14.87810 Y23.69599
G01 X14.74813 Y23.55286
G01 X14.59532 Y23.44318
G01 X14.42811 Y23.36904
G01 X14.24922 Y23.33074
G01 X14.05590 Y23.32993
G01 X13.86698 Y23.37092
G01 X13.70000 Y23.44557
G01 X13.55184 Y23.55286
G01 X13.42187 Y23.69599
G01 X13.32779 Y23.85893
G01 X13.27102 Y24.03282
G01 X13.24999 Y24.22500
G01 X13.19997 Y24.22500
G01 X13.20053 Y24.21453
G01 X13.22347 Y24.01735
G01 X13.28212 Y23.83859
G01 X13.37572 Y23.67537
G01 X13.51432 Y23.51900
G01 X13.68433 Y23.39751
G01 X13.85641 Y23.32149
G01 X14.04036 Y23.28184
G01 X14.24930 Y23.28019
G01 X14.45331 Y23.32525
G01 X14.62499 Y23.40226
G01 X14.77752 Y23.51242
G01 X14.91854 Y23.66660
G01 X15.02161 Y23.84836
G01 X15.08087 Y24.03780
G01 X15.09997 Y24.22500
G01 X15.09944 Y24.48545
G01 X15.07653 Y24.68260
G01 X15.01785 Y24.86139
G01 X14.92425 Y25.02461
G01 X14.78567 Y25.18098
G01 X14.61567 Y25.30246
G01 X14.44356 Y25.37849
G01 X14.25964 Y25.41814
G01 X14.05070 Y25.41979
G01 X13.84666 Y25.37473
G01 X13.67498 Y25.29771
G01 X13.52245 Y25.18755
G01 X13.38143 Y25.03338
G01 X13.27838 Y24.85161
G01 X13.21910 Y24.66216
G01 X13.19997 Y24.47498
G01 X13.19997 Y24.22500
G01 X13.14996 Y24.22500
G01 X13.15082 Y24.20930
G01 X13.17183 Y24.01707
G01 X13.23083 Y23.83292
G01 X13.24359 Y23.80427
G01 X13.34097 Y23.63721
G01 X13.46977 Y23.49294
G01 X13.49306 Y23.47196
G01 X13.64999 Y23.35898
G01 X13.82631 Y23.27956
G01 X13.85613 Y23.26988
G01 X14.04546 Y23.23048
G01 X14.23883 Y23.22965
G01 X14.27002 Y23.23292
G01 X14.44384 Y23.26988
G01 X14.47366 Y23.27956
G01 X14.64998 Y23.35898
G01 X14.80690 Y23.47196
G01 X14.83022 Y23.49294
G01 X14.95900 Y23.63721
G01 X15.05638 Y23.80427
G01 X15.06916 Y23.83292
G01 X15.12407 Y24.00191
G01 X15.13058 Y24.03259
G01 X15.14998 Y24.22500
G01 X15.14914 Y24.49065
G01 X15.13058 Y24.66739
G01 X15.12407 Y24.69807
G01 X15.06352 Y24.88171
G01 X14.96753 Y25.04961
G01 X14.94912 Y25.07496
G01 X14.81912 Y25.21814
G01 X14.64998 Y25.34100
G01 X14.47366 Y25.42040
G01 X14.44384 Y25.43010
G01 X14.25451 Y25.46949
G01 X14.06114 Y25.47033
G01 X14.02994 Y25.46703
G01 X13.84097 Y25.42603
G01 X13.66398 Y25.34813
G01 X13.63683 Y25.33246
G01 X13.48087 Y25.21814
G01 X13.35085 Y25.07496
G01 X13.33243 Y25.04961
G01 X13.23645 Y24.88171
G01 X13.17592 Y24.69807
G01 X13.16939 Y24.66739
G01 X13.14996 Y24.47498
G01 X13.14996 Y24.22500
G01 X13.10000 Y24.22500
G01 X13.11966 Y24.02736
G01 X13.12837 Y23.98646
G01 X13.19075 Y23.79792
G01 X13.28913 Y23.62538
G01 X13.31371 Y23.59155
G01 X13.44742 Y23.44471
G01 X13.62499 Y23.31568
G01 X13.82552 Y23.22640
G01 X14.01956 Y23.18403
G01 X14.06114 Y23.17966
G01 X14.25974 Y23.18075
G01 X14.45423 Y23.22098
G01 X14.49400 Y23.23389
G01 X14.67498 Y23.31568
G01 X14.85257 Y23.44471
G01 X14.98628 Y23.59155
G01 X15.01084 Y23.62538
G01 X15.09969 Y23.77928
G01 X15.11671 Y23.81745
G01 X15.17703 Y24.00668
G01 X15.19888 Y24.20409
G01 X15.19997 Y24.47498
G01 X15.18031 Y24.67262
G01 X15.17160 Y24.71351
G01 X15.11671 Y24.88250
G01 X15.09969 Y24.92070
G01 X14.99944 Y25.09215
G01 X14.85257 Y25.25527
G01 X14.67498 Y25.38430
G01 X14.49400 Y25.46609
G01 X14.45423 Y25.47899
G01 X14.25974 Y25.51923
G01 X14.06114 Y25.52032
G01 X14.01956 Y25.51593
G01 X13.82552 Y25.47356
G01 X13.62499 Y25.38430
G01 X13.46368 Y25.26845
G01 X13.43261 Y25.24049
G01 X13.30051 Y25.09215
G01 X13.20028 Y24.92070
G01 X13.18329 Y24.88250
G01 X13.12294 Y24.69330
G01 X13.10000 Y24.47498
G01 X13.10000 Y24.22500
G01 X13.05001 Y24.22500
G01 X13.07404 Y23.99629
G01 X13.13574 Y23.80201
G01 X13.15212 Y23.76378
G01 X13.21509 Y23.68438
G01 X13.30803 Y23.54892
G01 X13.43350 Y23.41535
G01 X13.58143 Y23.30628
G01 X13.74432 Y23.22492
G01 X13.84125 Y23.19134
G01 X13.91821 Y23.17125
G01 X14.01173 Y23.15515
G01 X14.09855 Y23.14669
G01 X14.28145 Y23.15207
G01 X14.46085 Y23.18995
G01 X14.63037 Y23.25840
G01 X14.66665 Y23.27737
G01 X14.78567 Y23.35327
G01 X14.85245 Y23.40633
G01 X14.92339 Y23.47217
G01 X15.00784 Y23.57044
G01 X15.03977 Y23.61176
G01 X15.08890 Y23.68662
G01 X15.14470 Y23.75769
G01 X15.15486 Y23.77757
G01 X15.22593 Y23.99629
G01 X15.24859 Y24.19886
G01 X15.24996 Y24.47498
G01 X15.22593 Y24.70368
G01 X15.16426 Y24.89797
G01 X15.14790 Y24.93607
G01 X15.08486 Y25.01557
G01 X15.00762 Y25.13089
G01 X14.86644 Y25.28458
G01 X14.71320 Y25.39690
G01 X14.55560 Y25.47506
G01 X14.50825 Y25.49286
G01 X14.38176 Y25.52868
G01 X14.28819 Y25.54481
G01 X14.20142 Y25.55326
G01 X14.01849 Y25.54785
G01 X13.83909 Y25.51001
G01 X13.66957 Y25.44155
G01 X13.63325 Y25.42256
G01 X13.51427 Y25.34669
G01 X13.44750 Y25.29362
G01 X13.37653 Y25.22776
G01 X13.29207 Y25.12952
G01 X13.21006 Y25.01194
G01 X13.15514 Y24.94206
G01 X13.13574 Y24.89797
G01 X13.08082 Y24.72896
G01 X13.06995 Y24.67785
G01 X13.05001 Y24.47498
G01 X13.05001 Y24.22500
G04 P0 ( dwell for no time -- G64 should not smooth over this point )
G00 Z0.30000 ( retract )

G00 X10.74999 Y24.22500 ( rapid move to begin. )
G01 F120.00000
( begin pre-milling-gcode )
M7
( end pre-milling-gcode )
( Mill infeed pass 1/1 )
G01 Z-0.05000
G04 P0 ( dwell for no time -- G64 should not smooth over this point )
G01 F680.00000
G01 X10.74999 Y24.22500
G01 X10.74999 Y24.47498
G01 X10.76884 Y24.65695
G01 X10.82591 Y24.83617
G01 X10.92187 Y25.00399
G01 X11.05184 Y25.14712
G01 X11.19998 Y25.25441
G01 X11.36698 Y25.32906
G01 X11.55591 Y25.37005
G01 X11.74923 Y25.36924
G01 X11.92809 Y25.33094
G01 X12.09533 Y25.25679
G01 X12.25220 Y25.14382
G01 X12.38095 Y24.99959
G01 X12.47404 Y24.83617
G01 X12.53033 Y24.66210
G01 X12.54971 Y24.48022
G01 X12.54999 Y24.22500
G01 X12.53114 Y24.04303
G01 X12.47404 Y23.86381
G01 X12.37811 Y23.69599
G01 X12.24813 Y23.55286
G01 X12.09533 Y23.44318
G01 X11.92809 Y23.36904
G01 X11.74923 Y23.33074
G01 X11.55591 Y23.32993
G01 X11.36698 Y23.37092
G01 X11.19998 Y23.44557
G01 X11.05184 Y23.55286
G01 X10.92187 Y23.69599
G01 X10.82779 Y23.85893
G01 X10.77100 Y24.03282
G01 X10.74999 Y24.22500
G01 X10.70000 Y24.22500
G01 X10.70054 Y24.21453
G01 X10.72076 Y24.02746
G01 X10.77836 Y23.84836
G01 X10.87572 Y23.67537
G01 X11.01433 Y23.51900
G01 X11.18431 Y23.39751
G01 X11.35642 Y23.32149
G01 X11.54034 Y23.28184
G01 X11.74928 Y23.28019
G01 X11.95332 Y23.32525
G01 X12.12499 Y23.40226
G01 X12.27752 Y23.51242
G01 X12.41854 Y23.66660
G01 X12.52159 Y23.84836
G01 X12.58085 Y24.03780
G01 X12.59997 Y24.22500
G01 X12.59944 Y24.48545
G01 X12.57651 Y24.68260
G01 X12.51786 Y24.86139
G01 X12.42426 Y25.02461
G01 X12.28565 Y25.18098
G01 X12.11565 Y25.30246
G01 X11.94356 Y25.37849
G01 X11.75962 Y25.41814
G01 X11.55068 Y25.41979
G01 X11.34666 Y25.37473
G01 X11.17498 Y25.29771
G01 X11.02246 Y25.18755
G01 X10.88144 Y25.03338
G01 X10.77836 Y24.85161
G01 X10.71910 Y24.66216
G01 X10.70000 Y24.47498
G01 X10.70000 Y24.22500
G01 X10.64999 Y24.22500
G01 X10.65083 Y24.20930
G01 X10.67186 Y24.01707
G01 X10.73081 Y23.83292
G01 X10.74359 Y23.80427
G01 X10.84097 Y23.63721
G01 X10.96975 Y23.49294
G01 X10.99307 Y23.47196
G01 X11.14999 Y23.35898
G01 X11.32632 Y23.27956
G01 X11.35614 Y23.26988
G01 X11.54547 Y23.23048
G01 X11.73884 Y23.22965
G01 X11.77003 Y23.23292
G01 X11.94384 Y23.26988
G01 X11.97366 Y23.27956
G01 X12.14999 Y23.35898
G01 X12.30691 Y23.47196
G01 X12.33020 Y23.49294
G01 X12.45900 Y23.63721
G01 X12.55639 Y23.80427
G01 X12.56914 Y23.83292
G01 X12.62405 Y24.00191
G01 X12.63058 Y24.03259
G01 X12.64999 Y24.22500
G01 X12.64915 Y24.49065
G01 X12.63058 Y24.66739
G01 X12.62405 Y24.69807
G01 X12.56353 Y24.88171
G01 X12.46754 Y25.04961
G01 X12.44912 Y25.07496
G01 X12.31910 Y25.21814
G01 X12.16315 Y25.33246
G01 X12.13599 Y25.34813
G01 X11.95901 Y25.42603
G01 X11.77003 Y25.46703
G01 X11.73884 Y25.47033
G01 X11.54547 Y25.46949
G01 X11.34097 Y25.42603
G01 X11.16399 Y25.34813
G01 X11.13683 Y25.33246
G01 X10.98085 Y25.21814
G01 X10.85085 Y25.07496
G01 X10.83244 Y25.04961
G01 X10.73645 Y24.88171
G01 X10.67592 Y24.69807
G01 X10.66940 Y24.66739
G01 X10.65083 Y24.49065
G01 X10.64999 Y24.22500
G01 X10.60000 Y24.22500
G01 X10.61966 Y24.02736
G01 X10.62838 Y23.98646
G01 X10.69078 Y23.79792
G01 X10.78913 Y23.62538
G01 X10.81369 Y23.59155
G01 X10.94740 Y23.44471
G01 X11.10745 Y23.32708
G01 X11.14364 Y23.30618
G01 X11.32553 Y23.22640
G01 X11.51956 Y23.18403
G01 X11.56114 Y23.17966
G01 X11.75974 Y23.18075
G01 X11.95423 Y23.22098
G01 X11.99398 Y23.23389
G01 X12.17498 Y23.31568
