( pcb2gcode 2.5.0 )
( Software-independent Gcode )

G94 ( Millimeters per minute feed rate. )
G21 ( Units == Millimeters. )

G90 ( Absolute coordinates. )
G00 S24000 ( RPM spindle speed. )
G01 F680.00000 ( Feedrate. )


G00 Z50.00000 (Retract to tool change height)
T0
M5      (Spindle stop.)
G04 P1.00000 (Wait for spindle to stop)
(MSG, Change tool bit to mill diameter 0.10000mm)
M0      (Temporary machine stop.)
M3 ( Spindle on clockwise. )
G04 P1.00000 (Wait for spindle to get up to speed)
G04 P0 ( dwell for no time -- G64 should not smooth over this point )
G00 Z0.30000 ( retract )

G00 X4.42498 Y7.90806 ( rapid move to begin. )
G01 F120.00000
( begin pre-milling-gcode )
M7
( end pre-milling-gcode )
( Mill infeed pass 1/1 )
G01 Z-0.05000
G04 P0 ( dwell for no time -- G64 should not smooth over this point )
G01 F680.00000
G01 X4.42498 Y7.90806
G01 X4.42387 Y7.52025
G01 X4.41368 Y7.43384
G01 X4.38036 Y7.33123
G01 X4.32638 Y7.23778
G01 X4.25420 Y7.15759
G01 X4.16690 Y7.09414
G01 X4.06832 Y7.05025
G01 X3.98343 Y7.03110
G01 X3.90881 Y7.02501
G01 X2.34765 Y7.02701
G01 X2.23167 Y7.05025
G01 X2.13309 Y7.09414
G01 X2.04579 Y7.15759
G01 X1.97358 Y7.23778
G01 X1.91963 Y7.33123
G01 X1.89169 Y7.41362
G01 X1.88300 Y7.45452
G01 X1.87500 Y7.54116
G01 X1.87500 Y9.05881
G01 X1.88628 Y9.16612
G01 X1.91963 Y9.26876
G01 X1.97358 Y9.36221
G01 X2.04579 Y9.44240
G01 X2.11552 Y9.49442
G01 X2.15174 Y9.51532
G01 X2.23167 Y9.54971
G01 X2.31653 Y9.56887
G01 X2.38069 Y9.57471
G01 X2.44998 Y9.57496
G01 X2.46289 Y9.56330
G01 X2.44998 Y9.57496
G01 X2.45059 Y10.26566
G01 X2.46167 Y10.37488
G01 X2.47998 Y10.45119
G01 X2.53370 Y10.58095
G01 X2.68768 Y10.70668
G01 X2.61757 Y10.62225
G01 X2.56588 Y10.53437
G01 X2.52860 Y10.43950
G01 X2.50660 Y10.33996
G01 X2.49997 Y10.24999
G01 X2.49997 Y9.52497
G01 X2.51412 Y9.51123
G01 X2.49997 Y9.52497
G01 X2.38331 Y9.52477
G01 X2.32692 Y9.51997
G01 X2.24711 Y9.50217
G01 X2.15809 Y9.46252
G01 X2.07924 Y9.40524
G01 X2.01402 Y9.33282
G01 X1.96530 Y9.24842
G01 X1.93518 Y9.15573
G01 X1.92499 Y9.05881
G01 X1.92499 Y7.54116
G01 X1.93518 Y7.44423
G01 X1.96530 Y7.35155
G01 X2.00548 Y7.28033
G01 X2.02390 Y7.25495
G01 X2.07924 Y7.19473
G01 X2.14490 Y7.14601
G01 X2.17208 Y7.13031
G01 X2.24711 Y7.09780
G01 X2.35026 Y7.07692
G01 X3.91665 Y7.07520
G01 X3.97304 Y7.08000
G01 X4.03771 Y7.09374
G01 X4.12791 Y7.13031
G01 X4.15506 Y7.14601
G01 X4.22074 Y7.19473
G01 X4.28595 Y7.26717
G01 X4.33469 Y7.35155
G01 X4.36072 Y7.42907
G01 X4.36725 Y7.45975
G01 X4.37497 Y7.54116
G01 X4.37497 Y9.05881
G01 X4.36725 Y9.14022
G01 X4.36072 Y9.17090
G01 X4.33469 Y9.24842
G01 X4.28595 Y9.33282
G01 X4.22074 Y9.40524
G01 X4.14190 Y9.46252
G01 X4.05287 Y9.50217
G01 X3.97304 Y9.51997
G01 X3.91665 Y9.52477
G01 X3.79997 Y9.52497
G01 X3.78554 Y9.51075
G01 X3.79997 Y9.52497
G01 X3.79997 Y9.98075
G01 X3.79616 Y9.98233
G01 X3.79997 Y9.98075
G01 X9.10958 Y15.29034
G01 X9.16854 Y15.35867
G01 X9.22337 Y15.44460
G01 X9.26409 Y15.53807
G01 X9.28967 Y15.63675
G01 X9.29998 Y15.74998
G01 X9.29998 Y20.70001
G01 X9.28543 Y20.71449
G01 X9.29998 Y20.70001
G01 X9.84999 Y20.70001
G01 X9.87925 Y20.70288
G01 X9.90740 Y20.71141
G01 X9.93330 Y20.72528
G01 X9.95604 Y20.74393
G01 X9.97471 Y20.76666
G01 X9.98855 Y20.79259
G01 X9.99708 Y20.82074
G01 X9.99998 Y20.85000
G01 X9.99998 Y23.24999
G01 X9.99708 Y23.27925
G01 X9.98855 Y23.30740
G01 X9.97471 Y23.33333
G01 X9.95604 Y23.35604
G01 X9.93330 Y23.37471
G01 X9.90740 Y23.38855
G01 X9.87925 Y23.39708
G01 X9.84999 Y23.39998
G01 X7.45000 Y23.39998
G01 X7.42074 Y23.39708
G01 X7.39259 Y23.38855
G01 X7.36666 Y23.37471
G01 X7.34393 Y23.35604
G01 X7.32528 Y23.33333
G01 X7.31142 Y23.30740
G01 X7.30288 Y23.27925
G01 X7.29999 Y23.24999
G01 X7.29999 Y20.85000
G01 X7.30288 Y20.82074
G01 X7.31142 Y20.79259
G01 X7.32528 Y20.76666
G01 X7.34393 Y20.74393
G01 X7.36666 Y20.72528
G01 X7.39259 Y20.71141
G01 X7.42074 Y20.70288
G01 X7.45000 Y20.70001
G01 X7.99998 Y20.70001
G01 X8.01454 Y20.71449
G01 X7.99998 Y20.70001
G01 X7.99998 Y16.01920
G01 X8.00379 Y16.01762
G01 X7.99998 Y16.01920
G01 X2.84719 Y10.86640
G01 X2.91907 Y10.96366
G01 X2.98445 Y11.07437
G01 X7.95000 Y16.03992
G01 X7.95381 Y16.03835
G01 X7.95000 Y16.03992
G01 X7.95000 Y20.65000
G01 X7.96453 Y20.66442
G01 X7.95000 Y20.65000
G01 X7.45000 Y20.65000
G01 X7.41098 Y20.65386
G01 X7.37347 Y20.66524
G01 X7.33887 Y20.68370
G01 X7.30857 Y20.70857
G01 X7.28370 Y20.73887
G01 X7.26521 Y20.77347
G01 X7.25383 Y20.81098
G01 X7.25000 Y20.85000
G01 X7.25000 Y23.24999
G01 X7.25383 Y23.28901
G01 X7.26521 Y23.32652
G01 X7.28370 Y23.36109
G01 X7.30857 Y23.39139
G01 X7.33887 Y23.41626
G01 X7.37347 Y23.43475
G01 X7.41098 Y23.44613
G01 X7.45000 Y23.44997
G01 X9.84999 Y23.44997
G01 X9.88901 Y23.44613
G01 X9.92652 Y23.43475
G01 X9.96109 Y23.41626
G01 X9.99139 Y23.39139
G01 X10.01626 Y23.36109
G01 X10.03475 Y23.32652
G01 X10.04613 Y23.28901
G01 X10.04997 Y23.24999
G01 X10.04997 Y20.85000
G01 X10.04613 Y20.81098
G01 X10.03475 Y20.77347
G01 X10.01626 Y20.73887
G01 X9.99139 Y20.70857
G01 X9.96109 Y20.68370
G01 X9.92652 Y20.66524
G01 X9.88901 Y20.65386
G01 X9.84999 Y20.65000
G01 X9.34997 Y20.65000
G01 X9.33544 Y20.66442
G01 X9.34997 Y20.65000
G01 X9.34997 Y15.74998
G01 X9.33828 Y15.62506
G01 X9.31027 Y15.51892
G01 X9.26600 Y15.41849
G01 X9.20656 Y15.32621
G01 X9.14494 Y15.25501
G01 X3.84995 Y9.96003
G01 X3.84614 Y9.96160
G01 X3.84995 Y9.96003
G01 X3.84995 Y9.57496
G01 X3.83728 Y9.56368
G01 X3.84995 Y9.57496
G01 X3.91927 Y9.57471
G01 X3.98343 Y9.56887
G01 X4.06832 Y9.54971
G01 X4.14825 Y9.51532
G01 X4.18445 Y9.49442
G01 X4.25420 Y9.44240
G01 X4.32638 Y9.36221
G01 X4.38036 Y9.26876
G01 X4.41368 Y9.16612
G01 X4.42498 Y9.05881
G01 X4.42498 Y8.69165
G01 X4.41246 Y8.45000
G01 X4.41307 Y8.12703
G01 X4.42498 Y7.90806
G01 X4.46242 Y7.65833
G01 X4.47497 Y7.59953
G01 X4.47497 Y7.54116
G01 X4.46260 Y7.42345
G01 X4.43540 Y7.33532
G01 X4.41414 Y7.28756
G01 X4.38109 Y7.23034
G01 X4.35039 Y7.18805
G01 X4.28765 Y7.12043
G01 X4.21383 Y7.06511
G01 X4.16857 Y7.03897
G01 X4.10820 Y7.01210
G01 X4.05849 Y6.99595
G01 X3.99385 Y6.98221
G01 X3.92189 Y6.97535
G01 X2.34503 Y6.97708
G01 X2.24147 Y6.99595
G01 X2.16027 Y7.02612
G01 X2.04536 Y7.11906
G01 X2.00624 Y7.15284
G01 X1.93106 Y7.24624
G01 X1.87851 Y7.35203
G01 X1.84897 Y7.47192
G01 X1.84572 Y7.54146
G01 X1.84572 Y9.05848
G01 X1.84897 Y9.12802
G01 X1.87851 Y9.24791
G01 X1.90411 Y9.30346
G01 X1.93396 Y9.35794
G01 X2.00591 Y9.44654
G01 X2.09669 Y9.51936
G01 X2.28666 Y9.61362
G01 X2.34503 Y9.62289
G01 X2.39116 Y9.62497
G01 X2.40000 Y9.62497
G01 X2.41188 Y9.61380
G01 X2.40000 Y9.62497
G01 X2.40000 Y9.76716
G01 X2.41582 Y9.86142
G01 X2.42072 Y9.93369
G01 X2.42047 Y10.26823
G01 X2.43159 Y10.38398
G01 X2.46245 Y10.49431
G01 X2.48054 Y10.53976
G01 X2.67017 Y10.69086
G01 X2.76052 Y10.77143
G01 X2.81991 Y10.83401
G01 X2.91978 Y10.96475
G01 X2.96537 Y11.03922
G01 X3.02308 Y11.15441
G01 X3.25156 Y11.38288
G01 X3.30058 Y11.43970
G01 X3.35252 Y11.51316
G01 X4.88660 Y13.04719
G01 X4.95496 Y13.09616
G01 X5.02110 Y13.15227
G01 X7.80212 Y15.93329
G01 X7.85233 Y15.99143
G01 X7.90580 Y16.06479
G01 X7.91850 Y16.16446
G01 X7.92079 Y16.21988
G01 X7.92081 Y20.21548
G01 X7.91520 Y20.29219
G01 X7.90001 Y20.38073
G01 X7.90001 Y20.60001
G01 X7.91464 Y20.61464
G01 X7.90001 Y20.60001
G01 X7.67669 Y20.60001
G01 X7.62635 Y20.61190
G01 X7.57144 Y20.61776
G01 X7.40545 Y20.62353
G01 X7.33933 Y20.64799
G01 X7.28713 Y20.68713
G01 X7.24799 Y20.73933
G01 X7.22353 Y20.80544
G01 X7.22074 Y20.85040
G01 X7.22074 Y23.24956
G01 X7.22353 Y23.29452
G01 X7.24799 Y23.36061
G01 X7.28713 Y23.41283
G01 X7.33936 Y23.45197
G01 X7.40545 Y23.47643
G01 X7.45040 Y23.47923
G01 X9.84956 Y23.47923
G01 X9.89452 Y23.47643
G01 X9.96061 Y23.45197
G01 X10.01283 Y23.41283
G01 X10.05197 Y23.36061
G01 X10.07811 Y23.28220
G01 X10.07928 Y22.82713
G01 X10.08474 Y22.75220
G01 X10.09998 Y22.66356
G01 X10.09998 Y20.85000
G01 X9.89998 Y20.85000
G01 X9.89998 Y23.24999
G01 X9.89617 Y23.26912
G01 X9.88535 Y23.28535
G01 X9.86912 Y23.29617
G01 X9.84999 Y23.29998
G01 X7.45000 Y23.29998
G01 X7.43085 Y23.29617
G01 X7.41464 Y23.28535
G01 X7.40380 Y23.26912
G01 X7.39999 Y23.24999
G01 X7.40095 Y20.84024
G01 X7.40842 Y20.82221
G01 X7.42221 Y20.80842
G01 X7.45000 Y20.79998
G01 X8.09998 Y20.79998
G01 X8.09998 Y15.97779
G01 X2.76106 Y10.63889
G01 X2.70284 Y10.57001
G01 X2.65826 Y10.49612
G01 X2.62824 Y10.42363
G01 X2.60627 Y10.33211
G01 X2.59997 Y10.24999
G01 X2.59997 Y9.42497
G01 X2.35549 Y9.42320
G01 X2.27800 Y9.40707
G01 X2.20807 Y9.37593
G01 X2.14615 Y9.33094
G01 X2.09492 Y9.27405
G01 X2.05664 Y9.20775
G01 X2.03299 Y9.13493
G01 X2.02499 Y9.05881
G01 X2.02527 Y7.53593
G01 X2.03299 Y7.46503
G01 X2.05664 Y7.39224
G01 X2.09492 Y7.32592
G01 X2.14615 Y7.26905
G01 X2.20807 Y7.22404
G01 X2.27312 Y7.19478
G01 X2.35549 Y7.17680
G01 X3.90881 Y7.17499
G01 X3.95227 Y7.17781
G01 X4.01691 Y7.19155
G01 X4.08724 Y7.22168
G01 X4.15384 Y7.26905
G01 X4.20177 Y7.32185
G01 X4.24520 Y7.39711
G01 X4.26700 Y7.46503
G01 X4.27500 Y7.54116
G01 X4.27500 Y9.05881
G01 X4.26700 Y9.13493
G01 X4.24332 Y9.20775
G01 X4.20505 Y9.27405
G01 X4.15384 Y9.33094
G01 X4.08724 Y9.37832
G01 X4.02196 Y9.40707
G01 X3.94447 Y9.42320
G01 X3.69997 Y9.42497
G01 X3.69997 Y10.02215
G01 X9.03889 Y15.36106
G01 X9.09251 Y15.42359
G01 X9.13811 Y15.49684
G01 X9.17412 Y15.58379
G01 X9.19368 Y15.66784
G01 X9.19998 Y15.74998
G01 X9.19998 Y20.79998
G01 X9.84999 Y20.79998
G01 X9.86912 Y20.80379
G01 X9.88535 Y20.81464
G01 X9.89617 Y20.83084
G01 X9.89998 Y20.85000
G01 X9.94999 Y20.85000
G01 X9.94237 Y20.81172
G01 X9.92071 Y20.77928
G01 X9.90554 Y20.76684
G01 X9.86950 Y20.75190
G01 X9.24997 Y20.75000
G01 X9.23539 Y20.76453
G01 X9.24997 Y20.75000
G01 X9.24997 Y15.74998
G01 X9.24352 Y15.66390
G01 X9.22274 Y15.57211
G01 X9.18075 Y15.47073
G01 X9.13054 Y15.39113
G01 X9.07425 Y15.32570
G01 X3.74995 Y10.00145
G01 X3.74617 Y10.00303
G01 X3.74995 Y10.00145
G01 X3.74995 Y9.47499
G01 X3.73565 Y9.46092
G01 X3.74995 Y9.47499
G01 X3.94708 Y9.47311
G01 X4.03741 Y9.45462
G01 X4.11691 Y9.41923
G01 X4.18729 Y9.36808
G01 X4.24551 Y9.30344
G01 X4.28899 Y9.22807
G01 X4.31589 Y9.14535
G01 X4.32498 Y9.05881
G01 X4.32498 Y7.54116
G01 X4.31589 Y7.45465
G01 X4.29275 Y7.38167
G01 X4.23890 Y7.28840
G01 X4.18729 Y7.23189
G01 X4.11691 Y7.18076
G01 X4.03741 Y7.14535
G01 X3.94708 Y7.12686
G01 X2.39116 Y7.12500
G01 X2.33733 Y7.12892
G01 X2.26256 Y7.14535
G01 X2.17429 Y7.18645
G01 X2.11270 Y7.23189
G01 X2.06106 Y7.28840
G01 X2.01097 Y7.37189
G01 X1.98244 Y7.46498
G01 X1.97500 Y7.54116
G01 X1.97500 Y9.05881
G01 X1.98244 Y9.13501
G01 X2.01097 Y9.22807
G01 X2.05448 Y9.30344
G01 X2.11270 Y9.36808
G01 X2.18308 Y9.41923
G01 X2.26256 Y9.45462
G01 X2.35288 Y9.47311
G01 X2.54998 Y9.47499
G01 X2.56405 Y9.46104
G01 X2.54998 Y9.47499
G01 X2.54998 Y10.24999
G01 X2.55643 Y10.33605
G01 X2.58206 Y10.44275
G01 X2.61920 Y10.52921
G01 X2.66019 Y10.59612
G01 X2.72570 Y10.67425
G01 X8.05000 Y15.99849
G01 X8.05378 Y15.99692
G01 X8.05000 Y15.99849
G01 X8.05000 Y20.75000
G01 X8.06458 Y20.76453
G01 X8.05000 Y20.75000
G01 X7.45000 Y20.75000
G01 X7.43049 Y20.75190
G01 X7.39442 Y20.76684
G01 X7.36684 Y20.79442
G01 X7.35190 Y20.83049
G01 X7.35000 Y23.24999
G01 X7.35190 Y23.26950
G01 X7.36684 Y23.30554
G01 X7.39442 Y23.33313
G01 X7.41172 Y23.34237
G01 X7.45000 Y23.34999
G01 X9.84999 Y23.34999
G01 X9.88825 Y23.34237
G01 X9.92071 Y23.32071
G01 X9.94237 Y23.28824
G01 X9.94806 Y23.26950
G01 X9.94999 Y20.85000
G01 X10.09998 Y20.85000
G01 X10.09515 Y20.80123
G01 X10.08093 Y20.75431
G01 X10.05784 Y20.71111
G01 X10.02675 Y20.67321
G01 X9.98888 Y20.64215
G01 X9.94565 Y20.61903
G01 X9.89876 Y20.60481
G01 X9.84999 Y20.60001
G01 X9.39996 Y20.60001
G01 X9.38533 Y20.61464
G01 X9.39996 Y20.60001
G01 X9.39996 Y15.74998
G01 X9.38690 Y15.61341
G01 X9.35647 Y15.49979
G01 X9.30862 Y15.39235
G01 X9.24458 Y15.29372
G01 X9.18030 Y15.21965
G01 X3.89994 Y9.93932
G01 X3.89613 Y9.94090
G01 X3.89994 Y9.93932
G01 X3.89994 Y9.62497
G01 X3.88785 Y9.61456
G01 X3.89994 Y9.62497
G01 X3.95493 Y9.62289
G01 X4.05849 Y9.60402
G01 X4.10820 Y9.58789
G01 X4.19189 Y9.54910
G01 X4.28765 Y9.47956
G01 X4.35039 Y9.41192
G01 X4.38109 Y9.36965
G01 X4.42603 Y9.28908
G01 X4.46260 Y9.17651
G01 X4.47360 Y9.08494
G01 X4.47497 Y9.00041
G01 X4.46242 Y8.94161
G01 X4.42498 Y8.69165
G01 X4.47396 Y8.67936
G01 X4.51170 Y8.93313
G01 X4.52328 Y8.98749
G01 X4.62448 Y9.16277
G01 X4.65521 Y9.20504
G01 X4.81358 Y9.37890
G01 X4.89999 Y9.44336
G01 X4.90520 Y9.44072
G01 X4.89999 Y9.44336
G01 X4.89999 Y10.54999
G01 X4.90690 Y10.64781
G01 X4.93136 Y10.76284
G01 X4.97350 Y10.87265
G01 X4.99133 Y10.90760
G01 X5.05536 Y11.00623
G01 X5.11965 Y11.08029
G01 X11.40000 Y17.36062
G01 X11.40381 Y17.35905
G01 X11.40000 Y17.36062
G01 X11.40000 Y20.81073
G01 X11.40539 Y20.81347
G01 X11.40000 Y20.81073
G01 X11.17976 Y20.97245
G01 X10.99340 Y21.17738
G01 X10.96267 Y21.21964
G01 X10.82535 Y21.46023
G01 X10.73846 Y21.72325
G01 X10.72759 Y21.77435
G01 X10.70000 Y22.04999
G01 X10.73170 Y22.35147
G01 X10.79332 Y22.54557
G01 X10.84550 Y22.64044
G01 X10.96541 Y22.85065
G01 X11.00915 Y22.91034
G01 X11.09721 Y23.01481
G01 X11.17501 Y23.09431
G01 X11.25017 Y23.16010
G01 X11.41362 Y23.27615
G01 X11.45703 Y23.30033
G01 X11.61527 Y23.37455
G01 X11.73323 Y23.41662
G01 X11.81623 Y23.43866
G01 X11.97544 Y23.46853
G01 X12.02487 Y23.47521
G01 X12.23335 Y23.47658
G01 X12.32469 Y23.46767
G01 X12.45141 Y23.44562
G01 X12.56703 Y23.41651
G01 X12.64978 Y23.38911
G01 X12.84394 Y23.30112
G01 X13.01968 Y23.18286
G01 X13.12530 Y23.09424
G01 X13.17722 Y23.04255
G01 X13.29157 Y22.91039
G01 X13.32139 Y22.87064
G01 X13.42352 Y22.69813
G01 X13.46543 Y22.60750
G01 X13.50416 Y22.50318
G01 X13.54211 Y22.37194
G01 X13.55788 Y22.29912
G01 X13.58003 Y22.07671
G01 X13.56741 Y21.87570
G01 X13.54214 Y21.72729
G01 X13.52685 Y21.66871
G01 X13.46617 Y21.49117
G01 X13.44590 Y21.44583
G01 X13.35227 Y21.27829
G01 X13.29045 Y21.18942
G01 X13.22791 Y21.11324
G01 X13.08699 Y20.96935
G01 X12.98489 Y20.88723
G01 X12.92644 Y20.82998
G01 X12.89995 Y20.81073
G01 X12.89680 Y20.81246
G01 X12.89995 Y20.81073
G01 X12.89995 Y20.77936
G01 X12.88572 Y20.70194
G01 X12.87920 Y20.60692
G01 X12.87920 Y17.43535
G01 X12.88473 Y17.35869
G01 X12.89995 Y17.27004
G01 X12.89995 Y17.04998
G01 X12.89304 Y16.95214
G01 X12.86858 Y16.83710
G01 X12.82644 Y16.72730
G01 X12.80859 Y16.69235
G01 X12.74455 Y16.59372
G01 X12.68029 Y16.51965
G01 X6.39994 Y10.23932
G01 X6.39610 Y10.24090
G01 X6.39994 Y10.23932
G01 X6.39994 Y9.44339
G01 X6.39463 Y9.44075
G01 X6.39994 Y9.44339
G01 X6.48637 Y9.37890
G01 X6.64474 Y9.20504
G01 X6.67550 Y9.16277
G01 X6.78002 Y8.98172
G01 X6.80128 Y8.93397
G01 X6.87266 Y8.70986
G01 X6.89859 Y8.47611
G01 X6.89996 Y8.15000
G01 X6.87266 Y7.89010
G01 X6.79191 Y7.64156
G01 X6.67550 Y7.43722
G01 X6.64474 Y7.39493
G01 X6.48640 Y7.22107
G01 X6.27497 Y7.06747
G01 X6.03626 Y6.96117
G01 X5.78063 Y6.90684
G01 X5.51932 Y6.90684
G01 X5.26372 Y6.96117
G01 X5.02501 Y7.06747
G01 X4.81358 Y7.22107
G01 X4.63873 Y7.41528
G01 X4.52326 Y7.61251
G01 X4.47881 Y7.87456
G01 X4.46303 Y8.12869
G01 X4.46248 Y8.44967
G01 X4.47396 Y8.67936
G01 X4.48165 Y8.71969
G01 X4.55374 Y8.93806
G01 X4.67919 Y9.15533
G01 X4.84703 Y9.34174
G01 X4.94998 Y9.41789
G01 X4.95526 Y9.41522
G01 X4.94998 Y9.41789
G01 X4.95059 Y10.56566
G01 X4.96166 Y10.67488
G01 X4.97997 Y10.75118
G01 X5.01970 Y10.85350
G01 X5.07495 Y10.94837
G01 X5.15501 Y11.04494
G01 X11.44999 Y17.33992
G01 X11.45380 Y17.33834
G01 X11.44999 Y17.33992
G01 X11.44999 Y20.83758
G01 X11.45545 Y20.84034
G01 X11.44999 Y20.83758
G01 X11.43244 Y20.84896
G01 X11.22949 Y20.99643
G01 X11.19840 Y21.02439
G01 X11.01738 Y21.22708
G01 X10.88055 Y21.46191
G01 X10.86353 Y21.50011
G01 X10.78060 Y21.75891
G01 X10.75111 Y22.02909
G01 X10.75111 Y22.07090
G01 X10.78060 Y22.34105
G01 X10.87105 Y22.61941
G01 X11.01738 Y22.87288
G01 X11.19840 Y23.07557
G01 X11.22949 Y23.10356
G01 X11.43244 Y23.25101
G01 X11.46863 Y23.27191
G01 X11.71738 Y23.38146
G01 X12.00366 Y23.44229
G01 X12.29632 Y23.44229
G01 X12.58260 Y23.38146
G01 X12.84999 Y23.26241
G01 X13.08677 Y23.09038
G01 X13.28260 Y22.87288
G01 X13.42893 Y22.61941
G01 X13.51938 Y22.34105
G01 X13.54887 Y22.07090
G01 X13.54996 Y22.04999
G01 X13.40000 Y22.04999
G01 X13.37267 Y21.79010
G01 X13.29380 Y21.54646
G01 X13.16124 Y21.31525
G01 X12.98639 Y21.12107
G01 X12.77937 Y20.97032
G01 X12.69997 Y20.93377
G01 X12.69997 Y17.04998
G01 X12.69243 Y16.96009
G01 X12.67170 Y16.87632
G01 X12.64168 Y16.80383
G01 X12.59710 Y16.72994
G01 X12.53889 Y16.66105
G01 X6.19996 Y10.32215
G01 X6.19996 Y9.34151
G01 X6.35257 Y9.23028
G01 X6.49945 Y9.06716
G01 X6.60921 Y8.87707
G01 X6.67786 Y8.66313
G01 X6.69999 Y8.45000
G01 X6.69999 Y8.15000
G01 X6.67705 Y7.93168
G01 X6.60921 Y7.72292
G01 X6.49945 Y7.53280
G01 X6.35257 Y7.36968
G01 X6.17499 Y7.24065
G01 X5.97446 Y7.15137
G01 X5.75975 Y7.10575
G01 X5.54022 Y7.10575
G01 X5.32552 Y7.15137
G01 X5.12498 Y7.24065
G01 X4.94741 Y7.36968
G01 X4.79768 Y7.53720
G01 X4.69077 Y7.72292
G01 X4.62430 Y7.92663
G01 X4.59999 Y8.15000
G01 X4.60027 Y8.45520
G01 X4.62293 Y8.66828
G01 X4.69313 Y8.88172
G01 X4.80380 Y9.07123
G01 X4.94741 Y9.23028
G01 X5.09996 Y9.34146
G01 X5.10012 Y10.55390
G01 X5.10751 Y10.63986
G01 X5.12823 Y10.72363
G01 X5.15826 Y10.79612
G01 X5.20283 Y10.87001
G01 X5.26105 Y10.93889
G01 X11.59998 Y17.27779
G01 X11.59998 Y20.93377
G01 X11.52060 Y20.97032
G01 X11.30988 Y21.12475
G01 X11.13871 Y21.31525
G01 X11.00618 Y21.54646
G01 X10.92731 Y21.79010
G01 X10.89998 Y22.04999
G01 X10.92731 Y22.30989
G01 X11.00806 Y22.55840
G01 X11.13871 Y22.78471
G01 X11.30988 Y22.97521
G01 X11.52500 Y23.13252
G01 X11.76371 Y23.23882
G01 X12.01415 Y23.29233
G01 X12.28583 Y23.29233
G01 X12.53625 Y23.23882
G01 X12.77033 Y23.13490
G01 X12.99009 Y22.97521
G01 X13.16124 Y22.78471
G01 X13.29192 Y22.55840
G01 X13.37267 Y22.30989
G01 X13.40000 Y22.04999
G01 X13.44999 Y22.04999
G01 X13.42156 Y22.32028
G01 X13.33759 Y22.57875
G01 X13.20170 Y22.81410
G01 X13.01984 Y23.01608
G01 X12.79997 Y23.17582
G01 X12.55171 Y23.28636
G01 X12.28588 Y23.34285
G01 X12.01410 Y23.34285
G01 X11.74826 Y23.28636
G01 X11.50932 Y23.18057
G01 X11.27272 Y23.00867
G01 X11.09828 Y22.81410
G01 X10.96239 Y22.57875
G01 X10.87839 Y22.32028
G01 X10.85055 Y22.06043
G01 X10.88111 Y21.76960
G01 X10.96239 Y21.52124
G01 X11.09256 Y21.29465
G01 X11.28011 Y21.08390
G01 X11.49121 Y20.92985
G01 X11.54999 Y20.90130
G01 X11.55576 Y20.90435
G01 X11.54999 Y20.90130
G01 X11.54999 Y17.29849
G01 X11.55377 Y17.29692
G01 X11.54999 Y17.29849
G01 X5.22569 Y10.97425
G01 X5.16019 Y10.89612
G01 X5.11208 Y10.81524
G01 X5.07721 Y10.72784
G01 X5.05643 Y10.63605
G01 X5.05028 Y10.55781
G01 X5.04998 Y9.36694
G01 X5.05539 Y9.36419
G01 X5.04998 Y9.36694
G01 X4.91393 Y9.26744
G01 X4.76667 Y9.10468
G01 X4.64985 Y8.90671
G01 X4.57403 Y8.67870
G01 X4.55054 Y8.46044
G01 X4.55000 Y8.15000
G01 X4.57675 Y7.91119
G01 X4.64510 Y7.70258
G01 X4.75437 Y7.51220
G01 X4.91393 Y7.33252
G01 X5.09999 Y7.19737
G01 X5.31007 Y7.10382
G01 X5.53502 Y7.05602
G01 X5.76496 Y7.05602
G01 X5.98990 Y7.10382
G01 X6.19999 Y7.19737
G01 X6.38599 Y7.33252
G01 X6.53329 Y7.49529
G01 X6.65488 Y7.70258
G01 X6.72595 Y7.92129
G01 X6.74997 Y8.15000
G01 X6.74944 Y8.46044
G01 X6.72595 Y8.67870
G01 X6.65013 Y8.90671
G01 X6.53329 Y9.10468
G01 X6.38599 Y9.26744
G01 X6.24995 Y9.36699
G01 X6.24454 Y9.36422
G01 X6.24995 Y9.36699
G01 X6.24995 Y10.30145
G01 X6.24616 Y10.30303
G01 X6.24995 Y10.30145
G01 X12.57424 Y16.62570
G01 X12.63975 Y16.70383
G01 X12.68786 Y16.78470
G01 X12.72273 Y16.87210
G01 X12.74102 Y16.94840
G01 X12.74996 Y17.04998
G01 X12.74996 Y20.90128
G01 X12.74415 Y20.90438
G01 X12.74996 Y20.90128
G01 X12.80876 Y20.92985
G01 X13.01984 Y21.08390
G01 X13.20742 Y21.29465
G01 X13.34135 Y21.53100
G01 X13.42156 Y21.77971
G01 X13.44999 Y22.04999
G01 X13.49997 Y22.04999
G01 X13.49916 Y22.06567
G01 X13.47048 Y22.33066
G01 X13.38326 Y22.59907
G01 X13.24214 Y22.84349
G01 X13.05331 Y23.05322
G01 X12.82497 Y23.21911
G01 X12.56716 Y23.33391
G01 X12.29111 Y23.39259
G01 X12.00887 Y23.39259
G01 X11.73282 Y23.33391
G01 X11.48898 Y23.22624
G01 X11.46183 Y23.21057
G01 X11.25888 Y23.06310
G01 X11.23556 Y23.04212
G01 X11.05781 Y22.84349
G01 X10.91672 Y22.59907
G01 X10.82949 Y22.33066
G01 X10.80082 Y22.06567
G01 X10.80082 Y22.03430
G01 X10.82703 Y21.78482
G01 X10.83356 Y21.75413
G01 X10.91672 Y21.50090
G01 X11.04928 Y21.26966
G01 X11.06769 Y21.24428
G01 X11.24666 Y21.04674
G01 X11.46183 Y20.88942
G01 X11.49998 Y20.86884
G01 X11.50551 Y20.87169
G01 X11.49998 Y20.86884
G01 X11.49998 Y17.31919
G01 X11.50379 Y17.31762
G01 X11.49998 Y17.31919
G01 X5.19036 Y11.00960
G01 X5.11757 Y10.92225
G01 X5.06588 Y10.83437
G01 X5.03585 Y10.76188
G01 X5.01028 Y10.66320
G01 X5.00045 Y10.56175
G01 X4.99996 Y9.39241
G01 X5.00535 Y9.38969
G01 X4.99996 Y9.39241
G01 X4.88048 Y9.30460
G01 X4.72951 Y9.13813
G01 X4.71106 Y9.11276
G01 X4.60654 Y8.93171
G01 X4.59379 Y8.90308
G01 X4.52514 Y8.68909
G01 X4.50083 Y8.46567
G01 X4.49999 Y8.15000
G01 X4.52267 Y7.92640
G01 X4.52920 Y7.89572
G01 X4.59941 Y7.68226
G01 X4.71106 Y7.48721
G01 X4.72951 Y7.46183
G01 X4.88048 Y7.29539
G01 X5.07500 Y7.15406
G01 X5.29463 Y7.05627
G01 X5.52978 Y7.00629
G01 X5.77019 Y7.00629
G01 X6.00535 Y7.05627
G01 X6.22498 Y7.15406
G01 X6.41947 Y7.29539
G01 X6.57047 Y7.46183
G01 X6.58889 Y7.48721
G01 X6.70055 Y7.68226
G01 X6.77484 Y7.91088
G01 X6.79999 Y8.15000
G01 X6.79915 Y8.46567
G01 X6.77484 Y8.68909
G01 X6.70618 Y8.90308
G01 X6.69343 Y8.93171
G01 X6.58889 Y9.11276
G01 X6.57047 Y9.13813
G01 X6.41947 Y9.30460
G01 X6.29996 Y9.39244
G01 X6.29458 Y9.38972
G01 X6.29996 Y9.39244
G01 X6.29996 Y10.28075
G01 X6.29615 Y10.28233
G01 X6.29996 Y10.28075
G01 X12.60958 Y16.59034
G01 X12.66853 Y16.65867
G01 X12.72337 Y16.74459
G01 X12.77132 Y16.86044
G01 X12.79334 Y16.95999
G01 X12.79997 Y17.04998
G01 X12.79997 Y20.86882
G01 X12.79434 Y20.87174
G01 X12.79997 Y20.86882
G01 X12.83815 Y20.88942
G01 X13.05331 Y21.04674
G01 X13.23228 Y21.24428
G01 X13.25067 Y21.26966
G01 X13.38326 Y21.50090
G01 X13.46642 Y21.75413
G01 X13.47292 Y21.78482
G01 X13.49997 Y22.04999
G01 X13.54996 Y22.04999
G01 X13.57879 Y22.02457
G01 X13.54996 Y22.04999
G01 X13.52266 Y21.77959
G01 X13.51397 Y21.73869
G01 X13.42893 Y21.48055
G01 X13.29400 Y21.24466
G01 X13.26942 Y21.21083
G01 X13.08677 Y21.00958
G01 X12.86754 Y20.84896
G01 X12.84999 Y20.83758
G01 X12.84450 Y20.84032
G01 X12.84999 Y20.83758
G01 X12.84996 Y17.04998
G01 X12.83828 Y16.92506
G01 X12.81996 Y16.84876
G01 X12.78024 Y16.74645
G01 X12.72499 Y16.65158
G01 X12.64493 Y16.55501
G01 X6.34995 Y10.26003
G01 X6.34614 Y10.26160
G01 X6.34995 Y10.26003
G01 X6.34995 Y9.41791
G01 X6.34459 Y9.41522
G01 X6.34995 Y9.41791
G01 X6.45292 Y9.34174
G01 X6.60763 Y9.17158
G01 X6.63219 Y9.13778
G01 X6.73671 Y8.95673
G01 X6.75373 Y8.91852
G01 X6.82376 Y8.69947
G01 X6.84997 Y8.45000
G01 X6.84888 Y8.12909
G01 X6.82701 Y7.92117
G01 X6.81833 Y7.88027
G01 X6.74624 Y7.66191
G01 X6.63219 Y7.46222
G01 X6.60763 Y7.42838
G01 X6.46773 Y7.27304
G01 X6.43666 Y7.24505
G01 X6.24997 Y7.11078
G01 X6.04035 Y7.01624
G01 X6.00057 Y7.00331
G01 X5.77543 Y6.95658
G01 X5.54545 Y6.95549
G01 X5.50388 Y6.95985
G01 X5.27916 Y7.00872
G01 X5.06865 Y7.10126
G01 X5.03245 Y7.12216
G01 X4.84703 Y7.25823
G01 X4.69235 Y7.42838
G01 X4.66778 Y7.46222
G01 X4.55374 Y7.66191
G01 X4.48165 Y7.88027
G01 X4.47396 Y7.92058
G04 P0 ( dwell for no time -- G64 should not smooth over this point )
G00 Z0.30000 ( retract )

G00 X2.94038 Y11.09800 ( rapid move to begin. )
G01 F120.00000
( begin pre-milling-gcode )
M7
( end pre-milling-gcode )
( Mill infeed pass 1/1 )
G01 Z-0.05000
G04 P0 ( dwell for no time -- G64 should not smooth over this point )
G01 F680.00000
G01 X2.94038 Y11.09800
G01 X2.94889 Y11.17907
G01 X2.94960 Y11.19302
G01 X2.94683 Y11.19431
G01 X2.94960 Y11.19302
G01 X3.19425 Y11.43767
G01 X3.22829 Y11.48321
G01 X3.26238 Y11.54552
G01 X3.27802 Y11.58349
G01 X3.28539 Y11.61766
G01 X3.28635 Y11.65570
G01 X3.27495 Y11.76398
G01 X3.26169 Y11.79960
G01 X3.24190 Y11.83203
G01 X3.17708 Y11.91397
G01 X3.15092 Y11.93495
G01 X3.12161 Y11.95128
G01 X3.05171 Y11.98159
G01 X2.91584 Y12.01130
G01 X2.73286 Y12.08324
G01 X2.56492 Y12.18552
G01 X2.41640 Y12.31440
G01 X2.29174 Y12.46642
G01 X2.26637 Y12.50686
G01 X2.19626 Y12.57739
G01 X2.16649 Y12.60112
G01 X2.13279 Y12.61875
G01 X2.02672 Y12.64354
G01 X1.98890 Y12.64737
G01 X1.95105 Y12.64397
G01 X1.84846 Y12.60752
G01 X1.79735 Y12.57805
G01 X1.72850 Y12.50394
G01 X1.65616 Y12.39637
G01 X1.52052 Y12.25403
G01 X1.36276 Y12.13665
G01 X1.18748 Y12.04752
G01 X0.99969 Y11.98921
G01 X0.80475 Y11.96337
G01 X0.60825 Y11.97092
G01 X0.41585 Y12.01130
G01 X0.23299 Y12.08352
G01 X0.06495 Y12.18552
G01 X-0.08354 Y12.31438
G01 X-0.20820 Y12.46642
G01 X-0.23358 Y12.50686
G01 X-0.30368 Y12.57739
G01 X-0.33345 Y12.60112
G01 X-0.36716 Y12.61875
G01 X-0.40361 Y12.62969
G01 X-0.51102 Y12.64737
G01 X-0.54887 Y12.64399
G01 X-0.58539 Y12.63350
G01 X-0.65148 Y12.60752
G01 X-0.70267 Y12.57803
G01 X-0.77145 Y12.50394
G01 X-0.84379 Y12.39637
G01 X-0.97942 Y12.25403
G01 X-1.13718 Y12.13665
G01 X-1.31247 Y12.04752
G01 X-1.50028 Y11.98921
G01 X-1.69520 Y11.96337
G01 X-1.89169 Y11.97092
G01 X-2.08410 Y12.01130
G01 X-2.26695 Y12.08352
G01 X-2.43505 Y12.18552
G01 X-2.58354 Y12.31440
G01 X-2.62166 Y12.35763
G01 X-2.70266 Y12.41532
G01 X-2.73594 Y12.43363
G01 X-2.77208 Y12.44534
G01 X-2.88077 Y12.45194
G01 X-2.91871 Y12.44938
G01 X-2.95549 Y12.43965
G01 X-2.98978 Y12.42314
G01 X-3.07553 Y12.36850
G01 X-3.11589 Y12.32243
G01 X-3.20832 Y12.17638
G01 X-3.30124 Y12.08341
G01 X-3.41219 Y12.01504
G01 X-3.53720 Y11.97361
G01 X-3.60977 Y11.96642
G01 X-4.43606 Y11.96647
G01 X-4.49242 Y11.95837
G01 X-4.56054 Y11.93836
G01 X-4.59583 Y11.92423
G01 X-4.62778 Y11.90368
G01 X-4.70179 Y11.82383
G01 X-4.72387 Y11.79284
G01 X-4.73967 Y11.75822
G01 X-4.75872 Y11.65095
G01 X-4.76075 Y11.62073
G01 X-4.75107 Y11.56109
G01 X-4.68737 Y11.43442
G01 X-4.66656 Y11.40996
G01 X-2.84701 Y9.59040
G01 X-2.80736 Y9.55662
G01 X-2.70446 Y9.43376
G01 X-2.67292 Y9.37677
G01 X-2.62578 Y9.31314
G01 X-2.54130 Y9.23564
G01 X-2.41661 Y9.08365
G01 X-2.31932 Y8.91276
G01 X-2.25224 Y8.72792
G01 X-2.21729 Y8.53511
G01 X-2.21648 Y8.12531
G01 X-2.22855 Y7.97903
G01 X-2.27813 Y7.78871
G01 X-2.35887 Y7.60943
G01 X-2.46868 Y7.44631
G01 X-2.60441 Y7.30402
G01 X-2.76217 Y7.18663
G01 X-2.93759 Y7.09767
G01 X-2.97023 Y7.08541
G01 X-3.05415 Y7.03207
G01 X-3.08366 Y7.00811
G01 X-3.10812 Y6.97901
G01 X-3.12664 Y6.94578
G01 X-3.16702 Y6.84461
G01 X-3.17185 Y6.80690
G01 X-3.15824 Y6.69882
G01 X-3.14871 Y6.66204
G01 X-3.13238 Y6.62770
G01 X-3.10985 Y6.59709
G01 X-3.03505 Y6.51868
G01 X-3.00327 Y6.49877
G01 X-2.90187 Y6.46615
G01 X-2.84698 Y6.45848
G01 X1.81508 Y6.45848
G01 X1.87147 Y6.46661
G01 X1.93957 Y6.48663
G01 X1.97482 Y6.50075
G01 X2.00678 Y6.52127
G01 X2.08079 Y6.60110
G01 X2.10284 Y6.63209
G01 X2.11866 Y6.66669
G01 X2.13774 Y6.77395
G01 X2.13954 Y6.81192
G01 X2.13413 Y6.84957
G01 X2.12169 Y6.88548
G01 X2.07775 Y6.97634
G01 X2.03789 Y7.02097
G01 X1.94775 Y7.09567
G01 X1.86154 Y7.20242
G01 X1.80114 Y7.32406
G01 X1.76723 Y7.45973
G01 X1.76723 Y9.14022
G01 X1.80114 Y9.27588
G01 X1.86154 Y9.39752
G01 X1.94661 Y9.50336
G01 X2.05245 Y9.58840
G01 X2.18501 Y9.65617
G01 X2.25943 Y9.72221
G01 X2.28412 Y9.74969
G01 X2.30332 Y9.78126
G01 X2.31640 Y9.81580
G01 X2.33967 Y9.90684
G01 X2.34147 Y10.18814
G01 X2.33746 Y10.24004
G01 X2.35080 Y10.39955
G01 X2.39565 Y10.55167
G01 X2.42326 Y10.60496
G01 X2.41833 Y10.61057
G01 X2.42326 Y10.60496
G01 X2.50490 Y10.62182
G01 X2.65463 Y10.74420
G01 X2.61099 Y10.71656
G01 X2.51993 Y10.67692
G01 X2.40772 Y10.65304
G01 X2.39144 Y10.65218
G01 X2.38811 Y10.65665
G01 X2.39144 Y10.65218
G01 X2.34902 Y10.57034
G01 X2.30203 Y10.40867
G01 X2.28727 Y10.23986
G01 X2.29149 Y10.18814
G01 X2.29011 Y9.91354
G01 X2.25839 Y9.80321
G01 X2.24399 Y9.77953
G01 X2.22547 Y9.75891
G01 X2.15664 Y9.69734
G01 X2.02537 Y9.63077
G01 X1.91105 Y9.53892
G01 X1.81917 Y9.42462
G01 X1.75395 Y9.29322
G01 X1.71765 Y9.14801
G01 X1.71765 Y7.45193
G01 X1.75395 Y7.30672
G01 X1.81917 Y7.17535
G01 X1.91196 Y7.06039
G01 X2.02220 Y6.96686
G01 X2.04673 Y6.92930
G01 X2.08554 Y6.83778
G01 X2.08961 Y6.80954
G01 X2.08824 Y6.78106
G01 X2.07142 Y6.68304
G01 X2.05956 Y6.65711
G01 X2.04300 Y6.63387
G01 X1.97587 Y6.56057
G01 X1.95191 Y6.54517
G01 X1.92547 Y6.53458
G01 X1.85737 Y6.51457
G01 X1.81508 Y6.50847
G01 X-2.86776 Y6.50992
G01 X-2.98082 Y6.54345
G01 X-3.00464 Y6.55836
G01 X-3.02527 Y6.57748
G01 X-3.07259 Y6.63042
G01 X-3.08948 Y6.65338
G01 X-3.10172 Y6.67911
G01 X-3.10888 Y6.70672
G01 X-3.12009 Y6.77682
G01 X-3.12189 Y6.80530
G01 X-3.11826 Y6.83359
G01 X-3.10934 Y6.86069
G01 X-3.06697 Y6.95063
G01 X-3.04861 Y6.97245
G01 X-3.02649 Y6.99044
G01 X-2.94876 Y7.04024
G01 X-2.91869 Y7.05119
G01 X-2.73576 Y7.14403
G01 X-2.57117 Y7.26646
G01 X-2.42959 Y7.41487
G01 X-2.31503 Y7.58502
G01 X-2.23081 Y7.77204
G01 X-2.17909 Y7.97057
G01 X-2.16647 Y8.12325
G01 X-2.16731 Y8.53966
G01 X-2.20378 Y8.74100
G01 X-2.27378 Y8.93381
G01 X-2.37526 Y9.11207
G01 X-2.50533 Y9.27064
G01 X-2.58669 Y9.34433
G01 X-2.62918 Y9.40097
G01 X-2.66304 Y9.46221
G01 X-2.77198 Y9.59223
G01 X-2.81165 Y9.62576
G01 X-4.64680 Y11.46365
G01 X-4.70350 Y11.57646
G01 X-4.70883 Y11.59855
G01 X-4.70924 Y11.64384
G01 X-4.69915 Y11.71412
G01 X-4.69242 Y11.74186
G01 X-4.68056 Y11.76782
G01 X-4.66400 Y11.79109
G01 X-4.59687 Y11.86439
G01 X-4.57291 Y11.87978
G01 X-4.54645 Y11.89037
G01 X-4.47832 Y11.91039
G01 X-4.43606 Y11.91649
G01 X-3.60723 Y11.91641
G01 X-3.52666 Y11.92444
G01 X-3.39090 Y11.96942
G01 X-3.27005 Y12.04392
G01 X-3.16906 Y12.14488
G01 X-3.07368 Y12.29563
G01 X-3.04340 Y12.33020
G01 X-2.93820 Y12.39274
G01 X-2.91061 Y12.40003
G01 X-2.88214 Y12.40196
G01 X-2.78287 Y12.39652
G01 X-2.75577 Y12.38776
G01 X-2.73080 Y12.37402
G01 X-2.65539 Y12.32075
G01 X-2.61950 Y12.27943
G01 X-2.46461 Y12.14498
G01 X-2.28925 Y12.03858
G01 X-2.09850 Y11.96325
G01 X-1.89779 Y11.92113
G01 X-1.69283 Y11.91326
G01 X-1.48948 Y11.94021
G01 X-1.29360 Y12.00104
G01 X-1.11074 Y12.09401
G01 X-0.94618 Y12.21646
G01 X-0.80467 Y12.36492
G01 X-0.72997 Y12.47602
G01 X-0.67158 Y12.53886
G01 X-0.63320 Y12.56099
G01 X-0.56711 Y12.58697
G01 X-0.53972 Y12.59484
G01 X-0.51133 Y12.59738
G01 X-0.41336 Y12.58065
G01 X-0.38603 Y12.57244
G01 X-0.36073 Y12.55921
G01 X-0.27305 Y12.47620
G01 X-0.24955 Y12.43800
G01 X-0.11951 Y12.27940
G01 X0.03538 Y12.14498
G01 X0.21069 Y12.03858
G01 X0.40145 Y11.96325
G01 X0.60216 Y11.92113
G01 X0.80714 Y11.91326
G01 X1.01046 Y11.94021
G01 X1.20635 Y12.00104
G01 X1.38920 Y12.09401
G01 X1.55377 Y12.21646
G01 X1.69527 Y12.36492
G01 X1.76997 Y12.47602
G01 X1.82842 Y12.53889
G01 X1.86675 Y12.56099
G01 X1.93281 Y12.58697
G01 X1.96022 Y12.59484
G01 X1.98862 Y12.59738
G01 X2.01696 Y12.59449
G01 X2.11391 Y12.57244
G01 X2.13921 Y12.55921
G01 X2.16154 Y12.54143
G01 X2.22689 Y12.47620
G01 X2.25039 Y12.43800
G01 X2.38044 Y12.27940
G01 X2.53535 Y12.14498
G01 X2.71056 Y12.03833
G01 X2.90144 Y11.96325
G01 X3.03619 Y11.93406
G01 X3.10101 Y11.90574
G01 X3.14261 Y11.87773
G01 X3.20187 Y11.80208
G01 X3.21671 Y11.77775
G01 X3.22666 Y11.75103
G01 X3.23139 Y11.72294
G01 X3.23647 Y11.65212
G01 X3.23581 Y11.62360
G01 X3.22969 Y11.59571
G01 X3.21846 Y11.56950
G01 X3.18447 Y11.50719
G01 X3.15890 Y11.47303
G01 X2.89928 Y11.21339
G01 X2.89649 Y11.21466
G01 X2.89928 Y11.21339
G01 X2.89916 Y11.18431
G01 X2.88389 Y11.07046
G01 X2.85242 Y10.97628
G01 X2.80497 Y10.89353
G01 X2.85552 Y10.95939
G01 X2.92174 Y11.06363
G01 X2.98153 Y11.18377
G01 X3.21432 Y11.41636
G01 X3.30243 Y11.52558
G01 X3.32580 Y11.56899
G01 X3.33510 Y11.61174
G01 X3.33621 Y11.65929
G01 X3.33113 Y11.73010
G01 X3.32326 Y11.77694
G01 X3.30665 Y11.82144
G01 X3.28188 Y11.86200
G01 X3.23939 Y11.91885
G01 X3.21153 Y11.95019
G01 X3.17792 Y11.97694
G01 X3.03649 Y12.01826
G01 X2.92705 Y12.04138
G01 X2.87381 Y12.06040
G01 X2.74925 Y12.11270
G01 X2.70949 Y12.13340
G01 X2.58572 Y12.21222
G01 X2.51488 Y12.26843
G01 X2.43931 Y12.33881
G01 X2.35293 Y12.43937
G01 X2.31823 Y12.48453
G01 X2.27010 Y12.55791
G01 X2.21927 Y12.62268
G01 X2.19377 Y12.64300
G01 X2.15163 Y12.66505
G01 X2.10609 Y12.67871
G01 X2.03647 Y12.69256
G01 X1.98920 Y12.69736
G01 X1.94188 Y12.69312
G01 X1.89621 Y12.68001
G01 X1.79685 Y12.63800
G01 X1.78399 Y12.62926
G01 X1.74856 Y12.58639
G01 X1.63065 Y12.41732
G01 X1.52720 Y12.30508
G01 X1.49809 Y12.27663
G01 X1.34572 Y12.16388
G01 X1.17615 Y12.07933
G01 X1.07328 Y12.04311
G01 X0.99334 Y12.02261
G01 X0.89604 Y12.00577
G01 X0.80157 Y11.99645
G01 X0.61359 Y12.00231
G01 X0.42700 Y12.04138
G01 X0.24925 Y12.11270
G01 X0.20950 Y12.13340
G01 X0.08402 Y12.21344
G01 X0.01488 Y12.26843
G01 X-0.05921 Y12.33724
G01 X-0.14704 Y12.43937
G01 X-0.18054 Y12.48283
G01 X-0.22984 Y12.55791
G01 X-0.28067 Y12.62268
G01 X-0.30617 Y12.64300
G01 X-0.34831 Y12.66505
G01 X-0.39385 Y12.67871
G01 X-0.46347 Y12.69256
G01 X-0.51074 Y12.69736
G01 X-0.55804 Y12.69314
G01 X-0.60371 Y12.68004
G01 X-0.66980 Y12.65405
G01 X-0.71595 Y12.62929
G01 X-0.77470 Y12.55492
G01 X-0.86921 Y12.41727
G01 X-0.97348 Y12.30457
G01 X-1.00185 Y12.27663
G01 X-1.15423 Y12.16388
G01 X-1.32573 Y12.07849
G01 X-1.42667 Y12.04311
G01 X-1.50663 Y12.02261
G01 X-1.60520 Y12.00556
G01 X-1.69629 Y11.99647
G01 X-1.83929 Y11.99932
G01 X-1.88979 Y12.00249
G01 X-2.07622 Y12.04232
G01 X-2.25262 Y12.11362
G01 X-2.33746 Y12.16119
G01 X-2.41424 Y12.21222
G01 X-2.52499 Y12.30373
G01 X-2.62664 Y12.40767
G01 X-2.68778 Y12.46393
G01 X-2.71610 Y12.47953
G01 X-2.76128 Y12.49416
G01 X-2.80840 Y12.49995
G01 X-2.87937 Y12.50191
G01 X-2.92682 Y12.49870
G01 X-2.97282 Y12.48656
G01 X-3.01567 Y12.46591
G01 X-3.07642 Y12.42916
G01 X-3.11803 Y12.39667
G01 X-3.17835 Y12.28222
G01 X-3.23408 Y12.19457
G01 X-3.32024 Y12.10899
G01 X-3.42717 Y12.04318
G01 X-3.51185 Y12.01400
G01 X-3.54536 Y12.00503
G01 X-3.61061 Y11.99622
G01 X-4.43517 Y11.99617
G01 X-4.57497 Y11.98128
G01 X-4.62016 Y11.96774
G01 X-4.65866 Y11.94298
G01 X-4.69306 Y11.91021
G01 X-4.73956 Y11.85657
G01 X-4.76715 Y11.81783
G01 X-4.78691 Y11.77455
G01 X-4.79811 Y11.72832
G01 X-4.81073 Y11.62027
G01 X-4.80751 Y11.58255
G01 X-4.79864 Y11.54572
G01 X-4.78422 Y11.51301
G01 X-4.73880 Y11.45004
G01 X-4.68653 Y11.38855
G01 X-2.82214 Y9.52624
G01 X-2.73134 Y9.41758
G01 X-2.66441 Y9.30537
G01 X-2.56428 Y9.21113
G01 X-2.44300 Y9.06562
G01 X-2.34744 Y8.89810
G01 X-2.28468 Y8.72091
G01 X-2.26560 Y8.63316
G01 X-2.25092 Y8.53112
G01 X-2.24612 Y8.42500
G01 X-2.24648 Y8.14771
G01 X-2.26423 Y7.96701
G01 X-2.31028 Y7.79922
G01 X-2.35521 Y7.69031
G01 X-2.38915 Y7.62483
G01 X-2.44612 Y7.53361
G01 X-2.49563 Y7.46572
G01 X-2.62412 Y7.32869
G01 X-2.78719 Y7.20921
G01 X-2.94884 Y7.12930
G01 X-3.09570 Y7.06244
G01 X-3.11871 Y7.04375
G01 X-3.14930 Y7.00738
G01 X-3.17241 Y6.96585
G01 X-3.20091 Y6.90082
G01 X-3.21577 Y6.85566
G01 X-3.22181 Y6.80850
G01 X-3.21881 Y6.76105
G01 X-3.20761 Y6.69094
G01 X-3.19570 Y6.64494
G01 X-3.17528 Y6.60204
G01 X-3.14714 Y6.56374
G01 X-3.09982 Y6.51083
G01 X-3.06545 Y6.47898
G01 X-3.02572 Y6.45409
G01 X-2.98206 Y6.43707
G01 X-2.91559 Y6.41810
G01 X-2.84698 Y6.40850
G01 X1.81508 Y6.40850
G01 X1.88557 Y6.41861
G01 X1.95367 Y6.43865
G01 X1.99774 Y6.45630
G01 X2.03769 Y6.48195
G01 X2.07206 Y6.51474
G01 X2.11856 Y6.56839
G01 X2.14615 Y6.60710
G01 X2.16591 Y6.65033
G01 X2.17711 Y6.69653
G01 X2.18722 Y6.76681
G01 X2.18948 Y6.81431
G01 X2.18272 Y6.86135
G01 X2.16718 Y6.90626
G01 X2.12855 Y6.98744
G01 X1.97068 Y7.11728
G01 X1.88879 Y7.21893
G01 X1.83142 Y7.33428
G01 X1.79916 Y7.46427
G01 X1.79573 Y7.54050
G01 X1.79573 Y9.05944
G01 X1.80269 Y9.15698
G01 X1.83083 Y9.26300
G01 X1.85925 Y9.32675
G01 X1.89306 Y9.38672
G01 X1.96756 Y9.47953
G01 X2.07117 Y9.56274
G01 X2.26365 Y9.65802
G01 X2.32423 Y9.71987
G01 X2.34511 Y9.75413
G01 X2.35737 Y9.80247
G01 X2.37071 Y9.93455
G01 X2.36885 Y10.24133
G01 X2.37678 Y10.35035
G01 X2.38290 Y10.39541
G01 X2.40276 Y10.47029
G01 X2.42562 Y10.54115
G01 X2.43937 Y10.56914
G01 X2.60927 Y10.70526
G01 X2.70083 Y10.78372
G01 X2.80497 Y10.89353
G01 X2.85552 Y10.95939
G01 X2.94038 Y11.09800
G01 X3.33045 Y11.65885
G01 X3.13675 Y11.64496
G01 X3.13167 Y11.71578
G01 X3.12677 Y11.73406
G01 X3.06718 Y11.81054
G01 X3.00515 Y11.83902
G01 X2.87259 Y11.86713
G01 X2.66606 Y11.94869
G01 X2.47625 Y12.06391
G01 X2.30850 Y12.20945
G01 X2.16771 Y12.38115
G01 X2.14790 Y12.41488
G01 X2.09207 Y12.46952
G01 X2.06708 Y12.48258
G01 X1.98801 Y12.49738
G01 X1.96941 Y12.49390
G01 X1.89057 Y12.46058
G01 X1.85293 Y12.42019
G01 X1.77343 Y12.30208
G01 X1.62009 Y12.14143
G01 X1.44198 Y12.00889
G01 X1.24404 Y11.90823
G01 X1.03198 Y11.84237
G01 X0.81181 Y11.81321
G01 X0.58991 Y11.82152
G01 X0.37259 Y11.86713
G01 X0.16607 Y11.94869
G01 X-0.02372 Y12.06391
G01 X-0.19144 Y12.20945
G01 X-0.33223 Y12.38115
G01 X-0.35204 Y12.41488
G01 X-0.40787 Y12.46952
G01 X-0.43287 Y12.48258
G01 X-0.51194 Y12.49738
G01 X-0.53053 Y12.49390
G01 X-0.60940 Y12.46055
G01 X-0.64701 Y12.42019
G01 X-0.72652 Y12.30208
G01 X-0.87981 Y12.14143
G01 X-1.05796 Y12.00889
G01 X-1.25590 Y11.90823
G01 X-1.46799 Y11.84237
G01 X-1.68813 Y11.81321
G01 X-1.91003 Y11.82152
G01 X-2.12735 Y11.86713
G01 X-2.33388 Y11.94869
G01 X-2.52372 Y12.06391
G01 X-2.69143 Y12.20945
G01 X-2.72291 Y12.24699
G01 X-2.78714 Y12.29139
G01 X-2.81391 Y12.30005
G01 X-2.88488 Y12.30201
G01 X-2.91214 Y12.29482
G01 X-2.98463 Y12.24821
G01 X-3.09075 Y12.08209
G01 X-3.20782 Y11.96518
G01 X-3.34851 Y11.87849
G01 X-3.50563 Y11.82637
G01 X-3.60213 Y11.81649
G01 X-4.44317 Y11.81598
G01 X-4.51825 Y11.79444
G01 X-4.53507 Y11.78578
G01 X-4.58846 Y11.72558
G01 X-4.60017 Y11.69993
G01 X-4.61013 Y11.61453
G01 X-4.56049 Y11.51603
G01 X-2.74094 Y9.69648
G01 X-2.70132 Y9.66338
G01 X-2.58023 Y9.51906
G01 X-2.54168 Y9.44936
G01 X-2.50855 Y9.40671
G01 X-2.43350 Y9.34052
G01 X-2.29271 Y9.16882
G01 X-2.18285 Y8.97583
G01 X-2.10708 Y8.76709
G01 X-2.06761 Y8.54873
G01 X-2.06647 Y8.11914
G01 X-2.08051 Y7.95371
G01 X-2.13632 Y7.73877
G01 X-2.22750 Y7.53631
G01 X-2.35151 Y7.35208
G01 X-2.50480 Y7.19143
G01 X-2.68298 Y7.05889
G01 X-2.88092 Y6.95823
G01 X-2.90581 Y6.94995
G01 X-2.97114 Y6.90715
G01 X-2.98463 Y6.89389
G01 X-3.01775 Y6.82056
G01 X-3.02133 Y6.79260
G01 X-3.01013 Y6.72249
G01 X-3.00368 Y6.70471
G01 X-2.94383 Y6.63773
G01 X-2.92717 Y6.62935
G01 X-2.84698 Y6.60847
G01 X1.81508 Y6.60847
G01 X1.89728 Y6.63052
G01 X1.92095 Y6.64573
G01 X1.96746 Y6.69938
G01 X1.97693 Y6.71576
G01 X1.98973 Y6.80479
G01 X1.98526 Y6.82318
G01 X1.94760 Y6.90027
G01 X1.84038 Y6.98985
G01 X1.73469 Y7.12130
G01 X1.65984 Y7.27207
G01 X1.61887 Y7.43638
G01 X1.61887 Y9.16356
G01 X1.65984 Y9.32787
G01 X1.73469 Y9.47864
G01 X1.84015 Y9.60981
G01 X1.97132 Y9.71527
G01 X2.09989 Y9.77966
G01 X2.15758 Y9.83231
G01 X2.16855 Y9.84707
G01 X2.19149 Y9.93371
G01 X2.19149 Y10.18814
G01 X2.18686 Y10.23953
G01 X2.20327 Y10.42716
G01 X2.25572 Y10.60765
G01 X2.33053 Y10.75200
G01 X2.39710 Y10.75245
G01 X2.48905 Y10.77201
G01 X2.57498 Y10.81027
G01 X2.65481 Y10.86927
G01 X2.71404 Y10.93549
G01 X2.76296 Y11.02185
G01 X2.79098 Y11.11159
G01 X2.79999 Y11.19998
G01 X2.79497 Y11.25047
G01 X3.09286 Y11.54913
G01 X3.13075 Y11.61743
G01 X3.13675 Y11.64496
G01 X3.18661 Y11.64854
G01 X3.18153 Y11.71936
G01 X3.17175 Y11.75591
G01 X3.11930 Y11.82896
G01 X3.09509 Y11.85202
G01 X3.02067 Y11.88654
G01 X2.88701 Y11.91519
G01 X2.68836 Y11.99363
G01 X2.50579 Y12.10445
G01 X2.34447 Y12.24443
G01 X2.20904 Y12.40958
G01 X2.18740 Y12.44554
G01 X2.12679 Y12.50546
G01 X2.09507 Y12.52614
G01 X2.00721 Y12.54547
G01 X1.96939 Y12.54569
G01 X1.95113 Y12.54044
G01 X1.88506 Y12.51445
G01 X1.85951 Y12.49972
G01 X1.81145 Y12.44811
G01 X1.73439 Y12.33348
G01 X1.58702 Y12.17887
G01 X1.41564 Y12.05136
G01 X1.22525 Y11.95456
G01 X1.02126 Y11.89119
G01 X0.80950 Y11.86315
G01 X0.59604 Y11.87132
G01 X0.38702 Y11.91519
G01 X0.18837 Y11.99363
G01 X0.00582 Y12.10445
G01 X-0.15547 Y12.24443
G01 X-0.29091 Y12.40958
G01 X-0.31255 Y12.44554
G01 X-0.38804 Y12.51732
G01 X-0.42311 Y12.53162
G01 X-0.51163 Y12.54737
G01 X-0.54882 Y12.54044
G01 X-0.61491 Y12.51445
G01 X-0.64049 Y12.49972
G01 X-0.68849 Y12.44811
G01 X-0.76548 Y12.33343
G01 X-0.91293 Y12.17887
G01 X-1.08430 Y12.05136
G01 X-1.27470 Y11.95456
G01 X-1.47871 Y11.89119
G01 X-1.69047 Y11.86315
G01 X-1.90391 Y11.87132
G01 X-2.11292 Y11.91519
G01 X-2.31158 Y11.99363
G01 X-2.49418 Y12.10445
G01 X-2.65547 Y12.24443
G01 X-2.68915 Y12.28387
G01 X-2.75897 Y12.33269
G01 X-2.79370 Y12.34770
G01 X-2.90248 Y12.35070
G01 X-2.93802 Y12.33759
G01 X-3.01127 Y12.29190
G01 X-3.03146 Y12.26886
G01 X-3.12979 Y12.11341
G01 X-3.23880 Y12.00440
G01 X-3.36964 Y11.92380
G01 X-3.51612 Y11.87524
G01 X-3.60467 Y11.86642
G01 X-4.43606 Y11.86647
G01 X-4.46423 Y11.86243
G01 X-4.55000 Y11.83536
G01 X-4.57972 Y11.81197
G01 X-4.62623 Y11.75832
G01 X-4.64518 Y11.72553
G01 X-4.66075 Y11.62164
G01 X-4.65018 Y11.57780
G01 X-4.61457 Y11.50663
G01 X-4.59585 Y11.48067
G01 X-2.77630 Y9.66112
G01 X-2.73660 Y9.62784
G01 X-2.62164 Y9.49063
G01 X-2.58544 Y9.42515
G01 X-2.54762 Y9.37552
G01 X-2.46934 Y9.30565
G01 X-2.33390 Y9.14049
G01 X-2.22824 Y8.95485
G01 X-2.15534 Y8.75406
G01 X-2.11739 Y8.54420
G01 X-2.11643 Y8.12119
G01 X-2.12979 Y7.96214
G01 X-2.18346 Y7.75538
G01 X-2.27119 Y7.56061
G01 X-2.39047 Y7.38342
G01 X-2.53794 Y7.22887
G01 X-2.70929 Y7.10133
G01 X-2.89982 Y7.00471
G01 X-2.92730 Y6.99511
G01 X-2.99880 Y6.94878
G01 X-3.02580 Y6.92226
G01 X-3.06949 Y6.82254
G01 X-3.07071 Y6.78470
G01 X-3.05951 Y6.71459
G01 X-3.04658 Y6.67903
G01 X-2.97424 Y6.59806
G01 X-2.94089 Y6.58129
G01 X-2.87442 Y6.56232
G01 X-2.84698 Y6.55848
G01 X1.81508 Y6.55848
G01 X1.84328 Y6.56252
G01 X1.92900 Y6.58960
G01 X1.95872 Y6.61297
G01 X2.00523 Y6.66664
G01 X2.02418 Y6.69940
G01 X2.03876 Y6.78818
G01 X2.03967 Y6.80717
G01 X2.03073 Y6.84395
G01 X2.00124 Y6.90852
G01 X1.98491 Y6.93357
G01 X1.87617 Y7.02513
G01 X1.77681 Y7.14825
G01 X1.70675 Y7.28934
G01 X1.66807 Y7.44413
G01 X1.66647 Y9.12673
G01 X1.66807 Y9.15581
G01 X1.70675 Y9.31060
G01 X1.77681 Y9.45170
G01 X1.87549 Y9.57448
G01 X1.99827 Y9.67313
G01 X2.12827 Y9.73849
G01 X2.19154 Y9.79561
G01 X2.21348 Y9.82515
G01 X2.23787 Y9.90709
G01 X2.24147 Y9.93371
G01 X2.24147 Y10.18814
G01 X2.23705 Y10.23971
G01 X2.25265 Y10.41791
G01 X2.30236 Y10.58898
G01 X2.36098 Y10.70209
G01 X2.35745 Y10.70699
G01 X2.36098 Y10.70209
G01 X2.40241 Y10.70275
G01 X2.50449 Y10.72446
G01 X2.59999 Y10.76698
G01 X2.68455 Y10.82843
G01 X2.75450 Y10.90610
G01 X2.80675 Y10.99663
G01 X2.83906 Y11.09604
G01 X2.84998 Y11.19998
G01 X2.84716 Y11.23198
G01 X2.84414 Y11.23338
G01 X2.84716 Y11.23198
G01 X3.13289 Y11.51915
G01 X3.18211 Y11.61095
G01 X3.18661 Y11.64854
G01 X3.33621 Y11.65929
G01 X3.33045 Y11.65885
G01 X4.15102 Y12.83886
G01 X4.17921 Y12.92746
G01 X4.19999 Y13.12497
G01 X4.17921 Y12.92746
G01 X4.11785 Y12.73858
G01 X4.01856 Y12.56660
G01 X3.89306 Y12.42642
G01 X3.71566 Y12.29751
G01 X3.54355 Y12.22149
G01 X3.33883 Y12.17966
G01 X3.15069 Y12.18019
G01 X2.95643 Y12.22149
G01 X2.77500 Y12.30226
G01 X2.61432 Y12.41900
G01 X2.48143 Y12.56660
G01 X2.38211 Y12.73858
G01 X2.32075 Y12.92746
G01 X2.30053 Y13.11453
G01 X2.30000 Y13.37498
G01 X2.31912 Y13.56215
G01 X2.38686 Y13.77071
G01 X2.48143 Y13.93337
G01 X2.61432 Y14.08097
G01 X2.77500 Y14.19771
G01 X2.94665 Y14.27472
G01 X2.95803 Y14.27081
G01 X2.94998 Y14.27602
G01 X2.94998 Y23.87920
G01 X2.95951 Y23.88608
G01 X2.94998 Y23.87920
G01 X2.88206 Y23.89586
G01 X2.82499 Y23.92187
G01 X2.76581 Y23.96490
G01 X2.71683 Y24.01926
G01 X2.68501 Y24.07331
G01 X2.65765 Y24.15222
G01 X2.64998 Y24.22500
G01 X2.64998 Y25.47498
G01 X2.65765 Y25.54775
G01 X2.68026 Y25.61732
G01 X2.71683 Y25.68072
G01 X2.75839 Y25.72769
G01 X2.83431 Y25.78283
G01 X2.89184 Y25.80785
G01 X2.96862 Y25.82347
G01 X3.69999 Y25.82499
G01 X3.74691 Y25.82141
G01 X3.80815 Y25.80785
G01 X3.87497 Y25.77810
G01 X3.92605 Y25.74168
G01 X3.98315 Y25.68072
G01 X4.02349 Y25.60757
G01 X4.04233 Y25.54775
G01 X4.04945 Y25.48542
G01 X4.04998 Y24.22500
G01 X4.04233 Y24.15222
G01 X4.01973 Y24.08263
G01 X3.98315 Y24.01926
G01 X3.93418 Y23.96490
G01 X3.88376 Y23.92759
G01 X3.80815 Y23.89213
G01 X3.74691 Y23.87854
G01 X3.64998 Y23.87577
G01 X3.63692 Y23.88768
G01 X3.64998 Y23.87577
G01 X3.64998 Y14.23170
G01 X3.64200 Y14.22657
G01 X3.64998 Y14.23170
G01 X3.72499 Y14.19771
G01 X3.88567 Y14.08097
G01 X4.01856 Y13.93337
G01 X4.11785 Y13.76139
G01 X4.18087 Y13.56215
G01 X4.19999 Y13.37498
G01 X4.19999 Y13.12497
G01 X4.14998 Y13.12497
G01 X4.14998 Y13.37498
G01 X4.13113 Y13.55695
G01 X4.06979 Y13.74572
G01 X3.97810 Y13.90399
G01 X3.85221 Y14.04381
G01 X3.69999 Y14.15440
G01 X3.59999 Y14.19923
G01 X3.59999 Y23.92538
G01 X3.73154 Y23.92665
G01 X3.79270 Y23.93968
G01 X3.84998 Y23.96518
G01 X3.90073 Y24.00203
G01 X3.94269 Y24.04864
G01 X3.97406 Y24.10297
G01 X3.99344 Y24.16261
G01 X3.99999 Y24.22500
G01 X3.99971 Y25.48021
G01 X3.99344 Y25.53736
G01 X3.97594 Y25.59210
G01 X3.94269 Y25.65133
G01 X3.90073 Y25.69794
G01 X3.85437 Y25.73195
G01 X3.79270 Y25.76027
G01 X3.73652 Y25.77252
G01 X3.69999 Y25.77498
G01 X2.99999 Y25.77498
G01 X2.96347 Y25.77252
G01 X2.90241 Y25.75842
G01 X2.84998 Y25.73480
G01 X2.79926 Y25.69794
G01 X2.75727 Y25.65133
G01 X2.72593 Y25.59700
G01 X2.70655 Y25.53736
G01 X2.69999 Y25.47498
G01 X2.69999 Y24.22500
G01 X2.70655 Y24.16261
G01 X2.72829 Y24.09830
G01 X2.75727 Y24.04864
G01 X2.79926 Y24.00203
G01 X2.84998 Y23.96518
G01 X2.90728 Y23.93968
G01 X2.96347 Y23.92746
G01 X2.99997 Y23.92589
G01 X2.99997 Y14.23718
G01 X2.96697 Y14.22905
G01 X2.79560 Y14.15156
G01 X2.64777 Y14.04381
G01 X2.51902 Y13.89962
G01 X2.42781 Y13.74104
G01 X2.36964 Y13.56210
G01 X2.34998 Y13.37498
G01 X2.35026 Y13.11976
G01 X2.36964 Y12.93785
G01 X2.42781 Y12.75893
G01 X2.52186 Y12.59599
G01 X2.64777 Y12.45616
G01 X2.79999 Y12.34557
G01 X2.97188 Y12.26904
G01 X3.15590 Y12.22992
G01 X3.33883 Y12.22964
G01 X3.53299 Y12.27092
G01 X3.69999 Y12.34557
G01 X3.85221 Y12.45616
G01 X3.97810 Y12.59599
G01 X4.07218 Y12.75893
G01 X4.13032 Y12.93785
G01 X4.14998 Y13.12497
G01 X4.24998 Y13.12497
G01 X4.22813 Y12.91707
G01 X4.16352 Y12.71826
G01 X4.05900 Y12.53721
G01 X3.93022 Y12.39294
G01 X3.90690 Y12.37196
G01 X3.74998 Y12.25898
G01 X3.57365 Y12.17955
G01 X3.54383 Y12.16988
G01 X3.37002 Y12.13292
G01 X3.33883 Y12.12964
G01 X3.14546 Y12.13048
G01 X2.94096 Y12.17394
G01 X2.74998 Y12.25898
G01 X2.58087 Y12.38184
G01 X2.44099 Y12.53721
G01 X2.33644 Y12.71826
G01 X2.27185 Y12.91707
G01 X2.25082 Y13.10932
G01 X2.25001 Y13.37498
G01 X2.26939 Y13.56738
G01 X2.27592 Y13.59807
G01 X2.33083 Y13.76705
G01 X2.34358 Y13.79571
G01 X2.44099 Y13.96276
G01 X2.58087 Y14.11813
G01 X2.74998 Y14.24099
G01 X2.89999 Y14.30868
G01 X2.90800 Y14.30353
G01 X2.89999 Y14.30868
G01 X2.89999 Y23.83871
G01 X2.90860 Y23.84455
G01 X2.89999 Y23.83871
G01 X2.87637 Y23.84458
G01 X2.81399 Y23.87145
G01 X2.73235 Y23.92774
G01 X2.67640 Y23.98987
G01 X2.64170 Y24.04831
G01 X2.60873 Y24.14184
G01 X2.59999 Y24.22500
G01 X2.59999 Y25.47498
G01 X2.60873 Y25.55814
G01 X2.63459 Y25.63767
G01 X2.67640 Y25.71008
G01 X2.72123 Y25.76114
G01 X2.74455 Y25.78212
G01 X2.81399 Y25.82852
G01 X2.87637 Y25.85540
G01 X2.96601 Y25.87338
G01 X3.69999 Y25.87495
G01 X3.75729 Y25.87031
G01 X3.82359 Y25.85540
G01 X3.89999 Y25.82139
G01 X3.95544 Y25.78212
G01 X4.02359 Y25.71008
G01 X4.07101 Y25.62301
G01 X4.09123 Y25.55814
G01 X4.09915 Y25.49068
G01 X4.09997 Y24.22500
G01 X4.09123 Y24.14184
G01 X4.06540 Y24.06231
G01 X4.03215 Y24.00305
G01 X4.01371 Y23.97768
G01 X3.95544 Y23.91786
G01 X3.89999 Y23.87859
G01 X3.82359 Y23.84458
G01 X3.72730 Y23.82637
G01 X3.69997 Y23.82617
G01 X3.68785 Y23.83660
G01 X3.69997 Y23.82617
G01 X3.69997 Y14.26416
G01 X3.69405 Y14.26101
G01 X3.69997 Y14.26416
G01 X3.76314 Y14.23246
G01 X3.90690 Y14.12801
G01 X3.93022 Y14.10703
G01 X4.05900 Y13.96276
G01 X4.15641 Y13.79571
G01 X4.16916 Y13.76705
G01 X4.22407 Y13.59807
G01 X4.23057 Y13.56738
G01 X4.24998 Y13.37498
G01 X4.24998 Y13.12497
G01 X4.29997 Y13.12497
G01 X4.27703 Y12.90665
G01 X4.20919 Y12.69792
G01 X4.09943 Y12.50782
G01 X3.96738 Y12.35949
G01 X3.93629 Y12.33152
G01 X3.79252 Y12.22708
G01 X3.75633 Y12.20617
G01 X3.69072 Y12.17694
G01 X3.57444 Y12.12639
G01 X3.38041 Y12.08402
G01 X3.33883 Y12.07966
G01 X3.14023 Y12.08075
G01 X2.92552 Y12.12639
G01 X2.72499 Y12.21567
G01 X2.54742 Y12.34470
G01 X2.40053 Y12.50782
G01 X2.29078 Y12.69792
G01 X2.22296 Y12.90665
G01 X2.20109 Y13.10406
G01 X2.20000 Y13.37498
G01 X2.21968 Y13.57262
G01 X2.22837 Y13.61351
G01 X2.28328 Y13.78252
G01 X2.30027 Y13.82070
G01 X2.40053 Y13.99215
G01 X2.54742 Y14.15527
G01 X2.72499 Y14.28430
G01 X2.85001 Y14.34114
G01 X2.85796 Y14.33604
G01 X2.85001 Y14.34114
G01 X2.85001 Y23.80122
G01 X2.85755 Y23.80595
G01 X2.85001 Y23.80122
G01 X2.77500 Y23.83528
G01 X2.71516 Y23.87742
G01 X2.68409 Y23.90539
G01 X2.63594 Y23.96048
G01 X2.59842 Y24.02332
G01 X2.58140 Y24.06150
G01 X2.55984 Y24.13142
G01 X2.55001 Y24.22500
G01 X2.55001 Y25.47498
G01 X2.55984 Y25.56855
G01 X2.58889 Y25.65799
G01 X2.63594 Y25.73947
G01 X2.68409 Y25.79459
G01 X2.75745 Y25.85329
G01 X2.79364 Y25.87419
G01 X2.86093 Y25.90295
G01 X2.96339 Y25.92329
G01 X3.69999 Y25.92494
G01 X3.76771 Y25.91923
G01 X3.83903 Y25.90295
G01 X3.90632 Y25.87419
G01 X3.94254 Y25.85329
G01 X4.00108 Y25.80940
G01 X4.05087 Y25.75575
G01 X4.07543 Y25.72192
G01 X4.11107 Y25.65799
G01 X4.13471 Y25.58877
G01 X4.14343 Y25.54788
G01 X4.14998 Y25.47498
G01 X4.14998 Y24.22500
G01 X4.14015 Y24.13142
G01 X4.11856 Y24.06150
G01 X4.10157 Y24.02332
G01 X4.06403 Y23.96048
G01 X4.00108 Y23.89058
G01 X3.92499 Y23.83528
G01 X3.85859 Y23.80452
G01 X3.76771 Y23.78075
G01 X3.74995 Y23.77791
G01 X3.74018 Y23.78514
G01 X3.74995 Y23.77791
G01 X3.74995 Y14.29664
G01 X3.74429 Y14.29367
G01 X3.74995 Y14.29664
G01 X3.79252 Y14.27290
G01 X3.93629 Y14.16845
G01 X3.96738 Y14.14048
G01 X4.09943 Y13.99215
G01 X4.19969 Y13.82070
G01 X4.21670 Y13.78252
G01 X4.27162 Y13.61351
G01 X4.28031 Y13.57262
G01 X4.29997 Y13.37498
G01 X4.29997 Y13.12497
G01 X4.34998 Y13.12497
G01 X4.32592 Y12.89627
G01 X4.25488 Y12.67760
G01 X4.13990 Y12.47844
G01 X4.00451 Y12.32604
G01 X3.96568 Y12.29109
G01 X3.82191 Y12.18662
G01 X3.77668 Y12.16050
G01 X3.58991 Y12.07884
G01 X3.36497 Y12.03104
G01 X3.17950 Y12.02967
G01 X3.04881 Y12.06673
G01 X2.93908 Y12.08994
G01 X2.76959 Y12.15840
G01 X2.68851 Y12.20389
G01 X2.61429 Y12.25324
G01 X2.54752 Y12.30633
G01 X2.47653 Y12.37219
G01 X2.39210 Y12.47043
G01 X2.31005 Y12.58801
G01 X2.25524 Y12.65773
G01 X2.23573 Y12.70201
G01 X2.18082 Y12.87102
G01 X2.16995 Y12.92212
G01 X2.15001 Y13.12497
G01 X2.15138 Y13.40112
G01 X2.17404 Y13.60368
G01 X2.24511 Y13.82240
G01 X2.36009 Y14.02154
G01 X2.51396 Y14.19243
G01 X2.69999 Y14.32761
G01 X2.79999 Y14.37363
G01 X2.80789 Y14.36855
G01 X2.79999 Y14.37363
G01 X2.79999 Y23.76823
G01 X2.80647 Y23.77189
G01 X2.79999 Y23.76823
G01 X2.72806 Y23.80625
G01 X2.66543 Y23.85342
G01 X2.61196 Y23.91077
G01 X2.58125 Y23.95306
G01 X2.54323 Y24.02162
G01 X2.51094 Y24.12103
G01 X2.49999 Y24.22500
G01 X2.49999 Y25.47498
G01 X2.51094 Y25.57894
G01 X2.52857 Y25.63767
G01 X2.62242 Y25.77259
G01 X2.66118 Y25.81346
G01 X2.70180 Y25.85171
G01 X2.79679 Y25.91013
G01 X2.90446 Y25.94572
G01 X2.96291 Y25.95336
G01 X3.73588 Y25.95344
G01 X3.79641 Y25.94554
G01 X3.87243 Y25.92200
G01 X3.91663 Y25.90307
G01 X3.99882 Y25.85118
G01 X4.07721 Y25.77290
G01 X4.13575 Y25.67813
G01 X4.17134 Y25.57069
G01 X4.17802 Y25.51039
G01 X4.17921 Y24.22530
G01 X4.17116 Y24.12835
G01 X4.13540 Y24.02101
G01 X4.07667 Y23.92642
G01 X4.03878 Y23.88649
G01 X3.99814 Y23.84824
G01 X3.86072 Y23.75187
G01 X3.79997 Y23.73648
G01 X3.79123 Y23.74387
G01 X3.79997 Y23.73648
G01 X3.79997 Y23.65218
G01 X3.78887 Y23.60033
G01 X3.77922 Y23.48456
G01 X3.77922 Y14.52961
G01 X3.78473 Y14.45298
G01 X3.79997 Y14.35453
G01 X3.79997 Y14.32761
G01 X3.79674 Y14.32596
G01 X3.79997 Y14.32761
G01 X3.81785 Y14.31600
G01 X3.88866 Y14.24607
G01 X3.95244 Y14.19362
G01 X4.02341 Y14.12776
G01 X4.13977 Y13.98819
G01 X4.23139 Y13.82822
G01 X4.30012 Y13.62522
G01 X4.32430 Y13.47528
G01 X4.33347 Y13.37163
G01 X4.34998 Y13.27358
G01 X4.34998 Y13.12497
G01 X4.15102 Y12.83886
G04 P0 ( dwell for no time -- G64 should not smooth over this point )
G00 Z0.30000 ( retract )

G00 X-0.65001 Y13.12497 ( rapid move to begin. )
G01 F120.00000
( begin pre-milling-gcode )
M7
( end pre-milling-gcode )
( Mill infeed pass 1/1 )
G01 Z-0.05000
G04 P0 ( dwell for no time -- G64 should not smooth over this point )
G01 F680.00000
G01 X-0.65001 Y13.12497
G01 X-0.65001 Y13.37498
G01 X-0.66995 Y13.57785
G01 X-0.68082 Y13.62895
G01 X-0.73574 Y13.79797
G01 X-0.75517 Y13.84214
G01 X-0.81105 Y13.91333
G01 X-0.86020 Y13.98819
G01 X-0.97655 Y14.12776
G01 X-1.04752 Y14.19362
G01 X-1.11427 Y14.24668
G01 X-1.18852 Y14.29606
G01 X-1.26957 Y14.34155
G01 X-1.43906 Y14.41000
G01 X-1.56919 Y14.43749
G01 X-1.66324 Y14.46261
G01 X-1.71447 Y14.49997
G01 X-1.77201 Y14.54978
G01 X-3.25204 Y16.02979
G01 X-3.29100 Y16.07226
G01 X-3.35491 Y16.15719
G01 X-3.37071 Y16.31635
G01 X-3.37071 Y17.95539
G01 X-3.36108 Y18.07116
G01 X-3.34998 Y18.12585
G01 X-3.34998 Y18.18828
G01 X-3.35572 Y18.19219
G01 X-3.34998 Y18.18828
G01 X-3.32105 Y18.19885
G01 X-3.28120 Y18.22346
G01 X-3.19931 Y18.29158
G01 X-3.12227 Y18.36783
G01 X-3.06454 Y18.46100
G01 X-3.02880 Y18.56834
G01 X-3.02072 Y18.66529
G01 X-3.02072 Y19.91467
G01 X-3.02862 Y20.01073
G01 X-3.05280 Y20.08723
G01 X-3.06418 Y20.11820
G01 X-3.12204 Y20.21192
G01 X-3.19928 Y20.28876
G01 X-3.30680 Y20.37476
G01 X-3.34548 Y20.39048
G01 X-3.35486 Y20.38868
G01 X-3.34998 Y20.39170
G01 X-3.34998 Y20.45211
G01 X-3.36520 Y20.54779
G01 X-3.37071 Y20.62442
G01 X-3.37068 Y23.51679
G01 X-3.36108 Y23.63117
G01 X-3.34998 Y23.68586
G01 X-3.34998 Y23.74826
G01 X-3.35587 Y23.75225
G01 X-3.34998 Y23.74826
G01 X-3.32105 Y23.75886
G01 X-3.28120 Y23.78347
G01 X-3.19938 Y23.85151
G01 X-3.12227 Y23.92784
G01 X-3.06454 Y24.02101
G01 X-3.02880 Y24.12835
G01 X-3.02072 Y24.22530
G01 X-3.02191 Y25.51039
G01 X-3.02862 Y25.57071
G01 X-3.06418 Y25.67818
G01 X-3.12273 Y25.77287
G01 X-3.20114 Y25.85118
G01 X-3.28325 Y25.90307
G01 X-3.32745 Y25.92200
G01 X-3.40355 Y25.94554
G01 X-3.48714 Y25.95405
G01 X-4.22643 Y25.95352
G01 X-4.29550 Y25.94572
G01 X-4.40317 Y25.91013
G01 X-4.46126 Y25.87640
G01 X-4.50096 Y25.84933
G01 X-4.57751 Y25.77262
G01 X-4.67144 Y25.63757
G01 X-4.68904 Y25.57894
G01 X-4.69997 Y25.47498
G01 X-4.69997 Y24.22500
G01 X-4.68904 Y24.12103
G01 X-4.66611 Y24.04605
G01 X-4.64487 Y23.99830
G01 X-4.60449 Y23.93112
G01 X-4.55305 Y23.87194
G01 X-4.51421 Y23.83696
G01 X-4.44998 Y23.79200
G01 X-4.35450 Y23.74948
G01 X-4.34995 Y23.74826
G01 X-4.34180 Y23.75360
G01 X-4.34995 Y23.74826
G01 X-4.34995 Y20.39170
G01 X-4.34180 Y20.38637
G01 X-4.34995 Y20.39170
G01 X-4.35450 Y20.39048
G01 X-4.44998 Y20.34799
G01 X-4.51421 Y20.30301
G01 X-4.55305 Y20.26803
G01 X-4.60449 Y20.20887
G01 X-4.64487 Y20.14167
G01 X-4.66611 Y20.09391
G01 X-4.68904 Y20.01893
G01 X-4.69997 Y19.91500
G01 X-4.69997 Y18.66499
G01 X-4.69313 Y18.58688
G01 X-4.68226 Y18.53575
G01 X-4.65673 Y18.46163
G01 X-4.60449 Y18.37111
G01 X-4.53453 Y18.29344
G01 X-4.47192 Y18.24624
G01 X-4.42666 Y18.22011
G01 X-4.37891 Y18.19885
G01 X-4.34995 Y18.18825
G01 X-4.34221 Y18.19316
G01 X-4.34995 Y18.18825
G01 X-4.34995 Y15.94998
G01 X-4.34609 Y15.89126
G01 X-4.33080 Y15.81434
G01 X-4.30367 Y15.74081
G01 X-4.28587 Y15.70586
G01 X-4.24231 Y15.64068
G01 X-4.20350 Y15.59644
G01 X-2.63484 Y14.02776
G01 X-2.62219 Y14.02951
G01 X-2.63484 Y14.02776
G01 X-2.65415 Y13.99959
G01 X-2.74300 Y13.84569
G01 X-2.76426 Y13.79797
G01 X-2.82593 Y13.60368
G01 X-2.84996 Y13.37498
G01 X-2.84996 Y13.12497
G01 X-2.82593 Y12.89627
G01 X-2.75486 Y12.67760
G01 X-2.65504 Y12.50191
G01 X-2.45242 Y12.30633
G01 X-2.38567 Y12.25326
G01 X-2.26670 Y12.17739
G01 X-2.23037 Y12.15840
G01 X-2.06085 Y12.08994
G01 X-1.88145 Y12.05210
G01 X-1.69855 Y12.04669
G01 X-1.66342 Y12.04902
G01 X-1.51821 Y12.07125
G01 X-1.44130 Y12.09131
G01 X-1.34435 Y12.12492
G01 X-1.18674 Y12.20302
G01 X-1.03350 Y12.31537
G01 X-0.90805 Y12.44892
G01 X-0.81575 Y12.58346
G01 X-0.75212 Y12.66383
G01 X-0.74511 Y12.67760
G01 X-0.67404 Y12.89627
G01 X-0.65138 Y13.09886
G01 X-0.65001 Y13.12497
G01 X-0.70000 Y13.12497
G01 X-0.70109 Y13.39588
G01 X-0.71968 Y13.57262
G01 X-0.72837 Y13.61351
G01 X-0.79078 Y13.80206
G01 X-0.88913 Y13.97460
G01 X-0.91371 Y14.00843
G01 X-1.04742 Y14.15527
G01 X-1.22499 Y14.28430
G01 X-1.42552 Y14.37358
G01 X-1.61955 Y14.41595
G01 X-1.66113 Y14.42032
G01 X-1.68504 Y14.41821
G01 X-3.39999 Y16.13637
G01 X-3.40378 Y16.13479
G01 X-3.39999 Y16.13637
G01 X-3.39999 Y18.22760
G01 X-3.40840 Y18.23324
G01 X-3.39999 Y18.22760
G01 X-3.36093 Y18.23702
G01 X-3.29364 Y18.26577
G01 X-3.25745 Y18.28668
G01 X-3.19888 Y18.33060
G01 X-3.14912 Y18.38422
G01 X-3.12453 Y18.41805
G01 X-3.08889 Y18.48195
G01 X-3.05984 Y18.57144
G01 X-3.05001 Y18.66499
G01 X-3.05001 Y19.91500
G01 X-3.05984 Y20.00855
G01 X-3.08140 Y20.07847
G01 X-3.12453 Y20.16194
G01 X-3.14912 Y20.19574
G01 X-3.19888 Y20.24939
G01 X-3.27500 Y20.30468
G01 X-3.36093 Y20.34294
G01 X-3.39999 Y20.35236
G01 X-3.40881 Y20.34629
G01 X-3.39999 Y20.35236
G01 X-3.39999 Y23.78761
G01 X-3.40881 Y23.79368
G01 X-3.39999 Y23.78761
G01 X-3.36093 Y23.79703
G01 X-3.29364 Y23.82578
G01 X-3.25745 Y23.84669
G01 X-3.19888 Y23.89058
G01 X-3.14912 Y23.94422
G01 X-3.12453 Y23.97806
G01 X-3.08889 Y24.04196
G01 X-3.05984 Y24.13142
G01 X-3.05001 Y24.22500
G01 X-3.05001 Y25.47498
G01 X-3.05984 Y25.56855
G01 X-3.08889 Y25.65799
G01 X-3.13593 Y25.73947
G01 X-3.18409 Y25.79459
G01 X-3.25745 Y25.85329
G01 X-3.29364 Y25.87419
G01 X-3.36093 Y25.90295
G01 X-3.46339 Y25.92329
G01 X-4.22651 Y25.92357
G01 X-4.26771 Y25.91923
G01 X-4.33903 Y25.90295
G01 X-4.40634 Y25.87419
G01 X-4.44254 Y25.85329
G01 X-4.50108 Y25.80940
G01 X-4.56402 Y25.73947
G01 X-4.60157 Y25.67663
G01 X-4.61856 Y25.63848
G01 X-4.64015 Y25.56855
G01 X-4.64889 Y25.49589
G01 X-4.64998 Y24.22500
G01 X-4.64015 Y24.13142
G01 X-4.61856 Y24.06150
G01 X-4.60157 Y24.02332
G01 X-4.56402 Y23.96048
G01 X-4.50108 Y23.89058
G01 X-4.44254 Y23.84669
G01 X-4.40634 Y23.82578
G01 X-4.33903 Y23.79703
G01 X-4.29994 Y23.78761
G01 X-4.29113 Y23.79368
G01 X-4.29994 Y23.78761
G01 X-4.29994 Y20.35238
G01 X-4.29113 Y20.34629
G01 X-4.29994 Y20.35238
G01 X-4.33903 Y20.34294
G01 X-4.42498 Y20.30468
G01 X-4.50108 Y20.24939
G01 X-4.55087 Y20.19574
G01 X-4.60157 Y20.11667
G01 X-4.61856 Y20.07847
G01 X-4.64015 Y20.00855
G01 X-4.64998 Y19.91500
G01 X-4.64998 Y18.66499
G01 X-4.64015 Y18.57144
G01 X-4.61856 Y18.50151
G01 X-4.60157 Y18.46331
G01 X-4.56402 Y18.40050
G01 X-4.50108 Y18.33060
G01 X-4.44254 Y18.28668
G01 X-4.40634 Y18.26577
G01 X-4.33903 Y18.23702
G01 X-4.29994 Y18.22760
G01 X-4.29161 Y18.23319
G01 X-4.29994 Y18.22760
G01 X-4.29994 Y15.94998
G01 X-4.29136 Y15.86418
G01 X-4.27248 Y15.79618
G01 X-4.24322 Y15.73197
G01 X-4.20428 Y15.67315
G01 X-4.16817 Y15.63177
G01 X-2.56662 Y14.03025
G01 X-2.55283 Y14.03182
G01 X-2.56662 Y14.03025
G01 X-2.59944 Y13.99215
G01 X-2.69969 Y13.82070
G01 X-2.71671 Y13.78252
G01 X-2.77160 Y13.61351
G01 X-2.78031 Y13.57262
G01 X-2.79888 Y13.39588
G01 X-2.79997 Y13.12497
G01 X-2.77703 Y12.90665
G01 X-2.70919 Y12.69792
G01 X-2.59944 Y12.50782
G01 X-2.46736 Y12.35949
G01 X-2.43629 Y12.33152
G01 X-2.27498 Y12.21567
G01 X-2.09400 Y12.13388
G01 X-2.05422 Y12.12098
G01 X-1.88041 Y12.08402
G01 X-1.83883 Y12.07966
G01 X-1.64018 Y12.08075
G01 X-1.42552 Y12.12639
G01 X-1.22499 Y12.21567
G01 X-1.04742 Y12.34470
G01 X-0.90053 Y12.50782
G01 X-0.79078 Y12.69792
G01 X-0.72293 Y12.90665
G01 X-0.70109 Y13.10406
G01 X-0.70000 Y13.12497
G01 X-0.74999 Y13.12497
G01 X-0.75082 Y13.39068
G01 X-0.76939 Y13.56738
G01 X-0.77592 Y13.59807
G01 X-0.83645 Y13.78171
G01 X-0.93243 Y13.94960
G01 X-0.95085 Y13.97498
G01 X-1.08087 Y14.11813
G01 X-1.24998 Y14.24099
G01 X-1.44097 Y14.32603
G01 X-1.62994 Y14.36705
G01 X-1.66113 Y14.37033
G01 X-1.70579 Y14.36809
G01 X-3.44998 Y16.11564
G01 X-3.45379 Y16.11406
G01 X-3.44998 Y16.11564
G01 X-3.44998 Y18.26847
G01 X-3.45940 Y18.27525
G01 X-3.44998 Y18.26847
G01 X-3.36172 Y18.29021
G01 X-3.29999 Y18.31858
G01 X-3.23235 Y18.36773
G01 X-3.17640 Y18.42988
G01 X-3.14170 Y18.48830
G01 X-3.10873 Y18.58183
G01 X-3.09999 Y18.66499
G01 X-3.09999 Y19.91500
G01 X-3.10873 Y19.99816
G01 X-3.13459 Y20.07768
G01 X-3.17640 Y20.15010
G01 X-3.22118 Y20.20113
G01 X-3.29999 Y20.26138
G01 X-3.36172 Y20.28977
G01 X-3.44998 Y20.31152
G01 X-3.45963 Y20.30443
G01 X-3.44998 Y20.31152
G01 X-3.44998 Y23.82848
G01 X-3.45963 Y23.83554
G01 X-3.44998 Y23.82848
G01 X-3.36172 Y23.85019
G01 X-3.29999 Y23.87859
G01 X-3.23235 Y23.92774
G01 X-3.17640 Y23.98987
G01 X-3.14170 Y24.04831
G01 X-3.10873 Y24.14184
G01 X-3.09999 Y24.22500
G01 X-3.09999 Y25.47498
G01 X-3.10873 Y25.55814
G01 X-3.13459 Y25.63767
G01 X-3.17640 Y25.71008
G01 X-3.22118 Y25.76114
G01 X-3.28679 Y25.81283
G01 X-3.31399 Y25.82852
G01 X-3.37637 Y25.85540
G01 X-3.46601 Y25.87338
G01 X-4.22641 Y25.87358
G01 X-4.32359 Y25.85540
G01 X-4.39999 Y25.82139
G01 X-4.45544 Y25.78212
G01 X-4.52359 Y25.71008
G01 X-4.57103 Y25.62301
G01 X-4.59123 Y25.55814
G01 X-4.59915 Y25.49068
G01 X-4.59997 Y24.22500
G01 X-4.59123 Y24.14184
G01 X-4.56540 Y24.06231
G01 X-4.53215 Y24.00305
G01 X-4.46763 Y23.92774
G01 X-4.39999 Y23.87859
G01 X-4.33824 Y23.85019
G01 X-4.24995 Y23.82845
G01 X-4.24053 Y23.83526
G01 X-4.24995 Y23.82845
G01 X-4.24995 Y20.31152
G01 X-4.24030 Y20.30443
G01 X-4.24995 Y20.31152
G01 X-4.33824 Y20.28977
G01 X-4.39999 Y20.26138
G01 X-4.47873 Y20.20113
G01 X-4.52359 Y20.15010
G01 X-4.56540 Y20.07768
G01 X-4.59123 Y19.99816
G01 X-4.59997 Y19.91500
G01 X-4.59997 Y18.66499
G01 X-4.59123 Y18.58183
G01 X-4.56540 Y18.50230
G01 X-4.53215 Y18.44304
G01 X-4.46763 Y18.36773
G01 X-4.39999 Y18.31858
G01 X-4.33824 Y18.29021
G01 X-4.24995 Y18.26847
G01 X-4.24061 Y18.27522
G01 X-4.24995 Y18.26847
G01 X-4.24995 Y15.94998
G01 X-4.24274 Y15.87584
G01 X-4.22631 Y15.81531
G01 X-4.20060 Y15.75811
G01 X-4.16629 Y15.70561
G01 X-4.13281 Y15.66713
G01 X-2.49771 Y14.03205
G01 X-2.47909 Y14.03261
G01 X-2.49771 Y14.03205
G01 X-2.55900 Y13.96276
G01 X-2.65641 Y13.79571
G01 X-2.66916 Y13.76705
G01 X-2.72407 Y13.59807
G01 X-2.73058 Y13.56738
G01 X-2.74914 Y13.39068
G01 X-2.74998 Y13.12497
G01 X-2.72814 Y12.91707
G01 X-2.66352 Y12.71826
G01 X-2.55900 Y12.53721
G01 X-2.43022 Y12.39294
G01 X-2.40690 Y12.37196
G01 X-2.24998 Y12.25898
G01 X-2.07366 Y12.17955
G01 X-2.04384 Y12.16988
G01 X-1.87002 Y12.13292
G01 X-1.83883 Y12.12964
G01 X-1.64546 Y12.13048
G01 X-1.44097 Y12.17394
G01 X-1.24998 Y12.25898
G01 X-1.08087 Y12.38184
G01 X-0.94097 Y12.53721
G01 X-0.83645 Y12.71826
G01 X-0.77186 Y12.91707
G01 X-0.75082 Y13.10932
G01 X-0.74999 Y13.12497
G01 X-0.80000 Y13.12497
G01 X-0.80053 Y13.38544
G01 X-0.82344 Y13.58262
G01 X-0.88212 Y13.76139
G01 X-0.98143 Y13.93337
G01 X-1.11432 Y14.08097
G01 X-1.27498 Y14.19771
G01 X-1.46655 Y14.28120
G01 X-1.65070 Y14.31978
G01 X-1.72535 Y14.32032
G01 X-1.72692 Y14.31661
G01 X-1.72535 Y14.32032
G01 X-3.49997 Y16.09494
G01 X-3.50378 Y16.09336
G01 X-3.49997 Y16.09494
G01 X-3.49997 Y18.31607
G01 X-3.51211 Y18.32653
G01 X-3.49997 Y18.31607
G01 X-3.47276 Y18.31637
G01 X-3.39184 Y18.33212
G01 X-3.32499 Y18.36189
G01 X-3.26580 Y18.40489
G01 X-3.21683 Y18.45927
G01 X-3.18026 Y18.52262
G01 X-3.15765 Y18.59222
G01 X-3.14998 Y18.66499
G01 X-3.14998 Y19.91500
G01 X-3.15765 Y19.98777
G01 X-3.18026 Y20.05734
G01 X-3.21114 Y20.11192
G01 X-3.27393 Y20.18167
G01 X-3.32499 Y20.21810
G01 X-3.39184 Y20.24786
G01 X-3.47276 Y20.26361
G01 X-3.49997 Y20.26389
G01 X-3.51211 Y20.25343
G01 X-3.49997 Y20.26389
G01 X-3.49997 Y23.87608
G01 X-3.51211 Y23.88654
G01 X-3.49997 Y23.87608
G01 X-3.47276 Y23.87636
G01 X-3.39184 Y23.89213
G01 X-3.32499 Y23.92187
G01 X-3.27393 Y23.95830
G01 X-3.21114 Y24.02804
G01 X-3.18026 Y24.08263
G01 X-3.15765 Y24.15222
G01 X-3.14998 Y24.22500
G01 X-3.14998 Y25.47498
G01 X-3.15765 Y25.54775
G01 X-3.18026 Y25.61732
G01 X-3.21683 Y25.68072
G01 X-3.25839 Y25.72769
G01 X-3.33431 Y25.78283
G01 X-3.39184 Y25.80785
G01 X-3.46862 Y25.82347
G01 X-4.22631 Y25.82362
G01 X-4.30814 Y25.80785
G01 X-4.37497 Y25.77810
G01 X-4.42605 Y25.74168
G01 X-4.48315 Y25.68072
G01 X-4.52349 Y25.60757
G01 X-4.54233 Y25.54775
G01 X-4.54944 Y25.48542
G01 X-4.54998 Y24.22500
G01 X-4.54233 Y24.15222
G01 X-4.51973 Y24.08263
G01 X-4.48884 Y24.02804
G01 X-4.42605 Y23.95830
G01 X-4.37497 Y23.92187
G01 X-4.30814 Y23.89213
G01 X-4.22719 Y23.87636
G01 X-4.19997 Y23.87608
G01 X-4.18782 Y23.88654
G01 X-4.19997 Y23.87608
G01 X-4.19997 Y20.26389
G01 X-4.18782 Y20.25343
G01 X-4.19997 Y20.26389
G01 X-4.22719 Y20.26361
G01 X-4.30814 Y20.24786
G01 X-4.37497 Y20.21810
G01 X-4.43418 Y20.17509
G01 X-4.48315 Y20.12071
G01 X-4.51973 Y20.05734
G01 X-4.54233 Y19.98777
G01 X-4.54998 Y19.91500
G01 X-4.54998 Y18.66499
G01 X-4.54233 Y18.59222
G01 X-4.51973 Y18.52262
G01 X-4.48884 Y18.46804
G01 X-4.42605 Y18.39831
G01 X-4.37497 Y18.36189
G01 X-4.30814 Y18.33212
G01 X-4.22719 Y18.31637
G01 X-4.19997 Y18.31607
G01 X-4.18788 Y18.32651
G01 X-4.19997 Y18.31607
G01 X-4.19997 Y15.94998
G01 X-4.19412 Y15.88752
G01 X-4.18010 Y15.83444
G01 X-4.15798 Y15.78422
G01 X-4.12826 Y15.73807
G01 X-4.09745 Y15.70248
G01 X-2.42882 Y14.03386
G01 X-2.41003 Y14.03439
G01 X-2.42882 Y14.03386
G01 X-2.51854 Y13.93337
G01 X-2.61785 Y13.76139
G01 X-2.67922 Y13.57249
G01 X-2.69944 Y13.38544
G01 X-2.69999 Y13.12497
G01 X-2.67922 Y12.92746
G01 X-2.61785 Y12.73858
G01 X-2.51196 Y12.55847
G01 X-2.38567 Y12.41900
G01 X-2.22499 Y12.30226
G01 X-2.04356 Y12.22149
G01 X-1.84930 Y12.18019
G01 X-1.65070 Y12.18019
G01 X-1.45641 Y12.22149
G01 X-1.27498 Y12.30226
G01 X-1.11432 Y12.41900
G01 X-0.98143 Y12.56660
G01 X-0.88212 Y12.73858
G01 X-0.82075 Y12.92746
G01 X-0.80000 Y13.12497
G01 X-0.84999 Y13.12497
G01 X-0.86965 Y12.93785
G01 X-0.92593 Y12.76378
G01 X-1.02187 Y12.59599
G01 X-1.15184 Y12.45286
G01 X-1.30000 Y12.34557
G01 X-1.47188 Y12.26904
G01 X-1.66113 Y12.22964
G01 X-1.84407 Y12.22992
G01 X-2.02811 Y12.26904
G01 X-2.20436 Y12.34841
G01 X-2.35219 Y12.45616
G01 X-2.47480 Y12.59192
G01 X-2.57218 Y12.75893
G01 X-2.63032 Y12.93785
G01 X-2.64998 Y13.12497
G01 X-2.64970 Y13.38021
G01 X-2.63032 Y13.56210
G01 X-2.57218 Y13.74104
G01 X-2.47810 Y13.90399
G01 X-2.35991 Y14.03566
G01 X-4.06210 Y15.73784
G01 X-4.09024 Y15.77056
G01 X-4.11536 Y15.81036
G01 X-4.13393 Y15.85359
G01 X-4.14551 Y15.89918
G01 X-4.14998 Y15.94998
G01 X-4.14998 Y18.36552
G01 X-4.23161 Y18.36666
G01 X-4.29270 Y18.37967
G01 X-4.34998 Y18.40517
G01 X-4.40073 Y18.44205
G01 X-4.44269 Y18.48866
G01 X-4.47406 Y18.54297
G01 X-4.49344 Y18.60260
G01 X-4.49999 Y18.66499
G01 X-4.49999 Y19.91500
G01 X-4.49344 Y19.97735
G01 X-4.47406 Y20.03702
G01 X-4.44269 Y20.09132
G01 X-4.40073 Y20.13793
G01 X-4.35437 Y20.17194
G01 X-4.29270 Y20.20032
G01 X-4.23652 Y20.21253
G01 X-4.14998 Y20.21444
G01 X-4.14998 Y23.92553
G01 X-4.23652 Y23.92746
G01 X-4.29270 Y23.93968
G01 X-4.35437 Y23.96802
G01 X-4.40073 Y24.00203
G01 X-4.44269 Y24.04864
G01 X-4.47406 Y24.10297
G01 X-4.49344 Y24.16261
G01 X-4.49999 Y24.22500
G01 X-4.49971 Y25.48021
G01 X-4.49344 Y25.53736
G01 X-4.47594 Y25.59210
G01 X-4.44269 Y25.65133
G01 X-4.40073 Y25.69794
G01 X-4.35437 Y25.73195
G01 X-4.29270 Y25.76027
G01 X-4.22620 Y25.77361
G01 X-3.47124 Y25.77356
G01 X-3.40241 Y25.75842
G01 X-3.34998 Y25.73480
G01 X-3.29926 Y25.69794
G01 X-3.25722 Y25.65133
G01 X-3.22824 Y25.60168
G01 X-3.20655 Y25.53736
G01 X-3.19999 Y25.47498
G01 X-3.19999 Y24.22500
G01 X-3.20655 Y24.16261
G01 X-3.22593 Y24.10297
G01 X-3.25722 Y24.04864
G01 X-3.29926 Y24.00203
G01 X-3.34998 Y23.96518
G01 X-3.40728 Y23.93968
G01 X-3.46837 Y23.92665
G01 X-3.54995 Y23.92553
G01 X-3.54995 Y20.21444
G01 X-3.46347 Y20.21253
G01 X-3.40728 Y20.20032
G01 X-3.34559 Y20.17194
G01 X-3.29926 Y20.13793
G01 X-3.25722 Y20.09132
G01 X-3.22593 Y20.03702
G01 X-3.20655 Y19.97735
G01 X-3.19999 Y19.91500
G01 X-3.19999 Y18.66499
G01 X-3.20655 Y18.60260
G01 X-3.22593 Y18.54297
G01 X-3.25722 Y18.48866
G01 X-3.29926 Y18.44205
G01 X-3.34998 Y18.40517
G01 X-3.40728 Y18.37967
G01 X-3.46837 Y18.36666
G01 X-3.54995 Y18.36552
G01 X-3.54995 Y16.07424
G01 X-1.74607 Y14.27033
G01 X-1.65590 Y14.27005
G01 X-1.47188 Y14.23093
G01 X-1.30000 Y14.15440
G01 X-1.14407 Y14.04013
G01 X-1.02187 Y13.90399
G01 X-0.93017 Y13.74572
G01 X-0.87102 Y13.56716
G01 X-0.84999 Y13.37498
G01 X-0.84999 Y13.12497
G04 P0 ( dwell for no time -- G64 should not smooth over this point )
G00 Z0.30000 ( retract )

G00 X-3.15001 Y12.52499 ( rapid move to begin. )
G01 F120.00000
( begin pre-milling-gcode )
M7
( end pre-milling-gcode )
( Mill infeed pass 1/1 )
G01 Z-0.05000
G04 P0 ( dwell for no time -- G64 should not smooth over this point )
G01 F680.00000
G01 X-3.15001 Y12.52499
G01 X-3.15001 Y13.97498
G01 X-3.15684 Y14.05308
G01 X-3.16771 Y14.10421
G01 X-3.19324 Y14.17836
G01 X-3.23124 Y14.24694
G01 X-3.26197 Y14.28920
G01 X-3.31544 Y14.34656
G01 X-3.39999 Y14.40797
G01 X-3.47106 Y14.44112
G01 X-3.52077 Y14.45727
G01 X-3.61076 Y14.47325
G01 X-3.75117 Y14.47498
G01 X-3.75943 Y14.46459
G01 X-3.75117 Y14.47498
G01 X-3.75384 Y14.50868
G01 X-3.75996 Y14.54744
G01 X-3.78125 Y14.62288
G01 X-3.81406 Y14.69408
G01 X-3.83456 Y14.72753
G01 X-3.88310 Y14.78910
G01 X-5.34998 Y16.25707
G01 X-5.35379 Y16.25549
G01 X-5.34998 Y16.25707
G01 X-5.34998 Y18.33169
G01 X-5.35402 Y18.33342
G01 X-5.34998 Y18.33169
G01 X-5.28124 Y18.38333
G01 X-5.16235 Y18.51538
G01 X-5.07350 Y18.66928
G01 X-5.02536 Y18.81299
G01 X-5.01449 Y18.86412
G01 X-5.00002 Y19.01500
G01 X-5.00002 Y19.56499
G01 X-5.01858 Y19.74172
G01 X-5.06412 Y19.88627
G01 X-5.08536 Y19.93402
G01 X-5.14810 Y20.04266
G01 X-5.17881 Y20.08492
G01 X-5.28124 Y20.19666
G01 X-5.34998 Y20.24830
G01 X-5.35526 Y20.24565
G01 X-5.34998 Y20.24830
G01 X-5.34998 Y23.89170
G01 X-5.35526 Y23.89431
G01 X-5.34998 Y23.89170
G01 X-5.28124 Y23.94334
G01 X-5.16235 Y24.07539
G01 X-5.07350 Y24.22926
G01 X-5.02536 Y24.37300
G01 X-5.01449 Y24.42411
G01 X-5.00002 Y24.57498
G01 X-5.00139 Y25.15111
G01 X-5.01858 Y25.30170
G01 X-5.07350 Y25.47069
G01 X-5.14218 Y25.59243
G01 X-5.23342 Y25.67744
G01 X-5.30690 Y25.75382
G01 X-5.43565 Y25.84547
G01 X-5.57957 Y25.91072
G01 X-5.61757 Y25.92098
G01 X-5.73380 Y25.94729
G01 X-5.78848 Y25.95161
G01 X-5.91025 Y25.95260
G01 X-6.04683 Y25.93099
G01 X-6.13044 Y25.90485
G01 X-6.19542 Y25.87915
G01 X-6.28673 Y25.82951
G01 X-6.33158 Y25.80038
G01 X-6.42409 Y25.72332
G01 X-6.50514 Y25.63249
G01 X-6.54809 Y25.57384
G01 X-6.62076 Y25.43414
G01 X-6.66590 Y25.28227
G01 X-6.67855 Y25.15070
G01 X-6.67855 Y24.54925
G01 X-6.67591 Y24.49881
G01 X-6.65510 Y24.37699
G01 X-6.64538 Y24.33917
G01 X-6.59679 Y24.21344
G01 X-6.53512 Y24.10846
G01 X-6.50083 Y24.05916
G01 X-6.35251 Y23.89353
G01 X-6.34787 Y23.89256
G01 X-6.32920 Y23.71550
G01 X-6.32915 Y20.43194
G01 X-6.33313 Y20.35810
G01 X-6.34995 Y20.25719
G01 X-6.34789 Y20.24743
G01 X-6.35698 Y20.24322
G01 X-6.40685 Y20.18822
G01 X-6.50494 Y20.07217
G01 X-6.54863 Y20.01294
G01 X-6.62071 Y19.87415
G01 X-6.66590 Y19.72226
G01 X-6.67923 Y19.56465
G01 X-6.67923 Y19.01530
G01 X-6.67591 Y18.93880
G01 X-6.65510 Y18.81698
G01 X-6.64538 Y18.77916
G01 X-6.59679 Y18.65346
G01 X-6.53512 Y18.54848
G01 X-6.50083 Y18.49918
G01 X-6.35254 Y18.33354
G01 X-6.34794 Y18.33260
G01 X-6.33458 Y18.23024
G01 X-6.32922 Y18.15343
G01 X-6.33026 Y16.05021
G01 X-6.32866 Y15.99916
G01 X-6.32061 Y15.95641
G01 X-6.30418 Y15.89006
G01 X-6.25551 Y15.79095
G01 X-6.17449 Y15.69430
G01 X-5.27314 Y14.79550
G01 X-5.23682 Y14.75608
G01 X-5.16776 Y14.66070
G01 X-4.96694 Y14.45986
G01 X-4.92496 Y14.45059
G01 X-4.96694 Y14.45986
G01 X-5.00449 Y14.45049
G01 X-5.09999 Y14.40797
G01 X-5.16664 Y14.36103
G01 X-5.25165 Y14.23589
G01 X-5.28541 Y14.17894
G01 X-5.32117 Y14.07160
G01 X-5.32925 Y13.97462
G01 X-5.32930 Y12.92979
G01 X-5.33778 Y12.83576
G01 X-5.34998 Y12.76769
G01 X-5.34998 Y12.52499
G01 X-5.34314 Y12.44689
G01 X-5.33227 Y12.39576
G01 X-5.30675 Y12.32162
G01 X-5.25447 Y12.23112
G01 X-5.18455 Y12.15342
G01 X-5.09999 Y12.09200
G01 X-5.00449 Y12.04948
G01 X-4.92808 Y12.03183
G01 X-4.87639 Y12.02637
G01 X-4.59966 Y12.02606
G01 X-4.51289 Y12.04069
G01 X-4.43603 Y12.04615
G01 X-3.61290 Y12.04658
G01 X-3.55445 Y12.05420
G01 X-3.44681 Y12.08979
G01 X-3.35181 Y12.14824
G01 X-3.27228 Y12.22751
G01 X-3.22146 Y12.30757
G01 X-3.16065 Y12.42289
G01 X-3.15138 Y12.49886
G01 X-3.15001 Y12.52499
G01 X-3.19999 Y12.52499
G01 X-3.19999 Y13.97498
G01 X-3.20982 Y14.06855
G01 X-3.23886 Y14.15801
G01 X-3.28595 Y14.23949
G01 X-3.33408 Y14.29459
G01 X-3.36514 Y14.32258
G01 X-3.44366 Y14.37419
G01 X-3.51094 Y14.40294
G01 X-3.61338 Y14.42334
G01 X-3.79999 Y14.42496
G01 X-3.81000 Y14.41361
G01 X-3.79999 Y14.42496
G01 X-3.80060 Y14.46566
G01 X-3.80858 Y14.53576
G01 X-3.81775 Y14.57391
G01 X-3.85671 Y14.66797
G01 X-3.87721 Y14.70142
G01 X-3.92112 Y14.75664
G01 X-5.39999 Y16.23637
G01 X-5.40377 Y16.23479
G01 X-5.39999 Y16.23637
G01 X-5.39999 Y18.35716
G01 X-5.40532 Y18.35986
G01 X-5.39999 Y18.35716
G01 X-5.31470 Y18.42049
G01 X-5.20278 Y18.54477
G01 X-5.11917 Y18.68960
G01 X-5.07291 Y18.82844
G01 X-5.06420 Y18.86933
G01 X-5.05000 Y19.01500
G01 X-5.05000 Y19.56499
G01 X-5.06748 Y19.73130
G01 X-5.11167 Y19.87083
G01 X-5.12867 Y19.90903
G01 X-5.19138 Y20.01764
G01 X-5.21597 Y20.05147
G01 X-5.31470 Y20.15950
G01 X-5.39999 Y20.22282
G01 X-5.40532 Y20.22013
G01 X-5.39999 Y20.22282
G01 X-5.39999 Y23.91717
G01 X-5.40532 Y23.91984
G01 X-5.39999 Y23.91717
G01 X-5.31470 Y23.98047
G01 X-5.20278 Y24.10478
G01 X-5.11917 Y24.24961
G01 X-5.07291 Y24.38844
G01 X-5.06420 Y24.42934
G01 X-5.05000 Y24.57498
G01 X-5.05000 Y25.12499
G01 X-5.06748 Y25.29131
G01 X-5.11167 Y25.43084
G01 X-5.12867 Y25.46901
G01 X-5.19138 Y25.57765
G01 X-5.21597 Y25.61148
G01 X-5.31470 Y25.71948
G01 X-5.45000 Y25.81778
G01 X-5.60278 Y25.88580
G01 X-5.76636 Y25.92060
G01 X-5.93362 Y25.92060
G01 X-6.09719 Y25.88580
G01 X-6.24997 Y25.81778
G01 X-6.38526 Y25.71948
G01 X-6.49719 Y25.59520
G01 X-6.58081 Y25.45037
G01 X-6.63250 Y25.29131
G01 X-6.64888 Y25.14590
G01 X-6.64997 Y24.57498
G01 X-6.63578 Y24.42934
G01 X-6.62704 Y24.38844
G01 X-6.58081 Y24.24961
G01 X-6.49719 Y24.10478
G01 X-6.38526 Y23.98047
G01 X-6.29994 Y23.91712
G01 X-6.29460 Y23.91981
G01 X-6.29994 Y23.91712
G01 X-6.29994 Y20.22284
G01 X-6.29460 Y20.22015
G01 X-6.29994 Y20.22284
G01 X-6.38526 Y20.15950
G01 X-6.49719 Y20.03522
G01 X-6.58081 Y19.89036
G01 X-6.62704 Y19.75152
G01 X-6.63578 Y19.71063
G01 X-6.64997 Y19.56499
G01 X-6.64997 Y19.01500
G01 X-6.63250 Y18.84865
G01 X-6.58830 Y18.70916
G01 X-6.57131 Y18.67096
G01 X-6.50860 Y18.56232
G01 X-6.48401 Y18.52851
G01 X-6.38526 Y18.42049
G01 X-6.29994 Y18.35714
G01 X-6.29460 Y18.35981
G01 X-6.29994 Y18.35714
G01 X-6.29994 Y16.04998
G01 X-6.29135 Y15.96418
G01 X-6.27248 Y15.89618
G01 X-6.24322 Y15.83197
G01 X-6.20428 Y15.77315
G01 X-6.16816 Y15.73177
G01 X-4.86103 Y14.42466
G01 X-4.80731 Y14.40835
G01 X-4.86103 Y14.42466
G01 X-4.91769 Y14.41922
G01 X-4.98904 Y14.40294
G01 X-5.05633 Y14.37419
G01 X-5.09255 Y14.35329
G01 X-5.15109 Y14.30939
G01 X-5.21404 Y14.23949
G01 X-5.26108 Y14.15801
G01 X-5.29013 Y14.06855
G01 X-5.29996 Y13.97498
G01 X-5.29996 Y12.52499
G01 X-5.29341 Y12.45210
G01 X-5.28472 Y12.41120
G01 X-5.26108 Y12.34196
G01 X-5.21404 Y12.26050
G01 X-5.15109 Y12.19058
G01 X-5.07497 Y12.13528
G01 X-4.98904 Y12.09703
G01 X-4.91769 Y12.08075
G01 X-4.87634 Y12.07638
G01 X-3.61338 Y12.07663
G01 X-3.53116 Y12.09162
G01 X-3.49138 Y12.10452
G01 X-3.42499 Y12.13528
G01 X-3.36514 Y12.17742
G01 X-3.33408 Y12.20539
G01 X-3.28595 Y12.26050
G01 X-3.23886 Y12.34196
G01 X-3.20982 Y12.43142
G01 X-3.19999 Y12.52499
G01 X-3.25001 Y12.52499
G01 X-3.25001 Y13.97498
G01 X-3.25874 Y14.05814
G01 X-3.29166 Y14.15166
G01 X-3.32638 Y14.21011
G01 X-3.38234 Y14.27223
G01 X-3.44998 Y14.32138
G01 X-3.52638 Y14.35539
G01 X-3.59268 Y14.37033
G01 X-3.64998 Y14.37498
G01 X-3.84998 Y14.37498
G01 X-3.86192 Y14.36202
G01 X-3.84998 Y14.37498
G01 X-3.84998 Y14.44998
G01 X-3.85351 Y14.50086
G01 X-3.86636 Y14.56225
G01 X-3.89933 Y14.64183
G01 X-3.93365 Y14.69433
G01 X-3.95915 Y14.72415
G01 X-5.44998 Y16.21564
G01 X-5.45379 Y16.21406
G01 X-5.44998 Y16.21564
G01 X-5.44998 Y18.38264
G01 X-5.45536 Y18.38536
G01 X-5.44998 Y18.38264
G01 X-5.34815 Y18.45765
G01 X-5.24322 Y18.57416
G01 X-5.16484 Y18.70994
G01 X-5.12046 Y18.84388
G01 X-5.11393 Y18.87456
G01 X-5.09999 Y19.01500
G01 X-5.09999 Y19.56499
G01 X-5.11640 Y19.72092
G01 X-5.15922 Y19.85538
G01 X-5.17197 Y19.88403
G01 X-5.24322 Y20.00583
G01 X-5.33705 Y20.11124
G01 X-5.36034 Y20.13222
G01 X-5.44998 Y20.19734
G01 X-5.45536 Y20.19463
G01 X-5.44998 Y20.19734
G01 X-5.44998 Y23.94265
G01 X-5.45536 Y23.94537
G01 X-5.44998 Y23.94265
G01 X-5.34815 Y24.01763
G01 X-5.24322 Y24.13417
G01 X-5.16484 Y24.26993
G01 X-5.12046 Y24.40389
G01 X-5.11393 Y24.43457
G01 X-5.09999 Y24.57498
G01 X-5.09999 Y25.12499
G01 X-5.11640 Y25.28092
G01 X-5.16484 Y25.43002
G01 X-5.24322 Y25.56581
G01 X-5.33705 Y25.67125
G01 X-5.36034 Y25.69223
G01 X-5.46181 Y25.76594
G01 X-5.48899 Y25.78164
G01 X-5.61823 Y25.83828
G01 X-5.75610 Y25.86838
G01 X-5.78726 Y25.87168
G01 X-5.92839 Y25.87087
G01 X-6.08175 Y25.83828
G01 X-6.22498 Y25.77450
G01 X-6.35183 Y25.68232
G01 X-6.45671 Y25.56581
G01 X-6.53514 Y25.43002
G01 X-6.58355 Y25.28092
G01 X-6.59999 Y25.12499
G01 X-6.59999 Y24.57498
G01 X-6.58604 Y24.43457
G01 X-6.57951 Y24.40389
G01 X-6.53514 Y24.26993
G01 X-6.45671 Y24.13417
G01 X-6.35183 Y24.01763
G01 X-6.24995 Y23.94260
G01 X-6.24456 Y23.94532
G01 X-6.24995 Y23.94260
G01 X-6.24995 Y20.19737
G01 X-6.24456 Y20.19465
G01 X-6.24995 Y20.19737
G01 X-6.35183 Y20.12234
G01 X-6.45671 Y20.00583
G01 X-6.53514 Y19.87004
G01 X-6.57951 Y19.73608
G01 X-6.58604 Y19.70542
G01 X-6.59999 Y19.56499
G01 X-6.59999 Y19.01500
G01 X-6.58355 Y18.85907
G01 X-6.54075 Y18.72460
G01 X-6.52800 Y18.69595
G01 X-6.45671 Y18.57416
G01 X-6.36290 Y18.46875
G01 X-6.33964 Y18.44777
G01 X-6.24995 Y18.38261
G01 X-6.24456 Y18.38533
G01 X-6.24995 Y18.38261
G01 X-6.24995 Y16.04998
G01 X-6.24274 Y15.97584
G01 X-6.22630 Y15.91531
G01 X-6.20060 Y15.85811
G01 X-6.16628 Y15.80561
G01 X-6.13280 Y15.76713
G01 X-4.74066 Y14.37498
G01 X-4.66966 Y14.34673
G01 X-4.74066 Y14.37498
G01 X-4.85783 Y14.37477
G01 X-4.90731 Y14.37033
G01 X-4.95844 Y14.35946
G01 X-5.03598 Y14.32852
G01 X-5.11764 Y14.27223
G01 X-5.17357 Y14.21011
G01 X-5.21541 Y14.13767
G01 X-5.24124 Y14.05814
G01 X-5.24998 Y13.97498
G01 X-5.24998 Y12.52499
G01 X-5.23718 Y12.42667
G01 X-5.21541 Y12.36231
G01 X-5.17357 Y12.28989
G01 X-5.11764 Y12.22774
G01 X-5.04998 Y12.17859
G01 X-4.97360 Y12.14458
G01 X-4.87629 Y12.12637
G01 X-3.61599 Y12.12657
G01 X-3.54155 Y12.14051
G01 X-3.51173 Y12.15019
G01 X-3.44998 Y12.17859
G01 X-3.39453 Y12.21786
G01 X-3.32638 Y12.28989
G01 X-3.28458 Y12.36231
G01 X-3.25874 Y12.44183
G01 X-3.25001 Y12.52499
G01 X-3.29999 Y12.52499
G01 X-3.29999 Y13.97498
G01 X-3.30764 Y14.04775
G01 X-3.33499 Y14.12667
G01 X-3.36685 Y14.18072
G01 X-3.41579 Y14.23507
G01 X-3.47500 Y14.27810
G01 X-3.54183 Y14.30785
G01 X-3.60307 Y14.32143
G01 X-3.64998 Y14.32499
G01 X-3.89997 Y14.32499
G01 X-3.91259 Y14.31150
G01 X-3.89997 Y14.32499
G01 X-3.89997 Y14.44998
G01 X-3.90581 Y14.51242
G01 X-3.91983 Y14.56550
G01 X-3.93484 Y14.60172
G01 X-3.97167 Y14.66187
G01 X-4.00248 Y14.69746
G01 X-5.49996 Y16.19494
G01 X-5.50377 Y16.19336
G01 X-5.49996 Y16.19494
G01 X-5.49996 Y18.40878
G01 X-5.50530 Y18.41147
G01 X-5.49996 Y18.40878
G01 X-5.49120 Y18.41447
G01 X-5.38160 Y18.49478
G01 X-5.28368 Y18.60354
G01 X-5.21051 Y18.73026
G01 X-5.16799 Y18.85935
G01 X-5.15000 Y19.01500
G01 X-5.15000 Y19.56499
G01 X-5.16799 Y19.72064
G01 X-5.21051 Y19.84969
G01 X-5.27797 Y19.96765
G01 X-5.38160 Y20.08518
G01 X-5.49120 Y20.16549
G01 X-5.49996 Y20.17118
G01 X-5.50542 Y20.16841
G01 X-5.49996 Y20.17118
G01 X-5.49996 Y23.96879
G01 X-5.50542 Y23.97155
G01 X-5.49996 Y23.96879
G01 X-5.49120 Y23.97448
G01 X-5.38160 Y24.05479
G01 X-5.28368 Y24.16353
G01 X-5.21051 Y24.29027
G01 X-5.16799 Y24.41933
G01 X-5.15000 Y24.57498
G01 X-5.15000 Y25.12499
G01 X-5.16529 Y25.27054
G01 X-5.21051 Y25.40970
G01 X-5.28368 Y25.53642
G01 X-5.37421 Y25.63779
G01 X-5.49999 Y25.73119
G01 X-5.62392 Y25.78697
G01 X-5.78726 Y25.82169
G01 X-5.92315 Y25.82116
G01 X-6.06631 Y25.79070
G01 X-6.19999 Y25.73119
G01 X-6.31838 Y25.64516
G01 X-6.41629 Y25.53642
G01 X-6.48947 Y25.40970
G01 X-6.53468 Y25.27054
G01 X-6.54997 Y25.12499
G01 X-6.54997 Y24.57498
G01 X-6.53197 Y24.41933
G01 X-6.48947 Y24.29027
G01 X-6.41629 Y24.16353
G01 X-6.31838 Y24.05479
G01 X-6.20875 Y23.97448
G01 X-6.19996 Y23.96876
G01 X-6.19450 Y23.97153
G01 X-6.19996 Y23.96876
G01 X-6.19996 Y20.17121
G01 X-6.19450 Y20.16844
G01 X-6.19996 Y20.17121
G01 X-6.20875 Y20.16549
G01 X-6.31838 Y20.08518
G01 X-6.41629 Y19.97644
G01 X-6.48947 Y19.84969
G01 X-6.53197 Y19.72064
G01 X-6.54997 Y19.56499
G01 X-6.54997 Y19.01500
G01 X-6.53197 Y18.85935
G01 X-6.48947 Y18.73026
G01 X-6.42198 Y18.61231
G01 X-6.31838 Y18.49478
G01 X-6.20875 Y18.41447
G01 X-6.19996 Y18.40875
G01 X-6.19450 Y18.41155
G01 X-6.19996 Y18.40875
G01 X-6.19996 Y16.04998
G01 X-6.19412 Y15.98752
G01 X-6.18010 Y15.93444
G01 X-6.15798 Y15.88422
G01 X-6.12826 Y15.83807
G01 X-6.09745 Y15.80248
G01 X-4.61996 Y14.32499
G01 X-4.54998 Y14.29624
G01 X-4.61996 Y14.32499
G01 X-4.85521 Y14.32484
G01 X-4.89692 Y14.32143
G01 X-4.95813 Y14.30785
G01 X-5.02498 Y14.27810
G01 X-5.09158 Y14.22768
G01 X-5.13885 Y14.17193
G01 X-5.16971 Y14.11735
G01 X-5.18963 Y14.05786
G01 X-5.19999 Y13.97498
G01 X-5.19999 Y12.52499
G01 X-5.18963 Y12.44211
G01 X-5.16971 Y12.38263
G01 X-5.13314 Y12.31925
G01 X-5.08419 Y12.26490
G01 X-5.02498 Y12.22187
G01 X-4.95813 Y12.19213
G01 X-4.87624 Y12.17635
G01 X-3.61861 Y12.17651
G01 X-3.53207 Y12.19586
G01 X-3.47500 Y12.22187
G01 X-3.42392 Y12.25829
G01 X-3.36685 Y12.31925
G01 X-3.33024 Y12.38263
G01 X-3.30764 Y12.45222
G01 X-3.29999 Y12.52499
G01 X-3.34998 Y12.52499
G01 X-3.35653 Y12.46261
G01 X-3.37591 Y12.40297
G01 X-3.40728 Y12.34864
G01 X-3.44924 Y12.30203
G01 X-3.49999 Y12.26518
G01 X-3.55239 Y12.24156
G01 X-3.62123 Y12.22642
G01 X-4.88137 Y12.22665
G01 X-4.94269 Y12.23968
G01 X-4.99999 Y12.26518
G01 X-5.05071 Y12.30203
G01 X-5.09270 Y12.34864
G01 X-5.12404 Y12.40297
G01 X-5.14208 Y12.45756
G01 X-5.14998 Y12.52499
G01 X-5.14998 Y13.97498
G01 X-5.14208 Y14.04242
G01 X-5.12404 Y14.09700
G01 X-5.09270 Y14.15133
G01 X-5.05071 Y14.19794
G01 X-4.99532 Y14.23718
G01 X-4.94269 Y14.26030
G01 X-4.87873 Y14.27356
G01 X-4.54998 Y14.27498
G01 X-4.54998 Y14.32570
G01 X-6.06209 Y15.83784
G01 X-6.09023 Y15.87055
G01 X-6.11535 Y15.91036
G01 X-6.13392 Y15.95359
G01 X-6.14550 Y15.99918
G01 X-6.14997 Y16.04998
G01 X-6.14997 Y18.44063
G01 X-6.17939 Y18.45493
G01 X-6.28493 Y18.53194
G01 X-6.37870 Y18.63733
G01 X-6.44380 Y18.75061
G01 X-6.48442 Y18.87479
G01 X-6.49999 Y19.01500
G01 X-6.49999 Y19.56499
G01 X-6.48442 Y19.70519
G01 X-6.44380 Y19.82937
G01 X-6.37586 Y19.94705
G01 X-6.28493 Y20.04804
G01 X-6.17939 Y20.12505
G01 X-6.14997 Y20.13936
G01 X-6.14997 Y24.00064
G01 X-6.17939 Y24.01491
G01 X-6.28493 Y24.09195
G01 X-6.37586 Y24.19292
G01 X-6.44380 Y24.31062
G01 X-6.48442 Y24.43480
G01 X-6.49999 Y24.57498
G01 X-6.49999 Y25.12499
G01 X-6.48579 Y25.26012
G01 X-6.44380 Y25.38936
G01 X-6.37586 Y25.50701
G01 X-6.28493 Y25.60800
G01 X-6.17499 Y25.68791
G01 X-6.05084 Y25.74318
G01 X-5.91792 Y25.77142
G01 X-5.78726 Y25.77170
G01 X-5.64914 Y25.74318
G01 X-5.52966 Y25.69027
G01 X-5.41134 Y25.60434
G01 X-5.32412 Y25.50701
G01 X-5.25617 Y25.38936
G01 X-5.21419 Y25.26012
G01 X-5.19999 Y25.12499
G01 X-5.19999 Y24.57498
G01 X-5.21553 Y24.43480
G01 X-5.25617 Y24.31062
G01 X-5.32412 Y24.19292
G01 X-5.41505 Y24.09195
G01 X-5.52059 Y24.01491
G01 X-5.54995 Y24.00066
G01 X-5.54995 Y20.13933
G01 X-5.52059 Y20.12505
G01 X-5.41505 Y20.04804
G01 X-5.32127 Y19.94266
G01 X-5.25617 Y19.82937
G01 X-5.21553 Y19.70519
G01 X-5.19999 Y19.56499
G01 X-5.19999 Y19.01500
G01 X-5.21553 Y18.87479
G01 X-5.25617 Y18.75061
G01 X-5.32412 Y18.63293
G01 X-5.41505 Y18.53194
G01 X-5.52059 Y18.45493
G01 X-5.54995 Y18.44065
G01 X-5.54995 Y16.17424
G01 X-4.03784 Y14.66210
G01 X-4.00969 Y14.62938
G01 X-3.98102 Y14.58260
G01 X-3.96601 Y14.54635
G01 X-3.95442 Y14.50076
G01 X-3.94995 Y14.44998
G01 X-3.94995 Y14.27498
G01 X-3.64736 Y14.27493
G01 X-3.61345 Y14.27251
G01 X-3.56235 Y14.26167
G01 X-3.49560 Y14.23195
G01 X-3.44924 Y14.19794
G01 X-3.40444 Y14.14694
G01 X-3.37591 Y14.09700
G01 X-3.35791 Y14.04242
G01 X-3.34998 Y13.97498
G01 X-3.34998 Y12.52499
G04 P0 ( dwell for no time -- G64 should not smooth over this point )
G00 Z0.30000 ( retract )

G00 X-12.30993 Y16.92885 ( rapid move to begin. )
G01 F120.00000
( begin pre-milling-gcode )
M7
( end pre-milling-gcode )
( Mill infeed pass 1/1 )
G01 Z-0.05000
G04 P0 ( dwell for no time -- G64 should not smooth over this point )
G01 F680.00000
G01 X-12.30993 Y16.92885
G01 X-12.23993 Y16.83784
G01 X-12.15514 Y16.74477
G01 X-5.40537 Y9.99500
G01 X-5.32768 Y9.90994
G01 X-5.22216 Y9.76724
G01 X-5.17086 Y9.68162
G01 X-5.13161 Y9.60443
G01 X-5.12501 Y9.52500
G01 X-5.12501 Y9.22848
G01 X-5.12811 Y9.22726
G01 X-5.12046 Y9.22393
G01 X-5.00154 Y9.09188
G01 X-4.97083 Y9.04959
G01 X-4.87009 Y8.87240
G01 X-4.80581 Y8.67895
G01 X-4.79496 Y8.62785
G01 X-4.77637 Y8.45111
G01 X-4.77500 Y8.17499
G01 X-4.87500 Y8.17499
G01 X-4.87500 Y8.42498
G01 X-4.89440 Y8.61738
G01 X-4.90090 Y8.64807
G01 X-4.96146 Y8.83173
G01 X-5.06598 Y9.01276
G01 X-5.19476 Y9.15703
G01 X-5.21807 Y9.17801
G01 X-5.22816 Y9.18177
G01 X-5.22498 Y9.18304
G01 X-5.22498 Y9.52500
G01 X-5.24106 Y9.66607
G01 X-5.26951 Y9.75987
G01 X-5.32696 Y9.87349
G01 X-5.40548 Y9.97369
G01 X-13.49997 Y18.06920
G01 X-13.50378 Y18.06763
G01 X-13.49997 Y18.06920
G01 X-13.49997 Y23.46693
G01 X-13.50338 Y23.46825
G01 X-13.49306 Y23.47196
G01 X-13.46977 Y23.49294
G01 X-13.35085 Y23.62500
G01 X-13.33243 Y23.65037
G01 X-13.23645 Y23.81827
G01 X-13.17592 Y24.00191
G01 X-13.16939 Y24.03259
G01 X-13.14996 Y24.22500
G01 X-13.14996 Y24.47498
G01 X-13.16939 Y24.66739
G01 X-13.17592 Y24.69807
G01 X-13.23645 Y24.88171
G01 X-13.34097 Y25.06276
G01 X-13.48087 Y25.21814
G01 X-13.64999 Y25.34100
G01 X-13.84097 Y25.42603
G01 X-14.04546 Y25.46949
G01 X-14.25451 Y25.46949
G01 X-14.44384 Y25.43010
G01 X-14.47366 Y25.42040
G01 X-14.63599 Y25.34813
G01 X-14.66314 Y25.33246
G01 X-14.81912 Y25.21814
G01 X-14.95900 Y25.06276
G01 X-15.06352 Y24.88171
G01 X-15.12407 Y24.69807
G01 X-15.13058 Y24.66739
G01 X-15.14998 Y24.47498
G01 X-15.14998 Y24.22500
G01 X-15.13058 Y24.03259
G01 X-15.12407 Y24.00191
G01 X-15.06916 Y23.83292
G01 X-15.05638 Y23.80427
G01 X-14.95900 Y23.63721
G01 X-14.83022 Y23.49294
G01 X-14.80690 Y23.47196
G01 X-14.79647 Y23.46830
G01 X-14.79997 Y23.46693
G01 X-14.79997 Y17.79999
G01 X-14.78389 Y17.65889
G01 X-14.74419 Y17.53794
G01 X-14.69042 Y17.43885
G01 X-14.60957 Y17.34038
G01 X-6.52496 Y9.25576
G01 X-6.52117 Y9.25733
G01 X-6.52496 Y9.25576
G01 X-6.52496 Y9.18304
G01 X-6.52148 Y9.18167
G01 X-6.53191 Y9.17801
G01 X-6.55521 Y9.15703
G01 X-6.68398 Y9.01276
G01 X-6.78853 Y8.83173
G01 X-6.85312 Y8.63290
G01 X-6.87497 Y8.42498
G01 X-6.87497 Y8.17499
G01 X-6.85559 Y7.98259
G01 X-6.84906 Y7.95190
G01 X-6.79414 Y7.78292
G01 X-6.78139 Y7.75426
G01 X-6.68398 Y7.58721
G01 X-6.55521 Y7.44296
G01 X-6.53191 Y7.42198
G01 X-6.38815 Y7.31751
G01 X-6.36100 Y7.30184
G01 X-6.18401 Y7.22394
G01 X-5.99501 Y7.18294
G01 X-5.96384 Y7.17967
G01 X-5.77045 Y7.18048
G01 X-5.56598 Y7.22394
G01 X-5.37500 Y7.30898
G01 X-5.20586 Y7.43186
G01 X-5.06598 Y7.58721
G01 X-4.96146 Y7.76826
G01 X-4.89684 Y7.96707
G01 X-4.87500 Y8.17499
G01 X-4.92498 Y8.17499
G01 X-4.92498 Y8.42498
G01 X-4.94411 Y8.61217
G01 X-5.00713 Y8.81139
G01 X-5.10642 Y8.98337
G01 X-5.23192 Y9.12358
G01 X-5.27500 Y9.15756
G01 X-5.27835 Y9.15619
G01 X-5.27500 Y9.15756
G01 X-5.27500 Y9.52500
G01 X-5.28508 Y9.63234
G01 X-5.32486 Y9.76346
G01 X-5.38196 Y9.86620
G01 X-5.45071 Y9.94926
G01 X-13.54999 Y18.04850
G01 X-13.55377 Y18.04693
G01 X-13.54999 Y18.04850
G01 X-13.54999 Y23.49241
G01 X-13.55354 Y23.49386
G01 X-13.54999 Y23.49241
G01 X-13.50691 Y23.52639
G01 X-13.38143 Y23.66660
G01 X-13.27838 Y23.84836
G01 X-13.21910 Y24.03780
G01 X-13.19997 Y24.22500
G01 X-13.20053 Y24.48545
G01 X-13.22075 Y24.67249
G01 X-13.28212 Y24.86139
G01 X-13.38143 Y25.03338
G01 X-13.50691 Y25.17356
G01 X-13.68433 Y25.30246
G01 X-13.85641 Y25.37849
G01 X-14.05070 Y25.41979
G01 X-14.24930 Y25.41979
G01 X-14.44356 Y25.37849
G01 X-14.62499 Y25.29771
G01 X-14.78567 Y25.18098
G01 X-14.91854 Y25.03338
G01 X-15.01785 Y24.86139
G01 X-15.07922 Y24.67249
G01 X-15.09944 Y24.48545
G01 X-15.09997 Y24.22500
G01 X-15.08087 Y24.03780
G01 X-15.02161 Y23.84836
G01 X-14.91854 Y23.66660
G01 X-14.79306 Y23.52639
G01 X-14.74996 Y23.49238
G01 X-14.74633 Y23.49388
G01 X-14.74996 Y23.49238
G01 X-14.74996 Y17.79999
G01 X-14.73606 Y17.67340
G01 X-14.70010 Y17.56151
G01 X-14.64884 Y17.46664
G01 X-14.57424 Y17.37571
G01 X-6.47494 Y9.27646
G01 X-6.47118 Y9.27804
G01 X-6.47494 Y9.27646
G01 X-6.47494 Y9.15756
G01 X-6.47141 Y9.15614
G01 X-6.47494 Y9.15756
G01 X-6.51805 Y9.12358
G01 X-6.64352 Y8.98337
G01 X-6.74286 Y8.81139
G01 X-6.80423 Y8.62251
G01 X-6.82498 Y8.42498
G01 X-6.82445 Y8.16453
G01 X-6.80151 Y7.96737
G01 X-6.73809 Y7.77926
G01 X-6.64352 Y7.61660
G01 X-6.51805 Y7.47641
G01 X-6.34065 Y7.34751
G01 X-6.16854 Y7.27149
G01 X-5.96384 Y7.22965
G01 X-5.77568 Y7.23019
G01 X-5.58142 Y7.27149
G01 X-5.39999 Y7.35226
G01 X-5.23931 Y7.46900
G01 X-5.10642 Y7.61660
G01 X-5.00713 Y7.78858
G01 X-4.94576 Y7.97748
G01 X-4.92498 Y8.17499
G01 X-4.97500 Y8.17499
G01 X-4.99600 Y7.98281
G01 X-5.05280 Y7.80893
G01 X-5.14688 Y7.64598
G01 X-5.27682 Y7.50286
G01 X-5.42498 Y7.39557
G01 X-5.59199 Y7.32091
G01 X-5.78091 Y7.27992
G01 X-5.97423 Y7.28073
G01 X-6.15310 Y7.31904
G01 X-6.32033 Y7.39318
G01 X-6.48091 Y7.50987
G01 X-6.60311 Y7.64598
G01 X-6.69480 Y7.80425
G01 X-6.75396 Y7.98281
G01 X-6.77499 Y8.17499
G01 X-6.77499 Y8.42498
G01 X-6.75531 Y8.61210
G01 X-6.69717 Y8.79104
G01 X-6.60311 Y8.95398
G01 X-6.48091 Y9.09013
G01 X-6.42498 Y9.13209
G01 X-6.42498 Y9.29716
G01 X-14.53888 Y17.41106
G01 X-14.60729 Y17.49440
G01 X-14.65600 Y17.58505
G01 X-14.68940 Y17.69267
G01 X-14.69997 Y17.79999
G01 X-14.69997 Y23.51786
G01 X-14.75590 Y23.55985
G01 X-14.87810 Y23.69599
G01 X-14.97406 Y23.86381
G01 X-15.03114 Y24.04303
G01 X-15.04998 Y24.22500
G01 X-15.04970 Y24.48022
G01 X-15.03032 Y24.66210
G01 X-14.97218 Y24.84105
G01 X-14.87810 Y25.00399
G01 X-14.75219 Y25.14382
G01 X-14.60000 Y25.25441
G01 X-14.42811 Y25.33094
G01 X-14.24407 Y25.37005
G01 X-14.05590 Y25.37005
G01 X-13.87188 Y25.33094
G01 X-13.70465 Y25.25679
G01 X-13.54407 Y25.14011
G01 X-13.42187 Y25.00399
G01 X-13.32779 Y24.84105
G01 X-13.26965 Y24.66210
G01 X-13.25027 Y24.48022
G01 X-13.24999 Y24.22500
G01 X-13.26883 Y24.04303
G01 X-13.32593 Y23.86381
G01 X-13.42187 Y23.69599
G01 X-13.54407 Y23.55985
G01 X-13.59997 Y23.51789
G01 X-13.59997 Y18.02780
G01 X-5.48607 Y9.91390
G01 X-5.42059 Y9.83450
G01 X-5.36519 Y9.73084
G01 X-5.33484 Y9.62744
G01 X-5.32498 Y9.52500
G01 X-5.32498 Y9.13209
G01 X-5.26908 Y9.09013
G01 X-5.14403 Y8.94961
G01 X-5.05280 Y8.79104
G01 X-4.99600 Y8.61715
G01 X-4.97500 Y8.42498
G01 X-4.97500 Y8.17499
G01 X-4.77500 Y8.17499
G01 X-4.79905 Y7.94629
G01 X-4.87009 Y7.72759
G01 X-4.98508 Y7.52843
G01 X-5.12046 Y7.37603
G01 X-5.15930 Y7.34108
G01 X-5.32501 Y7.22239
G01 X-5.53507 Y7.12884
G01 X-5.76001 Y7.08104
G01 X-5.96384 Y7.07967
G01 X-6.01581 Y7.08513
G01 X-6.18962 Y7.12208
G01 X-6.23933 Y7.13821
G01 X-6.42498 Y7.22239
G01 X-6.59066 Y7.34108
G01 X-6.62953 Y7.37603
G01 X-6.76488 Y7.52843
G01 X-6.86798 Y7.70428
G01 X-6.88924 Y7.75200
G01 X-6.94416 Y7.92102
G01 X-6.95503 Y7.97212
G01 X-6.97497 Y8.17499
G01 X-6.97497 Y8.42498
G01 X-6.95094 Y8.65368
G01 X-6.87987 Y8.87240
G01 X-6.76488 Y9.07153
G01 X-6.63191 Y9.22127
G01 X-6.61322 Y9.22183
G01 X-6.63191 Y9.22127
G01 X-7.59447 Y10.18383
G01 X-7.68901 Y10.34024
G01 X-7.77570 Y10.45337
G01 X-7.85726 Y10.54268
G01 X-14.63208 Y17.31742
G01 X-14.71097 Y17.40375
G01 X-14.79527 Y17.51406
G01 X-14.88658 Y17.66506
G01 X-14.89994 Y17.79999
G01 X-14.89994 Y23.42147
G01 X-14.89667 Y23.42274
G01 X-14.90452 Y23.42604
G01 X-15.03990 Y23.57844
G01 X-15.14300 Y23.75428
G01 X-15.16426 Y23.80201
G01 X-15.22593 Y23.99629
G01 X-15.24996 Y24.22500
G01 X-15.24996 Y24.47498
G01 X-15.22593 Y24.70368
G01 X-15.16426 Y24.89797
G01 X-15.14790 Y24.93607
G01 X-15.08486 Y25.01557
G01 X-14.99192 Y25.15103
G01 X-14.86644 Y25.28458
G01 X-14.71851 Y25.39365
G01 X-14.66736 Y25.42177
G01 X-14.55560 Y25.47506
G01 X-14.50825 Y25.49286
G01 X-14.38176 Y25.52868
G01 X-14.23652 Y25.55095
G01 X-14.06225 Y25.55034
G01 X-14.01392 Y25.54691
G01 X-13.83909 Y25.51001
G01 X-13.79258 Y25.49322
G01 X-13.66957 Y25.44155
G01 X-13.63325 Y25.42256
G01 X-13.51427 Y25.34669
G01 X-13.40853 Y25.25918
G01 X-13.37653 Y25.22776
G01 X-13.29207 Y25.12952
G01 X-13.21006 Y25.01194
G01 X-13.15514 Y24.94206
G01 X-13.13574 Y24.89797
G01 X-13.07404 Y24.70368
G01 X-13.05001 Y24.47498
G01 X-13.05001 Y24.22500
G01 X-13.07404 Y23.99629
G01 X-13.14511 Y23.77757
G01 X-13.26010 Y23.57844
G01 X-13.39545 Y23.42604
G01 X-13.40328 Y23.42276
G01 X-13.40000 Y23.42152
G01 X-13.40000 Y18.11063
G01 X-13.40381 Y18.10906
G01 X-13.40000 Y18.11063
G01 X-12.43993 Y17.15059
G01 X-12.37475 Y17.02862
G01 X-12.30993 Y16.92885
G01 X-12.35227 Y16.99219
G01 X-13.44999 Y18.08993
G01 X-13.45380 Y18.08836
G01 X-13.44999 Y18.08993
G01 X-13.44999 Y23.44260
G01 X-13.45321 Y23.44382
G01 X-13.44999 Y23.44260
G01 X-13.43261 Y23.45949
G01 X-13.30051 Y23.60783
G01 X-13.20028 Y23.77928
G01 X-13.18329 Y23.81745
G01 X-13.12837 Y23.98646
G01 X-13.11966 Y24.02736
G01 X-13.10000 Y24.22500
G01 X-13.10109 Y24.49589
G01 X-13.12294 Y24.69330
G01 X-13.19075 Y24.90206
G01 X-13.30051 Y25.09215
G01 X-13.43261 Y25.24049
G01 X-13.46368 Y25.26845
G01 X-13.60744 Y25.37290
G01 X-13.64364 Y25.39380
G01 X-13.82552 Y25.47356
G01 X-14.04023 Y25.51923
G01 X-14.25974 Y25.51923
G01 X-14.47444 Y25.47356
G01 X-14.67498 Y25.38430
G01 X-14.85257 Y25.25527
G01 X-14.99944 Y25.09215
G01 X-15.10919 Y24.90206
G01 X-15.17703 Y24.69330
G01 X-15.19888 Y24.49589
G01 X-15.19997 Y24.22500
G01 X-15.18031 Y24.02736
G01 X-15.17160 Y23.98646
G01 X-15.11671 Y23.81745
G01 X-15.09969 Y23.77928
G01 X-14.99944 Y23.60783
G01 X-14.86736 Y23.45949
G01 X-14.84996 Y23.44257
G01 X-14.84660 Y23.44387
G01 X-14.84996 Y23.44257
G01 X-14.84996 Y17.79999
G01 X-14.83939 Y17.68282
G01 X-14.83175 Y17.64439
G01 X-14.80330 Y17.55059
G01 X-14.76969 Y17.47957
G01 X-14.77675 Y17.40520
G01 X-14.66807 Y17.28272
G01 X-7.89285 Y10.50752
G01 X-7.78794 Y10.38946
G01 X-7.70418 Y10.27270
G01 X-7.65287 Y10.18708
G01 X-7.63836 Y10.15992
G01 X-7.63580 Y10.14705
G01 X-7.62500 Y10.02500
G01 X-7.62500 Y9.22848
G01 X-7.62826 Y9.22724
G01 X-7.62046 Y9.22393
G01 X-7.48508 Y9.07153
G01 X-7.38198 Y8.89571
G01 X-7.36072 Y8.84796
G01 X-7.30583 Y8.67895
G01 X-7.29496 Y8.62785
G01 X-7.27502 Y8.42498
G01 X-7.27502 Y8.17499
G01 X-7.37499 Y8.17499
G01 X-7.37499 Y8.42498
G01 X-7.39440 Y8.61738
G01 X-7.40092 Y8.64807
G01 X-7.46145 Y8.83173
G01 X-7.56597 Y9.01276
G01 X-7.69475 Y9.15703
G01 X-7.71807 Y9.17801
G01 X-7.72846 Y9.18167
G01 X-7.72498 Y9.18304
G01 X-7.72498 Y10.02500
G01 X-7.73532 Y10.13724
G01 X-7.76950 Y10.25987
G01 X-7.78076 Y10.28703
G01 X-7.82696 Y10.37349
G01 X-7.90547 Y10.47369
G01 X-15.99997 Y18.56920
G01 X-16.00378 Y18.56763
G01 X-15.99997 Y18.56920
G01 X-15.99997 Y23.46696
G01 X-16.00337 Y23.46825
G01 X-15.99306 Y23.47196
G01 X-15.96977 Y23.49294
G01 X-15.84099 Y23.63721
G01 X-15.74358 Y23.80427
G01 X-15.73083 Y23.83292
G01 X-15.67591 Y24.00191
G01 X-15.66939 Y24.03259
G01 X-15.65001 Y24.22500
G01 X-15.65082 Y24.49065
G01 X-15.67185 Y24.68291
G01 X-15.73644 Y24.88171
G01 X-15.84099 Y25.06276
G01 X-15.96977 Y25.20701
G01 X-15.99306 Y25.22802
G01 X-16.13682 Y25.33246
G01 X-16.16398 Y25.34813
G01 X-16.34096 Y25.42603
G01 X-16.54546 Y25.46949
G01 X-16.75453 Y25.46949
G01 X-16.95900 Y25.42603
G01 X-17.14998 Y25.34100
G01 X-17.31912 Y25.21814
G01 X-17.45899 Y25.06276
G01 X-17.56352 Y24.88171
G01 X-17.62813 Y24.68291
G01 X-17.64916 Y24.49065
G01 X-17.64998 Y24.22500
G01 X-17.63057 Y24.03259
G01 X-17.62407 Y24.00191
G01 X-17.56915 Y23.83292
G01 X-17.55640 Y23.80427
G01 X-17.45899 Y23.63721
G01 X-17.33022 Y23.49294
G01 X-17.30690 Y23.47196
G01 X-17.29646 Y23.46830
G01 X-17.29997 Y23.46691
G01 X-17.29997 Y18.29999
G01 X-17.28389 Y18.15889
G01 X-17.25049 Y18.05125
G01 X-17.19798 Y17.95148
G01 X-17.10957 Y17.84038
G01 X-9.02498 Y9.75576
G01 X-9.02117 Y9.75733
G01 X-9.02498 Y9.75576
G01 X-9.02498 Y9.18304
G01 X-9.02157 Y9.18174
G01 X-9.03191 Y9.17801
G01 X-9.05520 Y9.15703
G01 X-9.18400 Y9.01276
G01 X-9.28853 Y8.83173
G01 X-9.35312 Y8.63290
G01 X-9.37415 Y8.44067
G01 X-9.37499 Y8.17499
G01 X-9.35312 Y7.96707
G01 X-9.28853 Y7.76826
G01 X-9.19254 Y7.60037
G01 X-9.17412 Y7.57502
G01 X-9.04410 Y7.43186
G01 X-8.87499 Y7.30898
G01 X-8.68401 Y7.22394
G01 X-8.47951 Y7.18048
G01 X-8.27047 Y7.18048
G01 X-8.06597 Y7.22394
G01 X-7.87499 Y7.30898
G01 X-7.70585 Y7.43186
G01 X-7.56597 Y7.58721
G01 X-7.46145 Y7.76826
G01 X-7.39686 Y7.96707
G01 X-7.37499 Y8.17499
G01 X-7.42500 Y8.17499
G01 X-7.42500 Y8.42498
G01 X-7.44410 Y8.61217
G01 X-7.50712 Y8.81139
G01 X-7.60644 Y8.98337
G01 X-7.73191 Y9.12358
G01 X-7.77499 Y9.15756
G01 X-7.77862 Y9.15609
G01 X-7.77499 Y9.15756
G01 X-7.77547 Y10.03478
G01 X-7.78888 Y10.15157
G01 X-7.81736 Y10.24534
G01 X-7.88195 Y10.36620
G01 X-7.95071 Y10.44926
G01 X-16.04998 Y18.54850
G01 X-16.05377 Y18.54693
G01 X-16.04998 Y18.54850
G01 X-16.04998 Y23.49241
G01 X-16.05354 Y23.49386
G01 X-16.04998 Y23.49241
G01 X-16.00693 Y23.52639
G01 X-15.88143 Y23.66660
G01 X-15.77838 Y23.84836
G01 X-15.71912 Y24.03780
G01 X-15.69999 Y24.22500
G01 X-15.70053 Y24.48545
G01 X-15.72075 Y24.67249
G01 X-15.78211 Y24.86139
G01 X-15.88143 Y25.03338
G01 X-16.00693 Y25.17356
G01 X-16.18432 Y25.30246
G01 X-16.35643 Y25.37849
G01 X-16.55069 Y25.41979
G01 X-16.74929 Y25.41979
G01 X-16.94355 Y25.37849
G01 X-17.12498 Y25.29771
G01 X-17.28567 Y25.18098
G01 X-17.41856 Y25.03338
G01 X-17.51785 Y24.86139
G01 X-17.57921 Y24.67249
G01 X-17.59943 Y24.48545
G01 X-17.59999 Y24.22500
G01 X-17.58086 Y24.03780
G01 X-17.52161 Y23.84836
G01 X-17.41856 Y23.66660
G01 X-17.29306 Y23.52639
G01 X-17.24995 Y23.49238
G01 X-17.24632 Y23.49386
G01 X-17.24995 Y23.49238
G01 X-17.24995 Y18.29999
G01 X-17.23606 Y18.17340
G01 X-17.20009 Y18.06151
G01 X-17.14884 Y17.96664
G01 X-17.07424 Y17.87571
G01 X-8.97496 Y9.77646
G01 X-8.97118 Y9.77803
G01 X-8.97496 Y9.77646
G01 X-8.97496 Y9.15756
G01 X-8.97141 Y9.15614
G01 X-8.97496 Y9.15756
G01 X-9.01807 Y9.12358
G01 X-9.14354 Y8.98337
G01 X-9.24286 Y8.81139
G01 X-9.30422 Y8.62251
G01 X-9.32444 Y8.43544
G01 X-9.32497 Y8.17499
G01 X-9.30422 Y7.97748
G01 X-9.24286 Y7.78858
G01 X-9.13696 Y7.60847
G01 X-9.01065 Y7.46900
G01 X-8.84999 Y7.35226
G01 X-8.66856 Y7.27149
G01 X-8.47428 Y7.23019
G01 X-8.27568 Y7.23019
G01 X-8.08142 Y7.27149
G01 X-7.89998 Y7.35226
G01 X-7.73933 Y7.46900
G01 X-7.60644 Y7.61660
G01 X-7.50712 Y7.78858
G01 X-7.44576 Y7.97748
G01 X-7.42500 Y8.17499
G01 X-7.47499 Y8.17499
G01 X-7.49600 Y7.98281
G01 X-7.55279 Y7.80893
G01 X-7.64687 Y7.64598
G01 X-7.77684 Y7.50286
G01 X-7.92498 Y7.39557
G01 X-8.09686 Y7.31904
G01 X-8.28614 Y7.27964
G01 X-8.46907 Y7.27992
G01 X-8.65309 Y7.31904
G01 X-8.82937 Y7.39841
G01 X-8.97720 Y7.50616
G01 X-9.09980 Y7.64192
G01 X-9.19719 Y7.80893
G01 X-9.25533 Y7.98787
G01 X-9.27499 Y8.17499
G01 X-9.27471 Y8.43021
G01 X-9.25533 Y8.61210
G01 X-9.19719 Y8.79104
G01 X-9.10311 Y8.95398
G01 X-8.98091 Y9.09013
G01 X-8.92498 Y9.13211
G01 X-8.92498 Y9.79716
G01 X-17.03888 Y17.91106
G01 X-17.10728 Y17.99440
G01 X-17.15600 Y18.08505
G01 X-17.18940 Y18.19267
G01 X-17.19997 Y18.29999
G01 X-17.19997 Y23.51786
G01 X-17.25590 Y23.55985
G01 X-17.37810 Y23.69599
G01 X-17.47406 Y23.86381
G01 X-17.53113 Y24.04303
G01 X-17.54998 Y24.22500
G01 X-17.54972 Y24.48022
G01 X-17.53032 Y24.66210
G01 X-17.47218 Y24.84105
G01 X-17.37810 Y25.00399
G01 X-17.25221 Y25.14382
G01 X-17.09999 Y25.25441
G01 X-16.92811 Y25.33094
G01 X-16.74406 Y25.37005
G01 X-16.55592 Y25.37005
G01 X-16.37187 Y25.33094
G01 X-16.20464 Y25.25679
G01 X-16.04406 Y25.14011
G01 X-15.92186 Y25.00399
G01 X-15.82781 Y24.84105
G01 X-15.76967 Y24.66210
G01 X-15.75026 Y24.48022
G01 X-15.74998 Y24.22500
G01 X-15.76883 Y24.04303
G01 X-15.82593 Y23.86381
G01 X-15.92186 Y23.69599
G01 X-16.04406 Y23.55985
G01 X-16.09997 Y23.51789
G01 X-16.09997 Y18.52780
G01 X-7.98606 Y10.41390
G01 X-7.92058 Y10.33450
G01 X-7.86519 Y10.23084
G01 X-7.83674 Y10.13704
G01 X-7.82521 Y10.02988
G01 X-7.82498 Y9.13209
G01 X-7.76907 Y9.09013
G01 X-7.64687 Y8.95398
G01 X-7.55091 Y8.78616
G01 X-7.49384 Y8.60694
G01 X-7.47499 Y8.42498
G01 X-7.47499 Y8.17499
G01 X-7.27502 Y8.17499
G01 X-7.29905 Y7.94629
G01 X-7.36072 Y7.75200
G01 X-7.38198 Y7.70428
G01 X-7.48508 Y7.52843
