( pcb2gcode 2.5.0 )
( Software-independent Gcode )

G94 ( Inches per minute feed rate. )
G20 ( Units == INCHES. )

G90 ( Absolute coordinates. )
G00 S24000 ( RPM spindle speed. )
G01 F31.49606 ( Feedrate. )


G00 Z2.00000 (Retract to tool change height)
T0
M5      (Spindle stop.)
G04 P1.00000 (Wait for spindle to stop)
(MSG, Change tool bit to mill diameter 0.00394in)
M0      (Temporary machine stop.)
M3 ( Spindle on clockwise. )
G04 P1.00000 (Wait for spindle to get up to speed)
G04 P0 ( dwell for no time -- G64 should not smooth over this point )
G00 Z0.01181 ( retract )

G00 X2.06394 Y0.42538 ( rapid move to begin. )
G01 F12.59843
( begin pre-milling-gcode )
M7
( end pre-milling-gcode )
( Mill infeed pass 1/1 )
G01 Z-0.00200
G04 P0 ( dwell for no time -- G64 should not smooth over this point )
G01 F31.49606
G01 X2.06394 Y0.42538
G01 X2.06373 Y0.41104
G01 X2.06205 Y0.39641
G01 X2.05913 Y0.38288
G01 X2.05493 Y0.36979
G01 X2.04889 Y0.35573
G01 X2.04140 Y0.34245
G01 X2.03300 Y0.33059
G01 X2.02381 Y0.31998
G01 X2.01340 Y0.31012
G01 X2.00191 Y0.30122
G01 X1.99056 Y0.29412
G01 X1.98901 Y0.29340
G01 X1.98758 Y0.29238
G01 X1.65215 Y0.10516
G01 X1.64584 Y0.10207
G01 X1.63938 Y0.10001
G01 X1.63361 Y0.09901
G01 X1.62968 Y0.09881
G01 X1.62800 Y0.09894
G01 X1.62617 Y0.09874
G01 X0.52669 Y0.09874
G01 X0.52450 Y0.09891
G01 X0.52304 Y0.09877
G01 X0.51969 Y0.09887
G01 X0.51415 Y0.09976
G01 X0.50785 Y0.10183
G01 X0.50459 Y0.10345
G01 X0.50319 Y0.10438
G01 X0.50144 Y0.10513
G01 X0.16557 Y0.29259
G01 X0.16392 Y0.29373
G01 X0.16254 Y0.29435
G01 X0.15193 Y0.30080
G01 X0.14015 Y0.30967
G01 X0.12913 Y0.31994
G01 X0.11969 Y0.33075
G01 X0.11117 Y0.34279
G01 X0.10403 Y0.35546
G01 X0.09846 Y0.36814
G01 X0.09390 Y0.38217
G01 X0.09088 Y0.39620
G01 X0.08925 Y0.41086
G01 X0.08913 Y0.42521
G01 X0.09048 Y0.43970
G01 X0.09346 Y0.45466
G01 X0.09720 Y0.46680
G01 X0.09789 Y0.46834
G01 X0.09832 Y0.47034
G01 X0.20283 Y0.80631
G01 X0.20362 Y0.80824
G01 X0.20400 Y0.80967
G01 X0.20613 Y0.81478
G01 X0.20954 Y0.82011
G01 X0.21340 Y0.82437
G01 X0.21894 Y0.82866
G01 X0.22490 Y0.83170
G01 X0.23130 Y0.83359
G01 X0.23672 Y0.83419
G01 X0.23843 Y0.83413
G01 X0.24017 Y0.83433
G01 X1.91382 Y0.83433
G01 X1.91583 Y0.83414
G01 X1.91731 Y0.83419
G01 X1.92277 Y0.83360
G01 X1.92824 Y0.83204
G01 X1.93423 Y0.82915
G01 X1.93944 Y0.82531
G01 X1.94442 Y0.81984
G01 X1.94744 Y0.81498
G01 X1.94960 Y0.80964
G01 X1.94999 Y0.80799
G01 X1.95076 Y0.80617
G01 X2.05526 Y0.47019
G01 X2.05573 Y0.46810
G01 X2.05633 Y0.46671
G01 X2.05997 Y0.45434
G01 X2.06263 Y0.44036
G01 X2.06394 Y0.42538
G01 X2.06591 Y0.42535
G01 X2.06570 Y0.41101
G01 X2.06398 Y0.39599
G01 X2.06095 Y0.38209
G01 X2.05667 Y0.36884
G01 X2.05051 Y0.35457
G01 X2.04322 Y0.34165
G01 X2.03473 Y0.32960
G01 X2.02516 Y0.31855
G01 X2.01475 Y0.30869
G01 X2.00279 Y0.29944
G01 X1.99160 Y0.29245
G01 X1.99000 Y0.29169
G01 X1.98853 Y0.29066
G01 X1.65311 Y0.10344
G01 X1.65133 Y0.10267
G01 X1.64998 Y0.10184
G01 X1.64620 Y0.10010
G01 X1.63972 Y0.09807
G01 X1.63371 Y0.09705
G01 X1.62978 Y0.09685
G01 X1.62803 Y0.09696
G01 X1.62617 Y0.09677
G01 X0.52669 Y0.09677
G01 X0.52453 Y0.09693
G01 X0.52299 Y0.09680
G01 X0.51963 Y0.09690
G01 X0.51383 Y0.09782
G01 X0.50697 Y0.10007
G01 X0.50371 Y0.10168
G01 X0.50225 Y0.10264
G01 X0.50048 Y0.10341
G01 X0.16461 Y0.29088
G01 X0.16295 Y0.29201
G01 X0.16152 Y0.29267
G01 X0.15091 Y0.29911
G01 X0.13881 Y0.30823
G01 X0.12793 Y0.31835
G01 X0.11821 Y0.32946
G01 X0.10946 Y0.34182
G01 X0.10222 Y0.35467
G01 X0.09665 Y0.36735
G01 X0.09208 Y0.38137
G01 X0.08895 Y0.39578
G01 X0.08729 Y0.41084
G01 X0.08716 Y0.42519
G01 X0.08852 Y0.43988
G01 X0.09158 Y0.45524
G01 X0.09532 Y0.46738
G01 X0.09601 Y0.46897
G01 X0.09644 Y0.47092
G01 X0.20095 Y0.80690
G01 X0.20175 Y0.80885
G01 X0.20217 Y0.81042
G01 X0.20447 Y0.81585
G01 X0.20788 Y0.82117
G01 X0.21194 Y0.82570
G01 X0.21743 Y0.83003
G01 X0.22433 Y0.83358
G01 X0.23108 Y0.83555
G01 X0.23650 Y0.83615
G01 X0.23836 Y0.83611
G01 X0.24017 Y0.83630
G01 X1.91382 Y0.83630
G01 X1.91588 Y0.83611
G01 X1.91751 Y0.83615
G01 X1.92330 Y0.83550
G01 X1.92909 Y0.83382
G01 X1.93539 Y0.83074
G01 X1.94076 Y0.82677
G01 X1.94588 Y0.82116
G01 X1.94912 Y0.81601
G01 X1.95142 Y0.81037
G01 X1.95187 Y0.80859
G01 X1.95264 Y0.80675
G01 X2.05714 Y0.47077
G01 X2.05761 Y0.46872
G01 X2.05822 Y0.46727
G01 X2.06186 Y0.45489
G01 X2.06459 Y0.44053
G01 X2.06591 Y0.42535
G01 X2.06787 Y0.42532
G01 X2.06767 Y0.41099
G01 X2.06590 Y0.39558
G01 X2.06283 Y0.38149
G01 X2.05848 Y0.36806
G01 X2.05222 Y0.35360
G01 X2.04493 Y0.34068
G01 X2.03634 Y0.32847
G01 X2.02651 Y0.31713
G01 X2.01611 Y0.30726
G01 X2.00383 Y0.29777
G01 X1.98949 Y0.28894
G01 X1.65407 Y0.10173
G01 X1.65225 Y0.10092
G01 X1.65082 Y0.10006
G01 X1.64680 Y0.09823
G01 X1.64006 Y0.09613
G01 X1.63381 Y0.09508
G01 X1.62988 Y0.09488
G01 X1.62805 Y0.09498
G01 X1.62617 Y0.09480
G01 X0.52669 Y0.09480
G01 X0.52456 Y0.09496
G01 X0.52293 Y0.09484
G01 X0.51957 Y0.09493
G01 X0.51351 Y0.09588
G01 X0.50610 Y0.09830
G01 X0.50284 Y0.09992
G01 X0.50130 Y0.10091
G01 X0.49953 Y0.10169
G01 X0.16365 Y0.28916
G01 X0.16199 Y0.29028
G01 X0.16050 Y0.29099
G01 X0.14989 Y0.29743
G01 X0.13747 Y0.30679
G01 X0.12659 Y0.31691
G01 X0.11673 Y0.32816
G01 X0.10775 Y0.34085
G01 X0.10069 Y0.35335
G01 X0.09485 Y0.36656
G01 X0.09021 Y0.38076
G01 X0.08703 Y0.39537
G01 X0.08532 Y0.41082
G01 X0.08522 Y0.42578
G01 X0.08656 Y0.44006
G01 X0.08970 Y0.45582
G01 X0.09344 Y0.46796
G01 X0.09413 Y0.46959
G01 X0.09456 Y0.47151
G01 X0.19907 Y0.80748
G01 X0.19987 Y0.80947
G01 X0.20035 Y0.81117
G01 X0.20281 Y0.81691
G01 X0.20622 Y0.82223
G01 X0.21049 Y0.82703
G01 X0.21714 Y0.83216
G01 X0.22376 Y0.83547
G01 X0.23087 Y0.83750
G01 X0.23628 Y0.83811
G01 X0.23829 Y0.83808
G01 X0.24017 Y0.83827
G01 X1.91382 Y0.83827
G01 X1.91771 Y0.83810
G01 X1.92382 Y0.83739
G01 X1.92994 Y0.83560
G01 X1.93655 Y0.83232
G01 X1.94208 Y0.82824
G01 X1.94734 Y0.82248
G01 X1.95080 Y0.81704
G01 X1.95325 Y0.81110
G01 X2.05902 Y0.47135
G01 X2.05949 Y0.46934
G01 X2.06011 Y0.46782
G01 X2.06375 Y0.45545
G01 X2.06655 Y0.44070
G01 X2.06787 Y0.42532
G01 X2.06984 Y0.42529
G01 X2.06964 Y0.41096
G01 X2.06782 Y0.39516
G01 X2.06470 Y0.38088
G01 X2.06029 Y0.36728
G01 X2.05394 Y0.35264
G01 X2.04665 Y0.33972
G01 X2.03794 Y0.32733
G01 X2.02840 Y0.31626
G01 X2.01746 Y0.30583
G01 X2.00487 Y0.29610
G01 X1.99045 Y0.28722
G01 X1.65503 Y0.10001
G01 X1.65318 Y0.09917
G01 X1.65166 Y0.09828
G01 X1.64740 Y0.09635
G01 X1.64040 Y0.09419
G01 X1.63391 Y0.09312
G01 X1.62617 Y0.09284
G01 X0.52669 Y0.09284
G01 X0.52458 Y0.09298
G01 X0.52287 Y0.09287
G01 X0.51952 Y0.09297
G01 X0.51319 Y0.09394
G01 X0.50522 Y0.09654
G01 X0.50196 Y0.09816
G01 X0.50035 Y0.09917
G01 X0.49857 Y0.09997
G01 X0.16269 Y0.28744
G01 X0.14887 Y0.29575
G01 X0.13613 Y0.30535
G01 X0.12525 Y0.31547
G01 X0.11525 Y0.32687
G01 X0.10603 Y0.33989
G01 X0.09862 Y0.35309
G01 X0.09277 Y0.36650
G01 X0.08834 Y0.38015
G01 X0.08511 Y0.39495
G01 X0.08335 Y0.41081
G01 X0.08323 Y0.42516
G01 X0.08460 Y0.44025
G01 X0.08762 Y0.45562
G01 X0.19719 Y0.80807
G01 X0.19853 Y0.81192
G01 X0.20050 Y0.81671
G01 X0.20116 Y0.81797
G01 X0.20457 Y0.82329
G01 X0.20904 Y0.82835
G01 X0.21502 Y0.83314
G01 X0.21624 Y0.83391
G01 X0.22186 Y0.83681
G01 X0.22320 Y0.83735
G01 X0.22925 Y0.83917
G01 X0.23065 Y0.83946
G01 X0.23607 Y0.84006
G01 X0.24017 Y0.84024
G01 X1.91382 Y0.84024
G01 X1.91791 Y0.84006
G01 X1.92435 Y0.83929
G01 X1.93079 Y0.83737
G01 X1.93646 Y0.83467
G01 X1.93772 Y0.83391
G01 X1.94340 Y0.82970
G01 X1.94879 Y0.82381
G01 X1.94968 Y0.82263
G01 X1.95308 Y0.81686
G01 X1.95508 Y0.81183
G01 X2.06090 Y0.47194
G01 X2.06137 Y0.46996
G01 X2.06200 Y0.46838
G01 X2.06582 Y0.45525
G01 X2.06851 Y0.44087
G01 X2.06984 Y0.42529
G01 X2.07181 Y0.42527
G01 X2.07154 Y0.40995
G01 X2.06975 Y0.39475
G01 X2.06682 Y0.38122
G01 X2.06242 Y0.36738
G01 X2.05612 Y0.35261
G01 X2.04783 Y0.33790
G01 X2.03895 Y0.32543
G01 X2.02922 Y0.31427
G01 X2.01807 Y0.30376
G01 X2.00592 Y0.29443
G01 X1.99141 Y0.28550
G01 X1.65599 Y0.09829
G01 X1.64919 Y0.09494
G01 X1.64074 Y0.09225
G01 X1.63401 Y0.09115
G01 X1.62617 Y0.09087
G01 X0.52669 Y0.09087
G01 X0.52461 Y0.09100
G01 X0.52281 Y0.09090
G01 X0.51814 Y0.09113
G01 X0.51141 Y0.09235
G01 X0.50434 Y0.09478
G01 X0.49761 Y0.09826
G01 X0.16173 Y0.28572
G01 X0.14785 Y0.29407
G01 X0.13557 Y0.30326
G01 X0.12391 Y0.31403
G01 X0.11376 Y0.32557
G01 X0.10485 Y0.33807
G01 X0.09682 Y0.35230
G01 X0.09090 Y0.36589
G01 X0.08646 Y0.37954
G01 X0.08318 Y0.39454
G01 X0.08144 Y0.40979
G01 X0.08126 Y0.42514
G01 X0.08279 Y0.44144
G01 X0.08594 Y0.45698
G01 X0.08968 Y0.46912
G01 X0.09037 Y0.47083
G01 X0.09081 Y0.47268
G01 X0.19531 Y0.80865
G01 X0.19671 Y0.81266
G01 X0.19868 Y0.81746
G01 X0.19950 Y0.81903
G01 X0.20291 Y0.82436
G01 X0.20393 Y0.82569
G01 X0.20759 Y0.82968
G01 X0.20882 Y0.83082
G01 X0.21382 Y0.83469
G01 X0.21533 Y0.83566
G01 X0.22095 Y0.83856
G01 X0.22263 Y0.83924
G01 X0.22868 Y0.84106
G01 X0.23043 Y0.84142
G01 X0.23585 Y0.84202
G01 X0.24017 Y0.84220
G01 X1.91382 Y0.84220
G01 X1.91811 Y0.84202
G01 X1.92324 Y0.84150
G01 X1.92488 Y0.84119
G01 X1.93004 Y0.83975
G01 X1.93164 Y0.83915
G01 X1.93730 Y0.83644
G01 X1.93888 Y0.83550
G01 X1.94471 Y0.83116
G01 X1.95025 Y0.82513
G01 X1.95136 Y0.82366
G01 X1.95415 Y0.81909
G01 X1.95491 Y0.81759
G01 X1.95691 Y0.81256
G01 X2.06278 Y0.47252
G01 X2.06325 Y0.47058
G01 X2.06389 Y0.46893
G01 X2.06776 Y0.45562
G01 X2.07034 Y0.44202
G01 X2.07181 Y0.42527
G04 P0 ( dwell for no time -- G64 should not smooth over this point )
G00 Z0.01181 ( retract )

G00 X1.88222 Y0.73139 ( rapid move to begin. )
G01 F12.59843
( begin pre-milling-gcode )
M7
( end pre-milling-gcode )
( Mill infeed pass 1/1 )
G01 Z-0.00200
G04 P0 ( dwell for no time -- G64 should not smooth over this point )
G01 F31.49606
G01 X1.88222 Y0.73139
G01 X1.88222 Y0.78437
G01 X1.88183 Y0.78816
G01 X1.87978 Y0.79435
G01 X1.87637 Y0.79989
G01 X1.87177 Y0.80449
G01 X1.86624 Y0.80791
G01 X1.86006 Y0.80998
G01 X1.85621 Y0.81038
G01 X1.82489 Y0.81038
G01 X1.82109 Y0.80999
G01 X1.81490 Y0.80793
G01 X1.80936 Y0.80452
G01 X1.80475 Y0.79992
G01 X1.80297 Y0.79716
G01 X1.80040 Y0.79528
G01 X1.79936 Y0.79492
G01 X1.79657 Y0.79478
G01 X1.79549 Y0.79504
G01 X1.79283 Y0.79659
G01 X1.78916 Y0.80039
G01 X1.78268 Y0.80499
G01 X1.77544 Y0.80828
G01 X1.76771 Y0.81015
G01 X1.75976 Y0.81051
G01 X1.75189 Y0.80937
G01 X1.74438 Y0.80677
G01 X1.73750 Y0.80278
G01 X1.73149 Y0.79757
G01 X1.72658 Y0.79132
G01 X1.72294 Y0.78425
G01 X1.72070 Y0.77662
G01 X1.72014 Y0.77069
G01 X1.72014 Y0.74318
G01 X1.72167 Y0.73516
G01 X1.72464 Y0.72778
G01 X1.72896 Y0.72109
G01 X1.73279 Y0.71692
G01 X1.73389 Y0.71342
G01 X1.73391 Y0.60694
G01 X1.73367 Y0.60518
G01 X1.73188 Y0.60205
G01 X1.60585 Y0.47601
G01 X1.60354 Y0.47450
G01 X1.60010 Y0.47404
G01 X1.59938 Y0.47422
G01 X1.59684 Y0.47540
G01 X1.59624 Y0.47584
G01 X1.59452 Y0.47850
G01 X1.59421 Y0.47949
G01 X1.59414 Y0.48212
G01 X1.59435 Y0.48312
G01 X1.59500 Y0.49057
G01 X1.59482 Y0.49259
G01 X1.59485 Y0.59119
G01 X1.59539 Y0.59354
G01 X1.59725 Y0.59602
G01 X1.59961 Y0.59785
G01 X1.60650 Y0.60468
G01 X1.61220 Y0.61231
G01 X1.61690 Y0.62101
G01 X1.62018 Y0.63014
G01 X1.62207 Y0.63966
G01 X1.62254 Y0.64935
G01 X1.62157 Y0.65901
G01 X1.61918 Y0.66842
G01 X1.61543 Y0.67737
G01 X1.61039 Y0.68566
G01 X1.60419 Y0.69312
G01 X1.59679 Y0.69969
G01 X1.58883 Y0.70491
G01 X1.58002 Y0.70897
G01 X1.57070 Y0.71169
G01 X1.56108 Y0.71299
G01 X1.55138 Y0.71287
G01 X1.54180 Y0.71131
G01 X1.53256 Y0.70835
G01 X1.52385 Y0.70406
G01 X1.51588 Y0.69853
G01 X1.50881 Y0.69188
G01 X1.50280 Y0.68426
G01 X1.49777 Y0.67537
G01 X1.49613 Y0.67315
G01 X1.49304 Y0.67161
G01 X1.49194 Y0.67145
G01 X1.48881 Y0.67193
G01 X1.48816 Y0.67231
G01 X1.48605 Y0.67414
G01 X1.48545 Y0.67507
G01 X1.48466 Y0.67775
G01 X1.48458 Y0.69667
G01 X1.48436 Y0.69877
G01 X1.48253 Y0.70364
G01 X1.47943 Y0.70778
G01 X1.47529 Y0.71088
G01 X1.47042 Y0.71271
G01 X1.46832 Y0.71293
G01 X1.37026 Y0.71293
G01 X1.36816 Y0.71271
G01 X1.36329 Y0.71088
G01 X1.35915 Y0.70778
G01 X1.35605 Y0.70364
G01 X1.35422 Y0.69877
G01 X1.35399 Y0.69667
G01 X1.35399 Y0.59861
G01 X1.35422 Y0.59651
G01 X1.35605 Y0.59164
G01 X1.35915 Y0.58750
G01 X1.36329 Y0.58440
G01 X1.36816 Y0.58257
G01 X1.37026 Y0.58234
G01 X1.37483 Y0.58233
G01 X1.37771 Y0.58161
G01 X1.38034 Y0.57931
G01 X1.38069 Y0.57865
G01 X1.38153 Y0.57569
G01 X1.38155 Y0.46535
G01 X1.38138 Y0.46383
G01 X1.37952 Y0.46045
G01 X1.26870 Y0.34963
G01 X1.26663 Y0.34822
G01 X1.26322 Y0.34763
G01 X1.26249 Y0.34779
G01 X1.25992 Y0.34887
G01 X1.25929 Y0.34928
G01 X1.25747 Y0.35187
G01 X1.25717 Y0.35255
G01 X1.25705 Y0.35600
G01 X1.25765 Y0.35842
G01 X1.25821 Y0.36493
G01 X1.25821 Y0.38102
G01 X1.25661 Y0.39044
G01 X1.25362 Y0.39866
G01 X1.24930 Y0.40625
G01 X1.24376 Y0.41301
G01 X1.24091 Y0.41549
G01 X1.23962 Y0.41697
G01 X1.23852 Y0.42072
G01 X1.23852 Y0.70533
G01 X1.23929 Y0.70850
G01 X1.24120 Y0.71076
G01 X1.24642 Y0.71584
G01 X1.24984 Y0.72136
G01 X1.25190 Y0.72754
G01 X1.25230 Y0.73139
G01 X1.25230 Y0.78437
G01 X1.25191 Y0.78816
G01 X1.24986 Y0.79435
G01 X1.24645 Y0.79989
G01 X1.24185 Y0.80449
G01 X1.23632 Y0.80791
G01 X1.23014 Y0.80998
G01 X1.22629 Y0.81038
G01 X1.19496 Y0.81038
G01 X1.19117 Y0.80999
G01 X1.18498 Y0.80793
G01 X1.17944 Y0.80452
G01 X1.17483 Y0.79992
G01 X1.17305 Y0.79716
G01 X1.17048 Y0.79528
G01 X1.16944 Y0.79492
G01 X1.16664 Y0.79478
G01 X1.16557 Y0.79504
G01 X1.16291 Y0.79659
G01 X1.15924 Y0.80039
G01 X1.15276 Y0.80499
G01 X1.14552 Y0.80828
G01 X1.13779 Y0.81015
G01 X1.12984 Y0.81051
G01 X1.12198 Y0.80937
G01 X1.11426 Y0.80665
G01 X1.10758 Y0.80278
G01 X1.10157 Y0.79757
G01 X1.09666 Y0.79132
G01 X1.09302 Y0.78425
G01 X1.09078 Y0.77662
G01 X1.09021 Y0.77069
G01 X1.09022 Y0.74296
G01 X1.09175 Y0.73516
G01 X1.09472 Y0.72778
G01 X1.09904 Y0.72109
G01 X1.10287 Y0.71692
G01 X1.10399 Y0.71314
G01 X1.10397 Y0.43415
G01 X1.10359 Y0.43216
G01 X1.10192 Y0.42958
G01 X1.10140 Y0.42904
G01 X1.09825 Y0.42763
G01 X1.09716 Y0.42747
G01 X1.08881 Y0.42487
G01 X1.08102 Y0.42091
G01 X1.07401 Y0.41569
G01 X1.06797 Y0.40937
G01 X1.06484 Y0.40472
G01 X1.06336 Y0.40313
G01 X1.06026 Y0.40181
G01 X1.05952 Y0.40168
G01 X1.05641 Y0.40226
G01 X1.05543 Y0.40278
G01 X1.05323 Y0.40493
G01 X1.05245 Y0.40625
G01 X1.04691 Y0.41301
G01 X1.04030 Y0.41874
G01 X1.03283 Y0.42328
G01 X1.02470 Y0.42649
G01 X1.01614 Y0.42829
G01 X1.00741 Y0.42861
G01 X0.99874 Y0.42747
G01 X0.99577 Y0.42656
G01 X0.99299 Y0.42642
G01 X0.99196 Y0.42666
G01 X0.98951 Y0.42800
G01 X0.95709 Y0.46031
G01 X0.95607 Y0.46162
G01 X0.95514 Y0.46466
G01 X0.95506 Y0.70533
G01 X0.95583 Y0.70850
G01 X0.95773 Y0.71076
G01 X0.96296 Y0.71584
G01 X0.96637 Y0.72136
G01 X0.96844 Y0.72754
G01 X0.96884 Y0.73139
G01 X0.96884 Y0.78437
G01 X0.96845 Y0.78816
G01 X0.96639 Y0.79435
G01 X0.96298 Y0.79989
G01 X0.95839 Y0.80449
G01 X0.95286 Y0.80791
G01 X0.94667 Y0.80998
G01 X0.94283 Y0.81038
G01 X0.91150 Y0.81038
G01 X0.90770 Y0.80999
G01 X0.90151 Y0.80793
G01 X0.89598 Y0.80452
G01 X0.89137 Y0.79992
G01 X0.88958 Y0.79716
G01 X0.88702 Y0.79528
G01 X0.88597 Y0.79492
G01 X0.88318 Y0.79478
G01 X0.88210 Y0.79504
G01 X0.87945 Y0.79659
G01 X0.87578 Y0.80039
G01 X0.86929 Y0.80499
G01 X0.86205 Y0.80828
G01 X0.85432 Y0.81015
G01 X0.84638 Y0.81051
G01 X0.83851 Y0.80937
G01 X0.83100 Y0.80677
G01 X0.82411 Y0.80278
G01 X0.81811 Y0.79757
G01 X0.81320 Y0.79132
G01 X0.80955 Y0.78425
G01 X0.80732 Y0.77662
G01 X0.80675 Y0.77069
G01 X0.80675 Y0.74318
G01 X0.80829 Y0.73516
G01 X0.81126 Y0.72778
G01 X0.81558 Y0.72109
G01 X0.81941 Y0.71692
G01 X0.82053 Y0.71314
G01 X0.82044 Y0.43247
G01 X0.82179 Y0.42610
G01 X0.82500 Y0.41953
G01 X0.82929 Y0.41447
G01 X0.83057 Y0.41345
G01 X0.85787 Y0.38615
G01 X0.85889 Y0.38484
G01 X0.85990 Y0.38124
G01 X0.85989 Y0.36732
G01 X0.85976 Y0.36663
G01 X0.85879 Y0.36401
G01 X0.85840 Y0.36338
G01 X0.85588 Y0.36145
G01 X0.85484 Y0.36106
G01 X0.85206 Y0.36086
G01 X0.85097 Y0.36110
G01 X0.84807 Y0.36278
G01 X0.65787 Y0.55297
G01 X0.65680 Y0.55439
G01 X0.65584 Y0.55787
G01 X0.65585 Y0.69354
G01 X0.65601 Y0.69485
G01 X0.65758 Y0.69792
G01 X0.66037 Y0.70087
G01 X0.66525 Y0.70812
G01 X0.66884 Y0.71610
G01 X0.67104 Y0.72456
G01 X0.67159 Y0.73107
G01 X0.67159 Y0.74717
G01 X0.66999 Y0.75658
G01 X0.66701 Y0.76480
G01 X0.66269 Y0.77240
G01 X0.65714 Y0.77916
G01 X0.65054 Y0.78489
G01 X0.64306 Y0.78942
G01 X0.63493 Y0.79263
G01 X0.62729 Y0.79424
G01 X0.62638 Y0.79443
G01 X0.61764 Y0.79476
G01 X0.60897 Y0.79361
G01 X0.60063 Y0.79101
G01 X0.59283 Y0.78705
G01 X0.58582 Y0.78183
G01 X0.57978 Y0.77551
G01 X0.57665 Y0.77086
G01 X0.57517 Y0.76927
G01 X0.57207 Y0.76796
G01 X0.57133 Y0.76782
G01 X0.56822 Y0.76840
G01 X0.56724 Y0.76892
G01 X0.56504 Y0.77107
G01 X0.56426 Y0.77240
G01 X0.55872 Y0.77916
G01 X0.55211 Y0.78489
G01 X0.54464 Y0.78942
G01 X0.53651 Y0.79263
G01 X0.52886 Y0.79424
G01 X0.52795 Y0.79443
G01 X0.51922 Y0.79476
G01 X0.51055 Y0.79361
G01 X0.50240 Y0.79108
G01 X0.49440 Y0.78705
G01 X0.48739 Y0.78183
G01 X0.48136 Y0.77551
G01 X0.47823 Y0.77086
G01 X0.47675 Y0.76927
G01 X0.47364 Y0.76796
G01 X0.47291 Y0.76782
G01 X0.46980 Y0.76840
G01 X0.46881 Y0.76892
G01 X0.46661 Y0.77107
G01 X0.46583 Y0.77240
G01 X0.46029 Y0.77916
G01 X0.45369 Y0.78489
G01 X0.44621 Y0.78942
G01 X0.43808 Y0.79263
G01 X0.42953 Y0.79443
G01 X0.42079 Y0.79476
G01 X0.41212 Y0.79361
G01 X0.40377 Y0.79101
G01 X0.39598 Y0.78705
G01 X0.38896 Y0.78183
G01 X0.38418 Y0.77689
G01 X0.38117 Y0.77551
G01 X0.38044 Y0.77535
G01 X0.37695 Y0.77592
G01 X0.37631 Y0.77630
G01 X0.37424 Y0.77817
G01 X0.37046 Y0.78414
G01 X0.36587 Y0.78874
G01 X0.36034 Y0.79217
G01 X0.35415 Y0.79423
G01 X0.35031 Y0.79463
G01 X0.29929 Y0.79463
G01 X0.29550 Y0.79424
G01 X0.28931 Y0.79219
G01 X0.28377 Y0.78877
G01 X0.27917 Y0.78418
G01 X0.27575 Y0.77865
G01 X0.27368 Y0.77246
G01 X0.27329 Y0.76862
G01 X0.27329 Y0.70776
G01 X0.27367 Y0.70397
G01 X0.27573 Y0.69778
G01 X0.27915 Y0.69223
G01 X0.28396 Y0.68721
G01 X0.28508 Y0.68369
G01 X0.28510 Y0.60055
G01 X0.28491 Y0.59831
G01 X0.28574 Y0.59053
G01 X0.28782 Y0.58386
G01 X0.29132 Y0.57734
G01 X0.29631 Y0.57132
G01 X0.29787 Y0.57002
G01 X0.61082 Y0.25707
G01 X0.61163 Y0.25609
G01 X0.61198 Y0.25541
G01 X0.61285 Y0.25217
G01 X0.61285 Y0.23365
G01 X0.61232 Y0.23107
G01 X0.61189 Y0.23022
G01 X0.61030 Y0.22836
G01 X0.60495 Y0.22314
G01 X0.60153 Y0.21762
G01 X0.59947 Y0.21144
G01 X0.59907 Y0.20759
G01 X0.59907 Y0.14674
G01 X0.59946 Y0.14294
G01 X0.60151 Y0.13675
G01 X0.60493 Y0.13122
G01 X0.60952 Y0.12661
G01 X0.61505 Y0.12319
G01 X0.62124 Y0.12113
G01 X0.62508 Y0.12073
G01 X0.67609 Y0.12073
G01 X0.67989 Y0.12112
G01 X0.68608 Y0.12317
G01 X0.69162 Y0.12658
G01 X0.69623 Y0.13119
G01 X0.70040 Y0.13773
G01 X0.70326 Y0.13956
G01 X0.70433 Y0.13984
G01 X0.70712 Y0.13977
G01 X0.70818 Y0.13943
G01 X0.71071 Y0.13768
G01 X0.71195 Y0.13620
G01 X0.71855 Y0.13047
G01 X0.72602 Y0.12593
G01 X0.73416 Y0.12272
G01 X0.74271 Y0.12093
G01 X0.75145 Y0.12060
G01 X0.76012 Y0.12175
G01 X0.76846 Y0.12434
G01 X0.77626 Y0.12830
G01 X0.78327 Y0.13352
G01 X0.78931 Y0.13985
G01 X0.79244 Y0.14450
G01 X0.79392 Y0.14609
G01 X0.79702 Y0.14740
G01 X0.79776 Y0.14754
G01 X0.80087 Y0.14695
G01 X0.80185 Y0.14644
G01 X0.80405 Y0.14429
G01 X0.80483 Y0.14296
G01 X0.81037 Y0.13620
G01 X0.81698 Y0.13047
G01 X0.82445 Y0.12593
G01 X0.83258 Y0.12272
G01 X0.84114 Y0.12093
G01 X0.84987 Y0.12060
G01 X0.85854 Y0.12175
G01 X0.86689 Y0.12434
G01 X0.87468 Y0.12830
G01 X0.88170 Y0.13352
G01 X0.88773 Y0.13985
G01 X0.89086 Y0.14450
G01 X0.89213 Y0.14589
G01 X0.89285 Y0.14638
G01 X0.89545 Y0.14740
G01 X0.89618 Y0.14754
G01 X0.89929 Y0.14695
G01 X0.90028 Y0.14644
G01 X0.90248 Y0.14429
G01 X0.90326 Y0.14296
G01 X0.90880 Y0.13620
G01 X0.91540 Y0.13047
G01 X0.92288 Y0.12593
G01 X0.93101 Y0.12272
G01 X0.93956 Y0.12093
G01 X0.94830 Y0.12060
G01 X0.95697 Y0.12175
G01 X0.96532 Y0.12434
G01 X0.97311 Y0.12830
G01 X0.98012 Y0.13352
G01 X0.98616 Y0.13985
G01 X0.99104 Y0.14710
G01 X0.99463 Y0.15507
G01 X0.99683 Y0.16353
G01 X0.99738 Y0.17005
G01 X0.99733 Y0.18696
G01 X0.99578 Y0.19556
G01 X0.99280 Y0.20377
G01 X0.98847 Y0.21137
G01 X0.98416 Y0.21671
G01 X0.98309 Y0.21891
G01 X0.98071 Y0.22656
G01 X0.97715 Y0.23304
G01 X0.97238 Y0.23872
G01 X0.97083 Y0.24002
G01 X0.90706 Y0.30378
G01 X0.90669 Y0.30429
G01 X0.90511 Y0.30766
G01 X0.90559 Y0.31139
G01 X0.90596 Y0.31203
G01 X0.90806 Y0.31440
G01 X0.90873 Y0.31474
G01 X0.91168 Y0.31559
G01 X0.93692 Y0.31561
G01 X0.94072 Y0.31600
G01 X0.94691 Y0.31805
G01 X0.95244 Y0.32147
G01 X0.95705 Y0.32607
G01 X0.96123 Y0.33261
G01 X0.96409 Y0.33444
G01 X0.96516 Y0.33473
G01 X0.96795 Y0.33465
G01 X0.96901 Y0.33431
G01 X0.97154 Y0.33256
G01 X0.97277 Y0.33108
G01 X0.97938 Y0.32535
G01 X0.98685 Y0.32082
G01 X0.99498 Y0.31761
G01 X1.00354 Y0.31581
G01 X1.01228 Y0.31548
G01 X1.02094 Y0.31663
G01 X1.02929 Y0.31922
G01 X1.03708 Y0.32319
G01 X1.04410 Y0.32840
G01 X1.05013 Y0.33473
G01 X1.05326 Y0.33938
G01 X1.05475 Y0.34097
G01 X1.05785 Y0.34228
G01 X1.05858 Y0.34242
G01 X1.06170 Y0.34184
G01 X1.06268 Y0.34132
G01 X1.06488 Y0.33917
G01 X1.06566 Y0.33784
G01 X1.07120 Y0.33108
G01 X1.07780 Y0.32535
G01 X1.08528 Y0.32082
G01 X1.09322 Y0.31768
G01 X1.10197 Y0.31581
G01 X1.11070 Y0.31548
G01 X1.11937 Y0.31663
G01 X1.12772 Y0.31922
G01 X1.13551 Y0.32319
G01 X1.14252 Y0.32840
G01 X1.14856 Y0.33473
G01 X1.15169 Y0.33938
G01 X1.15296 Y0.34077
G01 X1.15367 Y0.34126
G01 X1.15627 Y0.34228
G01 X1.15701 Y0.34242
G01 X1.16012 Y0.34184
G01 X1.16110 Y0.34132
G01 X1.16330 Y0.33917
G01 X1.16408 Y0.33784
G01 X1.16962 Y0.33108
G01 X1.17623 Y0.32535
G01 X1.18370 Y0.32082
G01 X1.19183 Y0.31761
G01 X1.20039 Y0.31581
G01 X1.20913 Y0.31548
G01 X1.21985 Y0.31671
G01 X1.22277 Y0.31565
G01 X1.22340 Y0.31526
G01 X1.22553 Y0.31243
G01 X1.22572 Y0.31171
G01 X1.22591 Y0.30855
G01 X1.22568 Y0.30784
G01 X1.22401 Y0.30494
G01 X1.17757 Y0.25850
G01 X1.17585 Y0.25704
G01 X1.17117 Y0.25130
G01 X1.16754 Y0.24439
G01 X1.16556 Y0.23769
G01 X1.16510 Y0.23304
G01 X1.16447 Y0.23077
G01 X1.16234 Y0.22822
G01 X1.15712 Y0.22314
G01 X1.15370 Y0.21762
G01 X1.15164 Y0.21144
G01 X1.15124 Y0.20759
G01 X1.15124 Y0.14674
G01 X1.15163 Y0.14294
G01 X1.15368 Y0.13675
G01 X1.15709 Y0.13122
G01 X1.16169 Y0.12661
G01 X1.16722 Y0.12319
G01 X1.17340 Y0.12113
G01 X1.17725 Y0.12073
G01 X1.22826 Y0.12073
G01 X1.23206 Y0.12112
G01 X1.23824 Y0.12317
G01 X1.24378 Y0.12658
G01 X1.24839 Y0.13119
G01 X1.25257 Y0.13773
G01 X1.25542 Y0.13956
G01 X1.25650 Y0.13984
G01 X1.25929 Y0.13977
G01 X1.26035 Y0.13943
G01 X1.26288 Y0.13768
G01 X1.26411 Y0.13620
G01 X1.27072 Y0.13047
G01 X1.27819 Y0.12594
G01 X1.28652 Y0.12268
G01 X1.29488 Y0.12093
G01 X1.30361 Y0.12060
G01 X1.31228 Y0.12175
G01 X1.32063 Y0.12434
G01 X1.32842 Y0.12830
G01 X1.33544 Y0.13352
G01 X1.34147 Y0.13985
G01 X1.34460 Y0.14450
G01 X1.34608 Y0.14609
G01 X1.34919 Y0.14740
G01 X1.34992 Y0.14754
G01 X1.35303 Y0.14695
G01 X1.35402 Y0.14644
G01 X1.35622 Y0.14429
G01 X1.35700 Y0.14296
G01 X1.36254 Y0.13620
G01 X1.36914 Y0.13047
G01 X1.37662 Y0.12593
G01 X1.38475 Y0.12272
G01 X1.39330 Y0.12093
G01 X1.40204 Y0.12060
G01 X1.41071 Y0.12175
G01 X1.41906 Y0.12434
G01 X1.42685 Y0.12830
G01 X1.43386 Y0.13352
G01 X1.43990 Y0.13985
G01 X1.44303 Y0.14450
G01 X1.44429 Y0.14589
G01 X1.44501 Y0.14638
G01 X1.44761 Y0.14740
G01 X1.44835 Y0.14754
G01 X1.45146 Y0.14695
G01 X1.45244 Y0.14644
G01 X1.45464 Y0.14429
G01 X1.45542 Y0.14296
G01 X1.46096 Y0.13620
G01 X1.46757 Y0.13047
G01 X1.47504 Y0.12593
G01 X1.48317 Y0.12272
G01 X1.49173 Y0.12093
G01 X1.50046 Y0.12060
G01 X1.50913 Y0.12175
G01 X1.51748 Y0.12434
G01 X1.52527 Y0.12830
G01 X1.53229 Y0.13352
G01 X1.53832 Y0.13985
G01 X1.54320 Y0.14710
G01 X1.54680 Y0.15507
G01 X1.54899 Y0.16353
G01 X1.54954 Y0.17005
G01 X1.54950 Y0.18696
G01 X1.54795 Y0.19556
G01 X1.54496 Y0.20377
G01 X1.54064 Y0.21137
G01 X1.53509 Y0.21813
G01 X1.52837 Y0.22397
G01 X1.52720 Y0.22526
G01 X1.52679 Y0.22601
G01 X1.52600 Y0.22869
G01 X1.52593 Y0.25154
G01 X1.52613 Y0.25297
G01 X1.52777 Y0.25601
G01 X1.86215 Y0.59030
G01 X1.86571 Y0.59576
G01 X1.86808 Y0.60267
G01 X1.86862 Y0.60928
G01 X1.86844 Y0.61091
G01 X1.86845 Y0.70555
G01 X1.86922 Y0.70850
G01 X1.87112 Y0.71076
G01 X1.87634 Y0.71584
G01 X1.87976 Y0.72136
G01 X1.88182 Y0.72754
G01 X1.88222 Y0.73139
G01 X1.88026 Y0.73149
G01 X1.88026 Y0.78426
G01 X1.87991 Y0.78775
G01 X1.87800 Y0.79352
G01 X1.87482 Y0.79867
G01 X1.87055 Y0.80295
G01 X1.86541 Y0.80613
G01 X1.85964 Y0.80805
G01 X1.85611 Y0.80841
G01 X1.82499 Y0.80841
G01 X1.82150 Y0.80807
G01 X1.81573 Y0.80615
G01 X1.81058 Y0.80298
G01 X1.80630 Y0.79868
G01 X1.80440 Y0.79581
G01 X1.80090 Y0.79331
G01 X1.79946 Y0.79295
G01 X1.79592 Y0.79285
G01 X1.79451 Y0.79333
G01 X1.79162 Y0.79504
G01 X1.78788 Y0.79890
G01 X1.78170 Y0.80329
G01 X1.77480 Y0.80642
G01 X1.76743 Y0.80820
G01 X1.75986 Y0.80854
G01 X1.75236 Y0.80745
G01 X1.74521 Y0.80497
G01 X1.73865 Y0.80117
G01 X1.73292 Y0.79621
G01 X1.72824 Y0.79025
G01 X1.72478 Y0.78351
G01 X1.72264 Y0.77624
G01 X1.72210 Y0.77059
G01 X1.72210 Y0.74336
G01 X1.72357 Y0.73571
G01 X1.72640 Y0.72869
G01 X1.73053 Y0.72230
G01 X1.73442 Y0.71802
G01 X1.73494 Y0.71693
G01 X1.73584 Y0.71370
G01 X1.73588 Y0.60694
G01 X1.73550 Y0.60447
G01 X1.73395 Y0.60155
G01 X1.73328 Y0.60065
G01 X1.60724 Y0.47462
G01 X1.60468 Y0.47283
G01 X1.60351 Y0.47248
G01 X1.60074 Y0.47210
G01 X1.59925 Y0.47219
G01 X1.59536 Y0.47400
G01 X1.59434 Y0.47508
G01 X1.59285 Y0.47745
G01 X1.59233 Y0.47873
G01 X1.59225 Y0.47942
G01 X1.59218 Y0.48231
G01 X1.59240 Y0.48342
G01 X1.59303 Y0.49056
G01 X1.59285 Y0.49259
G01 X1.59292 Y0.59154
G01 X1.59325 Y0.59332
G01 X1.59366 Y0.59448
G01 X1.59569 Y0.59722
G01 X1.59649 Y0.59800
G01 X1.59833 Y0.59935
G01 X1.60502 Y0.60597
G01 X1.61054 Y0.61337
G01 X1.61511 Y0.62181
G01 X1.61828 Y0.63067
G01 X1.62012 Y0.63990
G01 X1.62057 Y0.64930
G01 X1.61963 Y0.65867
G01 X1.61731 Y0.66779
G01 X1.61367 Y0.67647
G01 X1.60879 Y0.68452
G01 X1.60277 Y0.69175
G01 X1.59560 Y0.69812
G01 X1.58787 Y0.70319
G01 X1.57933 Y0.70713
G01 X1.57029 Y0.70976
G01 X1.56096 Y0.71103
G01 X1.55155 Y0.71090
G01 X1.54226 Y0.70939
G01 X1.53329 Y0.70652
G01 X1.52485 Y0.70236
G01 X1.51712 Y0.69699
G01 X1.51026 Y0.69054
G01 X1.50444 Y0.68316
G01 X1.49948 Y0.67440
G01 X1.49751 Y0.67173
G01 X1.49640 Y0.67098
G01 X1.49385 Y0.66981
G01 X1.49241 Y0.66946
G01 X1.49166 Y0.66950
G01 X1.48889 Y0.66990
G01 X1.48749 Y0.67038
G01 X1.48425 Y0.67319
G01 X1.48356 Y0.67452
G01 X1.48278 Y0.67720
G01 X1.48262 Y0.67831
G01 X1.48264 Y0.69657
G01 X1.48243 Y0.69831
G01 X1.48081 Y0.70270
G01 X1.47804 Y0.70639
G01 X1.47435 Y0.70915
G01 X1.46996 Y0.71081
G01 X1.46821 Y0.71097
G01 X1.37036 Y0.71099
G01 X1.36862 Y0.71078
G01 X1.36423 Y0.70916
G01 X1.36054 Y0.70639
G01 X1.35776 Y0.70270
G01 X1.35615 Y0.69831
G01 X1.35594 Y0.69657
G01 X1.35594 Y0.59871
G01 X1.35615 Y0.59697
G01 X1.35776 Y0.59258
G01 X1.36054 Y0.58889
G01 X1.36423 Y0.58612
G01 X1.36861 Y0.58448
G01 X1.37036 Y0.58431
G01 X1.37504 Y0.58429
G01 X1.37752 Y0.58377
G01 X1.37873 Y0.58329
G01 X1.38189 Y0.58053
G01 X1.38257 Y0.57920
G01 X1.38348 Y0.57597
G01 X1.38352 Y0.46535
G01 X1.38330 Y0.46337
G01 X1.38159 Y0.45996
G01 X1.38091 Y0.45906
G01 X1.27010 Y0.34824
G01 X1.26830 Y0.34689
G01 X1.26726 Y0.34636
G01 X1.26319 Y0.34567
G01 X1.26173 Y0.34597
G01 X1.25915 Y0.34705
G01 X1.25791 Y0.34788
G01 X1.25585 Y0.35075
G01 X1.25525 Y0.35212
G01 X1.25509 Y0.35622
G01 X1.25571 Y0.35875
G01 X1.25624 Y0.36501
G01 X1.25625 Y0.38098
G01 X1.25471 Y0.38993
G01 X1.25184 Y0.39783
G01 X1.24768 Y0.40514
G01 X1.24234 Y0.41164
G01 X1.23962 Y0.41400
G01 X1.23796 Y0.41591
G01 X1.23750 Y0.41693
G01 X1.23671 Y0.41961
G01 X1.23655 Y0.42072
G01 X1.23655 Y0.70533
G01 X1.23714 Y0.70835
G01 X1.23761 Y0.70952
G01 X1.23983 Y0.71217
G01 X1.24489 Y0.71707
G01 X1.24806 Y0.72219
G01 X1.24999 Y0.72795
G01 X1.25033 Y0.73149
G01 X1.25033 Y0.78426
G01 X1.25000 Y0.78775
G01 X1.24808 Y0.79352
G01 X1.24490 Y0.79867
G01 X1.24063 Y0.80295
G01 X1.23549 Y0.80613
G01 X1.22972 Y0.80807
G01 X1.22619 Y0.80841
G01 X1.19507 Y0.80841
G01 X1.19158 Y0.80807
G01 X1.18581 Y0.80615
G01 X1.18066 Y0.80298
G01 X1.17638 Y0.79868
G01 X1.17448 Y0.79581
G01 X1.17163 Y0.79368
G01 X1.17028 Y0.79306
G01 X1.16674 Y0.79281
G01 X1.16527 Y0.79302
G01 X1.16170 Y0.79504
G01 X1.15795 Y0.79890
G01 X1.15177 Y0.80329
G01 X1.14488 Y0.80642
G01 X1.13751 Y0.80820
G01 X1.12994 Y0.80854
G01 X1.12245 Y0.80745
G01 X1.11509 Y0.80485
G01 X1.10873 Y0.80117
G01 X1.10300 Y0.79621
G01 X1.09832 Y0.79025
G01 X1.09485 Y0.78351
G01 X1.09272 Y0.77624
G01 X1.09218 Y0.77060
G01 X1.09219 Y0.74315
G01 X1.09364 Y0.73572
G01 X1.09648 Y0.72869
G01 X1.10060 Y0.72230
G01 X1.10450 Y0.71802
G01 X1.10502 Y0.71693
G01 X1.10580 Y0.71425
G01 X1.10596 Y0.71314
G01 X1.10592 Y0.43386
G01 X1.10537 Y0.43132
G01 X1.10356 Y0.42849
G01 X1.10252 Y0.42743
G01 X1.09878 Y0.42574
G01 X1.09759 Y0.42554
G01 X1.08956 Y0.42304
G01 X1.08206 Y0.41923
G01 X1.07531 Y0.41421
G01 X1.06951 Y0.40813
G01 X1.06647 Y0.40362
G01 X1.06459 Y0.40159
G01 X1.06358 Y0.40101
G01 X1.06098 Y0.39998
G01 X1.05951 Y0.39971
G01 X1.05531 Y0.40055
G01 X1.05406 Y0.40136
G01 X1.05167 Y0.40372
G01 X1.05082 Y0.40514
G01 X1.04550 Y0.41164
G01 X1.03914 Y0.41715
G01 X1.03195 Y0.42152
G01 X1.02413 Y0.42461
G01 X1.01590 Y0.42633
G01 X1.00750 Y0.42664
G01 X0.99916 Y0.42554
G01 X0.99611 Y0.42462
G01 X0.99308 Y0.42446
G01 X0.99167 Y0.42465
G01 X0.98857 Y0.42628
G01 X0.98767 Y0.42695
G01 X0.95569 Y0.45892
G01 X0.95432 Y0.46071
G01 X0.95325 Y0.46410
G01 X0.95309 Y0.46521
G01 X0.95309 Y0.70533
G01 X0.95367 Y0.70835
G01 X0.95415 Y0.70952
G01 X0.95636 Y0.71217
G01 X0.96142 Y0.71707
G01 X0.96459 Y0.72219
G01 X0.96653 Y0.72795
G01 X0.96687 Y0.73149
G01 X0.96687 Y0.78426
G01 X0.96652 Y0.78775
G01 X0.96461 Y0.79352
G01 X0.96144 Y0.79867
G01 X0.95716 Y0.80295
G01 X0.95202 Y0.80613
G01 X0.94626 Y0.80805
G01 X0.94272 Y0.80841
G01 X0.91160 Y0.80841
G01 X0.90811 Y0.80807
G01 X0.90235 Y0.80615
G01 X0.89720 Y0.80298
G01 X0.89291 Y0.79868
G01 X0.89101 Y0.79581
G01 X0.88752 Y0.79331
G01 X0.88607 Y0.79295
G01 X0.88253 Y0.79285
G01 X0.88112 Y0.79333
G01 X0.87823 Y0.79504
G01 X0.87449 Y0.79890
G01 X0.86831 Y0.80329
G01 X0.86141 Y0.80642
G01 X0.85404 Y0.80820
G01 X0.84647 Y0.80854
G01 X0.83898 Y0.80745
G01 X0.83182 Y0.80497
G01 X0.82526 Y0.80117
G01 X0.81954 Y0.79621
G01 X0.81486 Y0.79025
G01 X0.81139 Y0.78351
G01 X0.80926 Y0.77624
G01 X0.80872 Y0.77059
G01 X0.80872 Y0.74336
G01 X0.81018 Y0.73571
G01 X0.81301 Y0.72869
G01 X0.81714 Y0.72230
G01 X0.82104 Y0.71802
G01 X0.82155 Y0.71693
G01 X0.82234 Y0.71425
G01 X0.82250 Y0.71314
G01 X0.82240 Y0.43258
G01 X0.82367 Y0.42664
G01 X0.82657 Y0.42070
G01 X0.83067 Y0.41590
G01 X0.83196 Y0.41484
G01 X0.85926 Y0.38754
G01 X0.86063 Y0.38575
G01 X0.86171 Y0.38236
G01 X0.86187 Y0.38124
G01 X0.86185 Y0.36732
G01 X0.86161 Y0.36595
G01 X0.86063 Y0.36333
G01 X0.85985 Y0.36205
G01 X0.85706 Y0.35988
G01 X0.85572 Y0.35922
G01 X0.85220 Y0.35890
G01 X0.85145 Y0.35892
G01 X0.85003 Y0.35937
G01 X0.84758 Y0.36071
G01 X0.84668 Y0.36138
G01 X0.65648 Y0.55158
G01 X0.65500 Y0.55360
G01 X0.65404 Y0.55676
G01 X0.65388 Y0.55787
G01 X0.65389 Y0.69372
G01 X0.65412 Y0.69540
G01 X0.65569 Y0.69858
G01 X0.65634 Y0.69949
G01 X0.65883 Y0.70211
G01 X0.66353 Y0.70908
G01 X0.66699 Y0.71675
G01 X0.66911 Y0.72489
G01 X0.66962 Y0.73116
G01 X0.66963 Y0.74712
G01 X0.66809 Y0.75607
G01 X0.66522 Y0.76397
G01 X0.66106 Y0.77128
G01 X0.65573 Y0.77778
G01 X0.64938 Y0.78330
G01 X0.64219 Y0.78766
G01 X0.63437 Y0.79075
G01 X0.62688 Y0.79232
G01 X0.62614 Y0.79247
G01 X0.61773 Y0.79278
G01 X0.60940 Y0.79168
G01 X0.60137 Y0.78918
G01 X0.59387 Y0.78537
G01 X0.58713 Y0.78035
G01 X0.58132 Y0.77427
G01 X0.57829 Y0.76976
G01 X0.57640 Y0.76773
G01 X0.57539 Y0.76715
G01 X0.57279 Y0.76612
G01 X0.57132 Y0.76585
G01 X0.56784 Y0.76647
G01 X0.56646 Y0.76704
G01 X0.56348 Y0.76986
G01 X0.56263 Y0.77128
G01 X0.55731 Y0.77778
G01 X0.55095 Y0.78330
G01 X0.54376 Y0.78766
G01 X0.53594 Y0.79075
G01 X0.52771 Y0.79247
G01 X0.51931 Y0.79278
G01 X0.51097 Y0.79168
G01 X0.50314 Y0.78925
G01 X0.49544 Y0.78537
G01 X0.48870 Y0.78035
G01 X0.48290 Y0.77427
G01 X0.47986 Y0.76976
G01 X0.47797 Y0.76773
G01 X0.47696 Y0.76715
G01 X0.47436 Y0.76612
G01 X0.47290 Y0.76585
G01 X0.46869 Y0.76669
G01 X0.46745 Y0.76750
G01 X0.46506 Y0.76986
G01 X0.46421 Y0.77128
G01 X0.45888 Y0.77778
G01 X0.45253 Y0.78330
G01 X0.44534 Y0.78766
G01 X0.43752 Y0.79075
G01 X0.42929 Y0.79247
G01 X0.42088 Y0.79278
G01 X0.41255 Y0.79168
G01 X0.40452 Y0.78918
G01 X0.39702 Y0.78537
G01 X0.39027 Y0.78035
G01 X0.38579 Y0.77570
G01 X0.38498 Y0.77505
G01 X0.38196 Y0.77370
G01 X0.38050 Y0.77338
G01 X0.37627 Y0.77407
G01 X0.37500 Y0.77484
G01 X0.37253 Y0.77711
G01 X0.36892 Y0.78292
G01 X0.36464 Y0.78720
G01 X0.35950 Y0.79038
G01 X0.35374 Y0.79230
G01 X0.35020 Y0.79266
G01 X0.29940 Y0.79266
G01 X0.29591 Y0.79233
G01 X0.29014 Y0.79040
G01 X0.28499 Y0.78723
G01 X0.28071 Y0.78295
G01 X0.27753 Y0.77781
G01 X0.27561 Y0.77205
G01 X0.27525 Y0.76851
G01 X0.27525 Y0.70786
G01 X0.27560 Y0.70438
G01 X0.27751 Y0.69861
G01 X0.28070 Y0.69343
G01 X0.28557 Y0.68834
G01 X0.28612 Y0.68720
G01 X0.28702 Y0.68397
G01 X0.28706 Y0.60055
G01 X0.28689 Y0.59833
G01 X0.28768 Y0.59093
G01 X0.28965 Y0.58462
G01 X0.29296 Y0.57844
G01 X0.29771 Y0.57272
G01 X0.29926 Y0.57141
G01 X0.61221 Y0.25846
G01 X0.61316 Y0.25732
G01 X0.61387 Y0.25596
G01 X0.61466 Y0.25328
G01 X0.61482 Y0.25217
G01 X0.61482 Y0.23365
G01 X0.61424 Y0.23063
G01 X0.61376 Y0.22946
G01 X0.61180 Y0.22708
G01 X0.60648 Y0.22191
G01 X0.60332 Y0.21679
G01 X0.60138 Y0.21103
G01 X0.60104 Y0.20749
G01 X0.60104 Y0.14684
G01 X0.60139 Y0.14335
G01 X0.60330 Y0.13759
G01 X0.60647 Y0.13244
G01 X0.61074 Y0.12816
G01 X0.61589 Y0.12497
G01 X0.62165 Y0.12305
G01 X0.62519 Y0.12270
G01 X0.67599 Y0.12270
G01 X0.67948 Y0.12303
G01 X0.68525 Y0.12496
G01 X0.69040 Y0.12813
G01 X0.69469 Y0.13242
G01 X0.69856 Y0.13854
G01 X0.69936 Y0.13945
G01 X0.70291 Y0.14157
G01 X0.70438 Y0.14181
G01 X0.70792 Y0.14164
G01 X0.70929 Y0.14105
G01 X0.71204 Y0.13913
G01 X0.71336 Y0.13758
G01 X0.71971 Y0.13207
G01 X0.72690 Y0.12770
G01 X0.73472 Y0.12462
G01 X0.74295 Y0.12289
G01 X0.75136 Y0.12257
G01 X0.75969 Y0.12367
G01 X0.76772 Y0.12617
G01 X0.77522 Y0.12998
G01 X0.78197 Y0.13500
G01 X0.78777 Y0.14108
G01 X0.79080 Y0.14560
G01 X0.79269 Y0.14763
G01 X0.79370 Y0.14821
G01 X0.79630 Y0.14923
G01 X0.79777 Y0.14951
G01 X0.80197 Y0.14867
G01 X0.80322 Y0.14786
G01 X0.80561 Y0.14550
G01 X0.80646 Y0.14408
G01 X0.81179 Y0.13758
G01 X0.81814 Y0.13207
G01 X0.82533 Y0.12770
G01 X0.83315 Y0.12462
G01 X0.84138 Y0.12289
G01 X0.84978 Y0.12257
G01 X0.85812 Y0.12367
G01 X0.86615 Y0.12617
G01 X0.87365 Y0.12998
G01 X0.88039 Y0.13500
G01 X0.88620 Y0.14108
G01 X0.88923 Y0.14560
G01 X0.89112 Y0.14763
G01 X0.89213 Y0.14821
G01 X0.89473 Y0.14923
G01 X0.89619 Y0.14951
G01 X0.90040 Y0.14867
G01 X0.90164 Y0.14786
G01 X0.90403 Y0.14550
G01 X0.90488 Y0.14408
G01 X0.91021 Y0.13758
G01 X0.91656 Y0.13207
G01 X0.92375 Y0.12770
G01 X0.93157 Y0.12462
G01 X0.93980 Y0.12289
G01 X0.94821 Y0.12257
G01 X0.95654 Y0.12367
G01 X0.96458 Y0.12617
G01 X0.97207 Y0.12998
G01 X0.97882 Y0.13500
G01 X0.98462 Y0.14108
G01 X0.98932 Y0.14806
G01 X0.99277 Y0.15573
G01 X0.99489 Y0.16387
G01 X0.99541 Y0.17013
G01 X0.99537 Y0.18678
G01 X0.99388 Y0.19504
G01 X0.99101 Y0.20295
G01 X0.98685 Y0.21026
G01 X0.98240 Y0.21583
G01 X0.98122 Y0.21833
G01 X0.97890 Y0.22579
G01 X0.97553 Y0.23193
G01 X0.97099 Y0.23732
G01 X0.96943 Y0.23863
G01 X0.90567 Y0.30239
G01 X0.90493 Y0.30341
G01 X0.90353 Y0.30621
G01 X0.90317 Y0.30735
G01 X0.90316 Y0.30854
G01 X0.90373 Y0.31203
G01 X0.90448 Y0.31332
G01 X0.90685 Y0.31595
G01 X0.90817 Y0.31663
G01 X0.91140 Y0.31754
G01 X0.93682 Y0.31758
G01 X0.94031 Y0.31792
G01 X0.94607 Y0.31984
G01 X0.95122 Y0.32301
G01 X0.95552 Y0.32730
G01 X0.95939 Y0.33342
G01 X0.96018 Y0.33433
G01 X0.96374 Y0.33645
G01 X0.96521 Y0.33669
G01 X0.96875 Y0.33653
G01 X0.97012 Y0.33594
G01 X0.97286 Y0.33401
G01 X0.97419 Y0.33246
G01 X0.98054 Y0.32695
G01 X0.98773 Y0.32259
G01 X0.99555 Y0.31950
G01 X1.00378 Y0.31777
G01 X1.01218 Y0.31745
G01 X1.02052 Y0.31855
G01 X1.02855 Y0.32105
G01 X1.03605 Y0.32486
G01 X1.04279 Y0.32988
G01 X1.04860 Y0.33597
G01 X1.05163 Y0.34048
G01 X1.05352 Y0.34251
G01 X1.05453 Y0.34309
G01 X1.05713 Y0.34411
G01 X1.05859 Y0.34439
G01 X1.06280 Y0.34355
G01 X1.06405 Y0.34274
G01 X1.06643 Y0.34038
G01 X1.06728 Y0.33896
G01 X1.07262 Y0.33246
G01 X1.07897 Y0.32695
G01 X1.08615 Y0.32259
G01 X1.09379 Y0.31957
G01 X1.10221 Y0.31777
G01 X1.11061 Y0.31745
G01 X1.11895 Y0.31855
G01 X1.12698 Y0.32105
G01 X1.13447 Y0.32486
G01 X1.14122 Y0.32988
G01 X1.14702 Y0.33597
G01 X1.15006 Y0.34048
G01 X1.15195 Y0.34251
G01 X1.15295 Y0.34309
G01 X1.15556 Y0.34411
G01 X1.15702 Y0.34439
G01 X1.16051 Y0.34377
G01 X1.16189 Y0.34320
G01 X1.16486 Y0.34038
G01 X1.16571 Y0.33896
G01 X1.17104 Y0.33246
G01 X1.17739 Y0.32695
G01 X1.18458 Y0.32259
G01 X1.19240 Y0.31950
G01 X1.20063 Y0.31777
G01 X1.20905 Y0.31745
G01 X1.21898 Y0.31869
G01 X1.22023 Y0.31864
G01 X1.22346 Y0.31750
G01 X1.22473 Y0.31672
G01 X1.22730 Y0.31329
G01 X1.22768 Y0.31185
G01 X1.22786 Y0.30831
G01 X1.22741 Y0.30689
G01 X1.22577 Y0.30397
G01 X1.17896 Y0.25711
G01 X1.17726 Y0.25566
G01 X1.17282 Y0.25021
G01 X1.16938 Y0.24364
G01 X1.16750 Y0.23731
G01 X1.16706 Y0.23285
G01 X1.16627 Y0.22996
G01 X1.16563 Y0.22897
G01 X1.16392 Y0.22703
G01 X1.15865 Y0.22191
G01 X1.15548 Y0.21679
G01 X1.15356 Y0.21102
G01 X1.15321 Y0.20749
G01 X1.15321 Y0.14684
G01 X1.15355 Y0.14335
G01 X1.15546 Y0.13759
G01 X1.15864 Y0.13244
G01 X1.16291 Y0.12816
G01 X1.16805 Y0.12497
G01 X1.17382 Y0.12305
G01 X1.17735 Y0.12270
G01 X1.22816 Y0.12270
G01 X1.23165 Y0.12303
G01 X1.23741 Y0.12496
G01 X1.24256 Y0.12813
G01 X1.24685 Y0.13242
G01 X1.25073 Y0.13854
G01 X1.25152 Y0.13945
G01 X1.25508 Y0.14157
G01 X1.25655 Y0.14181
G01 X1.26009 Y0.14164
G01 X1.26146 Y0.14105
G01 X1.26420 Y0.13913
G01 X1.26553 Y0.13758
G01 X1.27188 Y0.13207
G01 X1.27906 Y0.12771
G01 X1.28709 Y0.12457
G01 X1.29512 Y0.12289
G01 X1.30352 Y0.12257
G01 X1.31186 Y0.12367
G01 X1.31989 Y0.12617
G01 X1.32739 Y0.12998
G01 X1.33413 Y0.13500
G01 X1.33994 Y0.14108
G01 X1.34297 Y0.14560
G01 X1.34486 Y0.14763
G01 X1.34587 Y0.14821
G01 X1.34847 Y0.14923
G01 X1.34993 Y0.14951
G01 X1.35414 Y0.14867
G01 X1.35538 Y0.14786
G01 X1.35777 Y0.14550
G01 X1.35862 Y0.14408
G01 X1.36395 Y0.13758
G01 X1.37030 Y0.13207
G01 X1.37749 Y0.12770
G01 X1.38531 Y0.12462
G01 X1.39354 Y0.12289
G01 X1.40195 Y0.12257
G01 X1.41028 Y0.12367
G01 X1.41832 Y0.12617
G01 X1.42581 Y0.12998
G01 X1.43256 Y0.13500
G01 X1.43836 Y0.14108
G01 X1.44139 Y0.14560
G01 X1.44329 Y0.14763
G01 X1.44429 Y0.14821
G01 X1.44689 Y0.14923
G01 X1.44836 Y0.14951
G01 X1.45256 Y0.14867
G01 X1.45381 Y0.14786
G01 X1.45620 Y0.14550
G01 X1.45705 Y0.14408
G01 X1.46238 Y0.13758
G01 X1.46873 Y0.13207
G01 X1.47592 Y0.12770
G01 X1.48374 Y0.12462
G01 X1.49197 Y0.12289
G01 X1.50037 Y0.12257
G01 X1.50871 Y0.12367
G01 X1.51674 Y0.12617
G01 X1.52424 Y0.12998
G01 X1.53098 Y0.13500
G01 X1.53679 Y0.14108
G01 X1.54148 Y0.14806
G01 X1.54494 Y0.15573
G01 X1.54706 Y0.16386
G01 X1.54758 Y0.17013
G01 X1.54754 Y0.18678
G01 X1.54605 Y0.19504
G01 X1.54318 Y0.20295
G01 X1.53902 Y0.21026
G01 X1.53368 Y0.21676
G01 X1.52708 Y0.22249
G01 X1.52538 Y0.22441
G01 X1.52490 Y0.22545
G01 X1.52411 Y0.22813
G01 X1.52395 Y0.22924
G01 X1.52398 Y0.25175
G01 X1.52425 Y0.25356
G01 X1.52619 Y0.25719
G01 X1.86069 Y0.59161
G01 X1.86399 Y0.59671
G01 X1.86614 Y0.60296
G01 X1.86664 Y0.60925
G01 X1.86647 Y0.61091
G01 X1.86650 Y0.70577
G01 X1.86706 Y0.70835
G01 X1.86753 Y0.70952
G01 X1.86975 Y0.71217
G01 X1.87481 Y0.71707
G01 X1.87798 Y0.72219
G01 X1.87990 Y0.72795
G01 X1.88026 Y0.73149
G01 X1.87829 Y0.73159
G01 X1.87829 Y0.78416
G01 X1.87797 Y0.78733
G01 X1.87620 Y0.79268
G01 X1.87327 Y0.79744
G01 X1.86932 Y0.80140
G01 X1.86457 Y0.80434
G01 X1.85923 Y0.80612
G01 X1.85601 Y0.80644
G01 X1.82509 Y0.80644
G01 X1.82191 Y0.80614
G01 X1.81657 Y0.80435
G01 X1.81181 Y0.80143
G01 X1.80785 Y0.79744
G01 X1.80653 Y0.79536
G01 X1.80583 Y0.79446
G01 X1.80497 Y0.79371
G01 X1.80172 Y0.79152
G01 X1.80066 Y0.79115
G01 X1.79955 Y0.79099
G01 X1.79564 Y0.79090
G01 X1.79455 Y0.79116
G01 X1.79353 Y0.79163
G01 X1.79040 Y0.79349
G01 X1.78658 Y0.79740
G01 X1.78071 Y0.80157
G01 X1.77415 Y0.80455
G01 X1.76715 Y0.80624
G01 X1.75996 Y0.80657
G01 X1.75283 Y0.80553
G01 X1.74603 Y0.80317
G01 X1.73979 Y0.79956
G01 X1.73436 Y0.79484
G01 X1.72991 Y0.78918
G01 X1.72661 Y0.78278
G01 X1.72458 Y0.77587
G01 X1.72407 Y0.77050
G01 X1.72407 Y0.74355
G01 X1.72547 Y0.73627
G01 X1.72815 Y0.72960
G01 X1.73209 Y0.72351
G01 X1.73606 Y0.71912
G01 X1.73683 Y0.71748
G01 X1.73779 Y0.71398
G01 X1.73785 Y0.60694
G01 X1.73770 Y0.60526
G01 X1.73734 Y0.60376
G01 X1.73568 Y0.60061
G01 X1.73467 Y0.59926
G01 X1.60863 Y0.47323
G01 X1.60553 Y0.47106
G01 X1.60377 Y0.47053
G01 X1.60100 Y0.47015
G01 X1.59988 Y0.47011
G01 X1.59877 Y0.47028
G01 X1.59771 Y0.47065
G01 X1.59421 Y0.47240
G01 X1.59337 Y0.47314
G01 X1.59268 Y0.47403
G01 X1.59119 Y0.47639
G01 X1.59071 Y0.47732
G01 X1.59028 Y0.47936
G01 X1.59022 Y0.48249
G01 X1.59045 Y0.48372
G01 X1.59105 Y0.49056
G01 X1.59088 Y0.49259
G01 X1.59088 Y0.59083
G01 X1.59155 Y0.59457
G01 X1.59243 Y0.59619
G01 X1.59468 Y0.59904
G01 X1.59705 Y0.60085
G01 X1.60353 Y0.60727
G01 X1.60888 Y0.61443
G01 X1.61330 Y0.62262
G01 X1.61638 Y0.63119
G01 X1.61816 Y0.64014
G01 X1.61860 Y0.64925
G01 X1.61769 Y0.65832
G01 X1.61544 Y0.66716
G01 X1.61191 Y0.67558
G01 X1.60718 Y0.68337
G01 X1.60135 Y0.69038
G01 X1.59440 Y0.69656
G01 X1.58692 Y0.70146
G01 X1.57864 Y0.70528
G01 X1.56988 Y0.70783
G01 X1.56084 Y0.70906
G01 X1.55172 Y0.70894
G01 X1.54272 Y0.70747
G01 X1.53403 Y0.70469
G01 X1.52586 Y0.70066
G01 X1.51836 Y0.69546
G01 X1.51172 Y0.68921
G01 X1.50608 Y0.68206
G01 X1.50120 Y0.67343
G01 X1.49888 Y0.67032
G01 X1.49721 Y0.66919
G01 X1.49467 Y0.66802
G01 X1.49361 Y0.66766
G01 X1.49250 Y0.66750
G01 X1.49138 Y0.66755
G01 X1.48861 Y0.66795
G01 X1.48752 Y0.66821
G01 X1.48650 Y0.66868
G01 X1.48347 Y0.67116
G01 X1.48270 Y0.67197
G01 X1.48209 Y0.67292
G01 X1.48089 Y0.67664
G01 X1.48065 Y0.67831
G01 X1.48065 Y0.69646
G01 X1.48053 Y0.69785
G01 X1.47906 Y0.70174
G01 X1.47663 Y0.70498
G01 X1.47339 Y0.70741
G01 X1.46950 Y0.70888
G01 X1.46811 Y0.70900
G01 X1.37047 Y0.70902
G01 X1.36908 Y0.70885
G01 X1.36518 Y0.70742
G01 X1.36195 Y0.70498
G01 X1.35951 Y0.70175
G01 X1.35808 Y0.69785
G01 X1.35791 Y0.69646
G01 X1.35791 Y0.59882
G01 X1.35808 Y0.59743
G01 X1.35951 Y0.59353
G01 X1.36195 Y0.59030
G01 X1.36519 Y0.58787
G01 X1.36907 Y0.58640
G01 X1.37526 Y0.58625
G01 X1.37794 Y0.58570
G01 X1.37976 Y0.58497
G01 X1.38266 Y0.58256
G01 X1.38344 Y0.58175
G01 X1.38405 Y0.58080
G01 X1.38446 Y0.57976
G01 X1.38543 Y0.57625
G01 X1.38549 Y0.46535
G01 X1.38521 Y0.46291
G01 X1.38465 Y0.46147
G01 X1.38331 Y0.45901
G01 X1.38231 Y0.45767
G01 X1.27149 Y0.34685
G01 X1.26945 Y0.34529
G01 X1.26789 Y0.34449
G01 X1.26316 Y0.34370
G01 X1.26204 Y0.34382
G01 X1.26097 Y0.34416
G01 X1.25740 Y0.34577
G01 X1.25653 Y0.34647
G01 X1.25581 Y0.34734
G01 X1.25368 Y0.35062
G01 X1.25333 Y0.35169
G01 X1.25319 Y0.35280
G01 X1.25310 Y0.35559
G01 X1.25329 Y0.35726
G01 X1.25376 Y0.35908
G01 X1.25427 Y0.36510
G01 X1.25428 Y0.38093
G01 X1.25280 Y0.38941
G01 X1.25004 Y0.39700
G01 X1.24605 Y0.40402
G01 X1.24092 Y0.41026
G01 X1.23833 Y0.41251
G01 X1.23631 Y0.41485
G01 X1.23561 Y0.41637
G01 X1.23482 Y0.41906
G01 X1.23458 Y0.42072
G01 X1.23458 Y0.70533
G01 X1.23522 Y0.70879
G01 X1.23593 Y0.71054
G01 X1.23845 Y0.71358
G01 X1.24334 Y0.71831
G01 X1.24626 Y0.72303
G01 X1.24806 Y0.72837
G01 X1.24836 Y0.73159
G01 X1.24836 Y0.78416
G01 X1.24806 Y0.78734
G01 X1.24628 Y0.79268
G01 X1.24335 Y0.79744
G01 X1.23940 Y0.80140
G01 X1.23464 Y0.80434
G01 X1.22931 Y0.80613
G01 X1.22609 Y0.80644
G01 X1.19517 Y0.80644
G01 X1.19199 Y0.80614
G01 X1.18665 Y0.80435
G01 X1.18189 Y0.80142
G01 X1.17793 Y0.79744
G01 X1.17591 Y0.79446
G01 X1.17277 Y0.79208
G01 X1.17180 Y0.79152
G01 X1.17074 Y0.79115
G01 X1.16684 Y0.79085
G01 X1.16572 Y0.79090
G01 X1.16463 Y0.79116
G01 X1.16118 Y0.79302
G01 X1.15986 Y0.79405
G01 X1.15666 Y0.79740
G01 X1.15079 Y0.80157
G01 X1.14423 Y0.80455
G01 X1.13723 Y0.80624
G01 X1.13004 Y0.80657
G01 X1.12292 Y0.80553
G01 X1.11592 Y0.80306
G01 X1.10987 Y0.79956
G01 X1.10443 Y0.79484
G01 X1.09999 Y0.78918
G01 X1.09669 Y0.78278
G01 X1.09466 Y0.77587
G01 X1.09415 Y0.77050
G01 X1.09416 Y0.74334
G01 X1.09554 Y0.73628
G01 X1.09823 Y0.72960
G01 X1.10216 Y0.72351
G01 X1.10613 Y0.71912
G01 X1.10690 Y0.71748
G01 X1.10769 Y0.71480
G01 X1.10793 Y0.71314
G01 X1.10787 Y0.43357
G01 X1.10746 Y0.43129
G01 X1.10716 Y0.43049
G01 X1.10520 Y0.42741
G01 X1.10450 Y0.42654
G01 X1.10364 Y0.42581
G01 X1.09932 Y0.42384
G01 X1.09801 Y0.42361
G01 X1.09030 Y0.42121
G01 X1.08310 Y0.41755
G01 X1.07662 Y0.41273
G01 X1.07105 Y0.40689
G01 X1.06811 Y0.40252
G01 X1.06581 Y0.40005
G01 X1.06430 Y0.39917
G01 X1.06170 Y0.39815
G01 X1.06062 Y0.39784
G01 X1.05950 Y0.39774
G01 X1.05564 Y0.39840
G01 X1.05457 Y0.39872
G01 X1.05357 Y0.39924
G01 X1.05269 Y0.39994
G01 X1.05012 Y0.40251
G01 X1.04919 Y0.40402
G01 X1.04408 Y0.41026
G01 X1.03798 Y0.41556
G01 X1.03108 Y0.41975
G01 X1.02356 Y0.42271
G01 X1.01566 Y0.42437
G01 X1.00759 Y0.42468
G01 X0.99959 Y0.42361
G01 X0.99644 Y0.42268
G01 X0.99210 Y0.42254
G01 X0.99008 Y0.42321
G01 X0.98762 Y0.42455
G01 X0.98628 Y0.42555
G01 X0.95430 Y0.45753
G01 X0.95258 Y0.45979
G01 X0.95136 Y0.46355
G01 X0.95112 Y0.46521
G01 X0.95112 Y0.70533
G01 X0.95176 Y0.70879
G01 X0.95246 Y0.71054
G01 X0.95499 Y0.71358
G01 X0.95987 Y0.71831
G01 X0.96280 Y0.72303
G01 X0.96459 Y0.72837
G01 X0.96490 Y0.73159
G01 X0.96490 Y0.78416
G01 X0.96459 Y0.78733
G01 X0.96281 Y0.79268
G01 X0.95988 Y0.79744
G01 X0.95593 Y0.80140
G01 X0.95118 Y0.80434
G01 X0.94584 Y0.80612
G01 X0.94262 Y0.80644
G01 X0.91170 Y0.80644
G01 X0.90853 Y0.80614
G01 X0.90318 Y0.80435
G01 X0.89843 Y0.80142
G01 X0.89446 Y0.79744
G01 X0.89314 Y0.79536
G01 X0.89244 Y0.79446
G01 X0.89158 Y0.79371
G01 X0.88834 Y0.79152
G01 X0.88728 Y0.79115
G01 X0.88617 Y0.79099
G01 X0.88225 Y0.79090
G01 X0.88116 Y0.79116
G01 X0.88014 Y0.79163
G01 X0.87702 Y0.79349
G01 X0.87320 Y0.79740
G01 X0.86732 Y0.80157
G01 X0.86077 Y0.80455
G01 X0.85377 Y0.80624
G01 X0.84657 Y0.80657
G01 X0.83944 Y0.80553
G01 X0.83264 Y0.80317
G01 X0.82641 Y0.79956
G01 X0.82097 Y0.79484
G01 X0.81652 Y0.78918
G01 X0.81323 Y0.78278
G01 X0.81120 Y0.77587
G01 X0.81069 Y0.77050
G01 X0.81069 Y0.74355
G01 X0.81208 Y0.73627
G01 X0.81477 Y0.72960
G01 X0.81870 Y0.72351
G01 X0.82267 Y0.71912
G01 X0.82344 Y0.71749
G01 X0.82423 Y0.71480
G01 X0.82447 Y0.71314
G01 X0.82437 Y0.43268
G01 X0.82556 Y0.42718
G01 X0.82815 Y0.42187
G01 X0.83204 Y0.41732
G01 X0.83335 Y0.41623
G01 X0.86065 Y0.38893
G01 X0.86238 Y0.38666
G01 X0.86281 Y0.38559
G01 X0.86360 Y0.38291
G01 X0.86384 Y0.38124
G01 X0.86382 Y0.36732
G01 X0.86345 Y0.36526
G01 X0.86198 Y0.36163
G01 X0.86131 Y0.36073
G01 X0.86048 Y0.35998
G01 X0.85824 Y0.35830
G01 X0.85728 Y0.35772
G01 X0.85623 Y0.35732
G01 X0.85234 Y0.35694
G01 X0.85121 Y0.35696
G01 X0.85012 Y0.35720
G01 X0.84909 Y0.35765
G01 X0.84663 Y0.35899
G01 X0.84529 Y0.35999
G01 X0.65509 Y0.55019
G01 X0.65400 Y0.55148
G01 X0.65320 Y0.55280
G01 X0.65215 Y0.55621
G01 X0.65191 Y0.55787
G01 X0.65193 Y0.69391
G01 X0.65224 Y0.69596
G01 X0.65394 Y0.69949
G01 X0.65491 Y0.70085
G01 X0.65729 Y0.70335
G01 X0.66181 Y0.71004
G01 X0.66512 Y0.71741
G01 X0.66716 Y0.72522
G01 X0.66766 Y0.73124
G01 X0.66767 Y0.74707
G01 X0.66619 Y0.75555
G01 X0.66343 Y0.76314
G01 X0.65944 Y0.77016
G01 X0.65431 Y0.77641
G01 X0.64822 Y0.78170
G01 X0.64131 Y0.78589
G01 X0.63380 Y0.78886
G01 X0.62648 Y0.79039
G01 X0.61783 Y0.79081
G01 X0.60982 Y0.78975
G01 X0.60211 Y0.78735
G01 X0.59491 Y0.78370
G01 X0.58843 Y0.77887
G01 X0.58286 Y0.77303
G01 X0.57992 Y0.76866
G01 X0.57762 Y0.76619
G01 X0.57611 Y0.76532
G01 X0.57351 Y0.76429
G01 X0.57243 Y0.76398
G01 X0.57131 Y0.76388
G01 X0.56745 Y0.76454
G01 X0.56638 Y0.76487
G01 X0.56538 Y0.76539
G01 X0.56193 Y0.76865
G01 X0.56100 Y0.77016
G01 X0.55589 Y0.77641
G01 X0.54979 Y0.78170
G01 X0.54289 Y0.78589
G01 X0.53537 Y0.78886
G01 X0.52747 Y0.79051
G01 X0.51940 Y0.79081
G01 X0.51140 Y0.78975
G01 X0.50388 Y0.78741
G01 X0.49648 Y0.78369
G01 X0.49001 Y0.77887
G01 X0.48444 Y0.77303
G01 X0.48149 Y0.76866
G01 X0.47919 Y0.76619
G01 X0.47768 Y0.76532
G01 X0.47508 Y0.76429
G01 X0.47400 Y0.76398
G01 X0.47288 Y0.76388
G01 X0.46903 Y0.76454
G01 X0.46795 Y0.76487
G01 X0.46696 Y0.76539
G01 X0.46608 Y0.76609
G01 X0.46351 Y0.76865
G01 X0.46258 Y0.77016
G01 X0.45746 Y0.77641
G01 X0.45137 Y0.78170
G01 X0.44446 Y0.78589
G01 X0.43695 Y0.78886
G01 X0.42905 Y0.79051
G01 X0.42098 Y0.79081
G01 X0.41297 Y0.78975
G01 X0.40526 Y0.78735
G01 X0.39806 Y0.78370
G01 X0.39157 Y0.77887
G01 X0.38721 Y0.77433
G01 X0.38599 Y0.77337
G01 X0.38274 Y0.77190
G01 X0.38167 Y0.77155
G01 X0.38056 Y0.77141
G01 X0.37668 Y0.77194
G01 X0.37559 Y0.77222
G01 X0.37458 Y0.77271
G01 X0.37102 Y0.77585
G01 X0.36736 Y0.78169
G01 X0.36341 Y0.78565
G01 X0.35866 Y0.78859
G01 X0.35332 Y0.79037
G01 X0.35010 Y0.79069
G01 X0.29950 Y0.79069
G01 X0.29632 Y0.79039
G01 X0.29098 Y0.78861
G01 X0.28622 Y0.78567
G01 X0.28227 Y0.78172
G01 X0.27932 Y0.77697
G01 X0.27754 Y0.77163
G01 X0.27722 Y0.76841
G01 X0.27722 Y0.70796
G01 X0.27754 Y0.70479
G01 X0.27931 Y0.69945
G01 X0.28227 Y0.69465
G01 X0.28719 Y0.68946
G01 X0.28801 Y0.68775
G01 X0.28897 Y0.68425
G01 X0.28903 Y0.60055
G01 X0.28887 Y0.59835
G01 X0.28962 Y0.59133
G01 X0.29147 Y0.58539
G01 X0.29460 Y0.57955
G01 X0.29911 Y0.57412
G01 X0.30065 Y0.57280
G01 X0.61361 Y0.25985
G01 X0.61469 Y0.25856
G01 X0.61514 Y0.25793
G01 X0.61576 Y0.25651
G01 X0.61655 Y0.25383
G01 X0.61679 Y0.25217
G01 X0.61679 Y0.23365
G01 X0.61615 Y0.23019
G01 X0.61545 Y0.22844
G01 X0.61489 Y0.22767
G01 X0.61292 Y0.22540
G01 X0.60803 Y0.22067
G01 X0.60511 Y0.21595
G01 X0.60332 Y0.21061
G01 X0.60301 Y0.20739
G01 X0.60301 Y0.14694
G01 X0.60332 Y0.14377
G01 X0.60509 Y0.13842
G01 X0.60803 Y0.13367
G01 X0.61198 Y0.12971
G01 X0.61673 Y0.12677
G01 X0.62207 Y0.12499
G01 X0.62529 Y0.12467
G01 X0.67589 Y0.12467
G01 X0.67907 Y0.12497
G01 X0.68441 Y0.12675
G01 X0.68917 Y0.12968
G01 X0.69314 Y0.13366
G01 X0.69690 Y0.13959
G01 X0.69809 Y0.14095
G01 X0.70223 Y0.14342
G01 X0.70332 Y0.14370
G01 X0.70444 Y0.14378
G01 X0.70835 Y0.14357
G01 X0.70941 Y0.14322
G01 X0.71040 Y0.14268
G01 X0.71337 Y0.14058
G01 X0.71478 Y0.13895
G01 X0.72088 Y0.13366
G01 X0.72778 Y0.12947
G01 X0.73529 Y0.12651
G01 X0.74319 Y0.12485
G01 X0.75126 Y0.12454
G01 X0.75927 Y0.12560
G01 X0.76698 Y0.12800
G01 X0.77418 Y0.13166
G01 X0.78066 Y0.13648
G01 X0.78623 Y0.14232
G01 X0.78917 Y0.14670
G01 X0.79147 Y0.14917
G01 X0.79298 Y0.15004
G01 X0.79558 Y0.15106
G01 X0.79666 Y0.15137
G01 X0.79778 Y0.15147
G01 X0.80164 Y0.15081
G01 X0.80271 Y0.15049
G01 X0.80371 Y0.14997
G01 X0.80459 Y0.14927
G01 X0.80716 Y0.14670
G01 X0.80809 Y0.14520
G01 X0.81320 Y0.13895
G01 X0.81930 Y0.13366
G01 X0.82621 Y0.12947
G01 X0.83372 Y0.12651
G01 X0.84162 Y0.12485
G01 X0.84969 Y0.12454
G01 X0.85769 Y0.12560
G01 X0.86541 Y0.12800
G01 X0.87260 Y0.13166
G01 X0.87908 Y0.13648
G01 X0.88466 Y0.14232
G01 X0.88760 Y0.14670
G01 X0.88989 Y0.14917
G01 X0.89141 Y0.15004
G01 X0.89401 Y0.15106
G01 X0.89509 Y0.15137
G01 X0.89620 Y0.15147
G01 X0.90006 Y0.15081
G01 X0.90114 Y0.15049
G01 X0.90213 Y0.14997
G01 X0.90301 Y0.14927
G01 X0.90558 Y0.14670
G01 X0.90651 Y0.14520
G01 X0.91163 Y0.13895
G01 X0.91773 Y0.13366
G01 X0.92463 Y0.12947
G01 X0.93214 Y0.12651
G01 X0.94004 Y0.12485
G01 X0.94811 Y0.12454
G01 X0.95612 Y0.12560
G01 X0.96383 Y0.12800
G01 X0.97103 Y0.13166
G01 X0.97751 Y0.13648
G01 X0.98308 Y0.14232
G01 X0.98759 Y0.14902
G01 X0.99091 Y0.15638
G01 X0.99294 Y0.16420
G01 X0.99344 Y0.17021
G01 X0.99341 Y0.18660
G01 X0.99197 Y0.19453
G01 X0.98922 Y0.20212
G01 X0.98522 Y0.20914
G01 X0.98136 Y0.21384
G01 X0.98064 Y0.21495
G01 X0.97934 Y0.21774
G01 X0.97708 Y0.22501
G01 X0.97390 Y0.23081
G01 X0.96960 Y0.23592
G01 X0.96804 Y0.23724
G01 X0.90428 Y0.30100
G01 X0.90317 Y0.30253
G01 X0.90177 Y0.30533
G01 X0.90122 Y0.30703
G01 X0.90121 Y0.30882
G01 X0.90187 Y0.31267
G01 X0.90234 Y0.31370
G01 X0.90299 Y0.31461
G01 X0.90563 Y0.31750
G01 X0.90657 Y0.31810
G01 X0.90762 Y0.31852
G01 X0.91112 Y0.31949
G01 X0.93672 Y0.31955
G01 X0.93989 Y0.31986
G01 X0.94524 Y0.32163
G01 X0.94999 Y0.32457
G01 X0.95397 Y0.32854
G01 X0.95773 Y0.33448
G01 X0.95892 Y0.33584
G01 X0.96306 Y0.33830
G01 X0.96414 Y0.33859
G01 X0.96526 Y0.33866
G01 X0.96917 Y0.33845
G01 X0.97024 Y0.33810
G01 X0.97123 Y0.33756
G01 X0.97419 Y0.33546
G01 X0.97561 Y0.33384
G01 X0.98170 Y0.32854
G01 X0.98861 Y0.32436
G01 X0.99612 Y0.32139
G01 X1.00402 Y0.31973
G01 X1.01209 Y0.31942
G01 X1.02010 Y0.32048
G01 X1.02781 Y0.32288
G01 X1.03501 Y0.32654
G01 X1.04149 Y0.33136
G01 X1.04706 Y0.33720
G01 X1.05000 Y0.34158
G01 X1.05230 Y0.34405
G01 X1.05381 Y0.34492
G01 X1.05641 Y0.34595
G01 X1.05749 Y0.34626
G01 X1.05861 Y0.34636
G01 X1.06246 Y0.34570
G01 X1.06354 Y0.34537
G01 X1.06453 Y0.34485
G01 X1.06799 Y0.34159
G01 X1.06891 Y0.34008
G01 X1.07403 Y0.33384
G01 X1.08013 Y0.32854
G01 X1.08703 Y0.32436
G01 X1.09436 Y0.32146
G01 X1.10246 Y0.31973
G01 X1.11052 Y0.31942
G01 X1.11852 Y0.32048
G01 X1.12623 Y0.32288
G01 X1.13343 Y0.32654
G01 X1.13991 Y0.33136
G01 X1.14548 Y0.33720
G01 X1.14842 Y0.34158
G01 X1.15072 Y0.34405
G01 X1.15223 Y0.34492
G01 X1.15483 Y0.34595
G01 X1.15591 Y0.34626
G01 X1.15703 Y0.34636
G01 X1.15815 Y0.34624
G01 X1.16197 Y0.34537
G01 X1.16296 Y0.34485
G01 X1.16384 Y0.34415
G01 X1.16641 Y0.34158
G01 X1.16734 Y0.34008
G01 X1.17246 Y0.33384
G01 X1.17856 Y0.32854
G01 X1.18546 Y0.32436
G01 X1.19297 Y0.32139
G01 X1.20087 Y0.31973
G01 X1.20896 Y0.31942
G01 X1.21873 Y0.32064
G01 X1.22062 Y0.32058
G01 X1.22414 Y0.31934
G01 X1.22515 Y0.31885
G01 X1.22605 Y0.31818
G01 X1.22848 Y0.31511
G01 X1.22907 Y0.31415
G01 X1.22946 Y0.31310
G01 X1.22965 Y0.31199
G01 X1.22982 Y0.30808
G01 X1.22958 Y0.30698
G01 X1.22914 Y0.30595
G01 X1.22734 Y0.30279
G01 X1.18036 Y0.25572
G01 X1.17867 Y0.25427
G01 X1.17448 Y0.24912
G01 X1.17119 Y0.24291
G01 X1.16944 Y0.23693
G01 X1.16902 Y0.23266
G01 X1.16807 Y0.22915
G01 X1.16711 Y0.22767
G01 X1.16540 Y0.22573
G01 X1.16021 Y0.22066
G01 X1.15728 Y0.21595
G01 X1.15550 Y0.21061
G01 X1.15517 Y0.20739
G01 X1.15517 Y0.14694
G01 X1.15549 Y0.14377
G01 X1.15726 Y0.13842
G01 X1.16019 Y0.13367
G01 X1.16414 Y0.12971
G01 X1.16889 Y0.12677
G01 X1.17423 Y0.12499
G01 X1.17745 Y0.12467
G01 X1.22806 Y0.12467
G01 X1.23123 Y0.12497
G01 X1.23658 Y0.12675
G01 X1.24133 Y0.12968
G01 X1.24531 Y0.13366
G01 X1.24906 Y0.13959
G01 X1.25026 Y0.14095
G01 X1.25440 Y0.14342
G01 X1.25548 Y0.14370
G01 X1.25660 Y0.14378
G01 X1.26051 Y0.14357
G01 X1.26158 Y0.14322
G01 X1.26256 Y0.14268
G01 X1.26553 Y0.14058
G01 X1.26695 Y0.13896
G01 X1.27304 Y0.13366
G01 X1.27994 Y0.12948
G01 X1.28765 Y0.12647
G01 X1.29536 Y0.12485
G01 X1.30343 Y0.12454
G01 X1.31143 Y0.12560
G01 X1.31915 Y0.12800
G01 X1.32634 Y0.13166
G01 X1.33282 Y0.13648
G01 X1.33840 Y0.14232
G01 X1.34134 Y0.14670
G01 X1.34363 Y0.14917
G01 X1.34515 Y0.15004
G01 X1.34775 Y0.15106
G01 X1.34883 Y0.15137
G01 X1.34995 Y0.15147
G01 X1.35380 Y0.15081
G01 X1.35488 Y0.15049
G01 X1.35587 Y0.14997
G01 X1.35675 Y0.14927
G01 X1.35932 Y0.14670
G01 X1.36025 Y0.14520
G01 X1.36537 Y0.13895
G01 X1.37147 Y0.13366
G01 X1.37837 Y0.12947
G01 X1.38588 Y0.12651
G01 X1.39378 Y0.12485
G01 X1.40185 Y0.12454
G01 X1.40986 Y0.12560
G01 X1.41757 Y0.12800
G01 X1.42477 Y0.13166
G01 X1.43125 Y0.13648
G01 X1.43682 Y0.14232
G01 X1.43976 Y0.14670
G01 X1.44206 Y0.14917
G01 X1.44357 Y0.15004
G01 X1.44617 Y0.15106
G01 X1.44725 Y0.15137
G01 X1.44837 Y0.15147
G01 X1.45223 Y0.15081
G01 X1.45330 Y0.15049
G01 X1.45430 Y0.14997
G01 X1.45518 Y0.14927
G01 X1.45775 Y0.14670
G01 X1.45868 Y0.14520
G01 X1.46380 Y0.13895
G01 X1.46989 Y0.13366
G01 X1.47680 Y0.12947
G01 X1.48431 Y0.12651
G01 X1.49221 Y0.12485
G01 X1.50028 Y0.12454
G01 X1.50828 Y0.12560
G01 X1.51600 Y0.12800
G01 X1.52320 Y0.13166
G01 X1.52967 Y0.13648
G01 X1.53525 Y0.14232
G01 X1.53976 Y0.14902
G01 X1.54308 Y0.15638
G01 X1.54511 Y0.16420
G01 X1.54561 Y0.17021
G01 X1.54558 Y0.18660
G01 X1.54414 Y0.19453
G01 X1.54138 Y0.20212
G01 X1.53739 Y0.20914
G01 X1.53227 Y0.21538
G01 X1.52579 Y0.22100
G01 X1.52373 Y0.22334
G01 X1.52301 Y0.22490
G01 X1.52223 Y0.22758
G01 X1.52199 Y0.22924
G01 X1.52202 Y0.25196
G01 X1.52237 Y0.25415
G01 X1.52282 Y0.25521
G01 X1.52462 Y0.25837
G01 X1.85922 Y0.59293
G01 X1.86227 Y0.59766
G01 X1.86419 Y0.60325
G01 X1.86466 Y0.60922
G01 X1.86451 Y0.61091
G01 X1.86454 Y0.70599
G01 X1.86514 Y0.70879
G01 X1.86585 Y0.71054
G01 X1.86837 Y0.71358
G01 X1.87326 Y0.71831
G01 X1.87618 Y0.72303
G01 X1.87796 Y0.72837
G01 X1.87829 Y0.73159
G01 X1.87632 Y0.73169
G01 X1.87632 Y0.78406
G01 X1.87604 Y0.78692
G01 X1.87440 Y0.79184
G01 X1.87171 Y0.79621
G01 X1.86809 Y0.79984
G01 X1.86372 Y0.80254
G01 X1.85881 Y0.80418
G01 X1.85591 Y0.80447
G01 X1.82519 Y0.80447
G01 X1.82233 Y0.80420
G01 X1.81741 Y0.80256
G01 X1.81303 Y0.79987
G01 X1.80939 Y0.79621
G01 X1.80726 Y0.79310
G01 X1.80611 Y0.79211
G01 X1.80255 Y0.78973
G01 X1.80113 Y0.78924
G01 X1.79965 Y0.78902
G01 X1.79536 Y0.78895
G01 X1.79391 Y0.78930
G01 X1.79255 Y0.78992
G01 X1.78919 Y0.79194
G01 X1.78529 Y0.79591
G01 X1.77972 Y0.79986
G01 X1.77351 Y0.80268
G01 X1.76687 Y0.80428
G01 X1.76005 Y0.80459
G01 X1.75330 Y0.80361
G01 X1.74685 Y0.80137
G01 X1.74094 Y0.79795
G01 X1.73579 Y0.79348
G01 X1.73157 Y0.78811
G01 X1.72845 Y0.78205
G01 X1.72653 Y0.77550
G01 X1.72604 Y0.77041
G01 X1.72604 Y0.74374
G01 X1.72736 Y0.73683
G01 X1.72991 Y0.73051
G01 X1.73365 Y0.72472
G01 X1.73769 Y0.72022
G01 X1.73871 Y0.71804
G01 X1.73974 Y0.71426
G01 X1.73982 Y0.60694
G01 X1.73966 Y0.60505
G01 X1.73918 Y0.60305
G01 X1.73740 Y0.59966
G01 X1.73606 Y0.59787
G01 X1.61003 Y0.47183
G01 X1.60892 Y0.47092
G01 X1.60638 Y0.46928
G01 X1.60404 Y0.46858
G01 X1.59977 Y0.46814
G01 X1.59829 Y0.46837
G01 X1.59688 Y0.46887
G01 X1.59306 Y0.47081
G01 X1.59193 Y0.47180
G01 X1.59102 Y0.47298
G01 X1.58952 Y0.47534
G01 X1.58889 Y0.47658
G01 X1.58848 Y0.47791
G01 X1.58831 Y0.47930
G01 X1.58827 Y0.48268
G01 X1.58908 Y0.49055
G01 X1.58892 Y0.49259
G01 X1.58892 Y0.59083
G01 X1.58905 Y0.59226
G01 X1.58970 Y0.59523
G01 X1.59086 Y0.59739
G01 X1.59330 Y0.60045
G01 X1.59576 Y0.60235
G01 X1.60204 Y0.60856
G01 X1.60721 Y0.61550
G01 X1.61150 Y0.62342
G01 X1.61448 Y0.63172
G01 X1.61620 Y0.64038
G01 X1.61663 Y0.64920
G01 X1.61574 Y0.65798
G01 X1.61357 Y0.66654
G01 X1.61016 Y0.67468
G01 X1.60558 Y0.68223
G01 X1.59994 Y0.68901
G01 X1.59320 Y0.69499
G01 X1.58596 Y0.69973
G01 X1.57794 Y0.70343
G01 X1.56947 Y0.70590
G01 X1.56072 Y0.70709
G01 X1.55189 Y0.70697
G01 X1.54318 Y0.70555
G01 X1.53477 Y0.70286
G01 X1.52686 Y0.69896
G01 X1.51960 Y0.69392
G01 X1.51317 Y0.68788
G01 X1.50772 Y0.68096
G01 X1.50291 Y0.67246
G01 X1.50025 Y0.66891
G01 X1.49921 Y0.66806
G01 X1.49803 Y0.66739
G01 X1.49549 Y0.66623
G01 X1.49407 Y0.66574
G01 X1.49259 Y0.66553
G01 X1.49110 Y0.66560
G01 X1.48688 Y0.66635
G01 X1.48552 Y0.66697
G01 X1.48219 Y0.66967
G01 X1.48115 Y0.67076
G01 X1.48034 Y0.67202
G01 X1.47900 Y0.67609
G01 X1.47868 Y0.67831
G01 X1.47860 Y0.69740
G01 X1.47731 Y0.70079
G01 X1.47523 Y0.70358
G01 X1.47244 Y0.70566
G01 X1.46905 Y0.70695
G01 X1.37057 Y0.70705
G01 X1.36954 Y0.70692
G01 X1.36614 Y0.70567
G01 X1.36335 Y0.70358
G01 X1.36126 Y0.70079
G01 X1.36001 Y0.69739
G01 X1.35988 Y0.69635
G01 X1.35988 Y0.59892
G01 X1.36001 Y0.59789
G01 X1.36126 Y0.59449
G01 X1.36335 Y0.59170
G01 X1.36614 Y0.58961
G01 X1.36953 Y0.58834
G01 X1.37547 Y0.58820
G01 X1.37836 Y0.58762
G01 X1.37961 Y0.58724
G01 X1.38078 Y0.58665
G01 X1.38184 Y0.58588
G01 X1.38499 Y0.58296
G01 X1.38580 Y0.58170
G01 X1.38635 Y0.58031
G01 X1.38738 Y0.57653
G01 X1.38746 Y0.46535
G01 X1.38712 Y0.46244
G01 X1.38638 Y0.46052
G01 X1.38504 Y0.45807
G01 X1.38370 Y0.45628
G01 X1.27288 Y0.34546
G01 X1.27060 Y0.34369
G01 X1.26851 Y0.34262
G01 X1.26462 Y0.34185
G01 X1.26313 Y0.34173
G01 X1.26164 Y0.34190
G01 X1.26021 Y0.34234
G01 X1.25631 Y0.34413
G01 X1.25515 Y0.34507
G01 X1.25419 Y0.34622
G01 X1.25188 Y0.34983
G01 X1.25141 Y0.35125
G01 X1.25113 Y0.35553
G01 X1.25118 Y0.35665
G01 X1.25181 Y0.35941
G01 X1.25231 Y0.36518
G01 X1.25231 Y0.38088
G01 X1.25089 Y0.38890
G01 X1.24825 Y0.39617
G01 X1.24443 Y0.40290
G01 X1.23951 Y0.40888
G01 X1.23625 Y0.41182
G01 X1.23465 Y0.41378
G01 X1.23372 Y0.41582
G01 X1.23294 Y0.41850
G01 X1.23262 Y0.42072
G01 X1.23262 Y0.70533
G01 X1.23281 Y0.70708
G01 X1.23330 Y0.70922
G01 X1.23368 Y0.71043
G01 X1.23425 Y0.71156
G01 X1.23708 Y0.71499
G01 X1.24179 Y0.71956
G01 X1.24447 Y0.72387
G01 X1.24612 Y0.72879
G01 X1.24640 Y0.73169
G01 X1.24640 Y0.78406
G01 X1.24613 Y0.78692
G01 X1.24448 Y0.79184
G01 X1.24179 Y0.79621
G01 X1.23817 Y0.79984
G01 X1.23380 Y0.80254
G01 X1.22889 Y0.80420
G01 X1.22598 Y0.80447
G01 X1.19527 Y0.80447
G01 X1.19241 Y0.80420
G01 X1.18749 Y0.80256
G01 X1.18311 Y0.79987
G01 X1.17947 Y0.79621
G01 X1.17734 Y0.79310
G01 X1.17392 Y0.79048
G01 X1.17262 Y0.78973
G01 X1.17121 Y0.78924
G01 X1.16694 Y0.78888
G01 X1.16544 Y0.78895
G01 X1.16399 Y0.78930
G01 X1.16020 Y0.79131
G01 X1.15844 Y0.79269
G01 X1.15537 Y0.79591
G01 X1.14980 Y0.79986
G01 X1.14359 Y0.80268
G01 X1.13695 Y0.80428
G01 X1.13013 Y0.80459
G01 X1.12340 Y0.80361
G01 X1.11674 Y0.80126
G01 X1.11102 Y0.79795
G01 X1.10587 Y0.79348
G01 X1.10165 Y0.78811
G01 X1.09853 Y0.78205
G01 X1.09660 Y0.77550
G01 X1.09612 Y0.77041
G01 X1.09613 Y0.74353
G01 X1.09744 Y0.73684
G01 X1.09999 Y0.73051
G01 X1.10373 Y0.72472
G01 X1.10777 Y0.72022
G01 X1.10879 Y0.71804
G01 X1.10958 Y0.71536
G01 X1.10990 Y0.71314
G01 X1.10981 Y0.43328
G01 X1.10935 Y0.43072
G01 X1.10894 Y0.42966
G01 X1.10685 Y0.42633
G01 X1.10591 Y0.42516
G01 X1.10477 Y0.42419
G01 X1.10346 Y0.42346
G01 X1.09985 Y0.42195
G01 X1.09844 Y0.42168
G01 X1.09104 Y0.41938
G01 X1.08414 Y0.41587
G01 X1.07793 Y0.41125
G01 X1.07259 Y0.40565
G01 X1.06974 Y0.40142
G01 X1.06703 Y0.39850
G01 X1.06502 Y0.39734
G01 X1.06242 Y0.39632
G01 X1.06098 Y0.39591
G01 X1.05949 Y0.39577
G01 X1.05526 Y0.39647
G01 X1.05382 Y0.39690
G01 X1.05250 Y0.39759
G01 X1.05133 Y0.39853
G01 X1.04856 Y0.40130
G01 X1.04757 Y0.40290
G01 X1.04266 Y0.40889
G01 X1.03682 Y0.41396
G01 X1.03020 Y0.41798
G01 X1.02300 Y0.42082
G01 X1.01542 Y0.42241
G01 X1.00768 Y0.42271
G01 X1.00001 Y0.42168
G01 X0.99678 Y0.42074
G01 X0.99325 Y0.42052
G01 X0.99183 Y0.42059
G01 X0.99044 Y0.42091
G01 X0.98668 Y0.42282
G01 X0.98489 Y0.42416
G01 X0.95291 Y0.45614
G01 X0.95168 Y0.45759
G01 X0.95084 Y0.45888
G01 X0.94947 Y0.46299
G01 X0.94915 Y0.46521
G01 X0.94915 Y0.70533
G01 X0.94935 Y0.70708
G01 X0.94984 Y0.70922
G01 X0.95021 Y0.71043
G01 X0.95078 Y0.71156
G01 X0.95362 Y0.71499
G01 X0.95833 Y0.71956
G01 X0.96100 Y0.72387
G01 X0.96264 Y0.72879
G01 X0.96293 Y0.73169
G01 X0.96293 Y0.78406
G01 X0.96266 Y0.78692
G01 X0.96102 Y0.79184
G01 X0.95833 Y0.79621
G01 X0.95470 Y0.79984
G01 X0.95034 Y0.80254
G01 X0.94542 Y0.80418
G01 X0.94252 Y0.80447
G01 X0.91180 Y0.80447
G01 X0.90894 Y0.80420
G01 X0.90402 Y0.80256
G01 X0.89965 Y0.79987
G01 X0.89601 Y0.79621
G01 X0.89387 Y0.79310
G01 X0.89273 Y0.79211
G01 X0.88916 Y0.78973
G01 X0.88775 Y0.78924
G01 X0.88627 Y0.78902
G01 X0.88198 Y0.78895
G01 X0.88052 Y0.78930
G01 X0.87916 Y0.78992
G01 X0.87580 Y0.79194
G01 X0.87190 Y0.79591
G01 X0.86634 Y0.79986
G01 X0.86012 Y0.80268
G01 X0.85349 Y0.80428
G01 X0.84667 Y0.80459
G01 X0.83991 Y0.80361
G01 X0.83347 Y0.80137
G01 X0.82756 Y0.79795
G01 X0.82240 Y0.79348
G01 X0.81819 Y0.78811
G01 X0.81506 Y0.78205
G01 X0.81314 Y0.77550
G01 X0.81265 Y0.77041
G01 X0.81265 Y0.74374
G01 X0.81398 Y0.73683
G01 X0.81652 Y0.73051
G01 X0.82026 Y0.72472
G01 X0.82430 Y0.72022
G01 X0.82533 Y0.71804
G01 X0.82612 Y0.71536
G01 X0.82643 Y0.71314
G01 X0.82634 Y0.43279
G01 X0.82746 Y0.42773
G01 X0.82974 Y0.42305
G01 X0.83342 Y0.41874
G01 X0.83474 Y0.41762
G01 X0.86205 Y0.39032
G01 X0.86328 Y0.38887
G01 X0.86412 Y0.38758
G01 X0.86470 Y0.38615
G01 X0.86549 Y0.38347
G01 X0.86580 Y0.38124
G01 X0.86579 Y0.36731
G01 X0.86567 Y0.36592
G01 X0.86529 Y0.36457
G01 X0.86432 Y0.36195
G01 X0.86366 Y0.36060
G01 X0.86277 Y0.35941
G01 X0.85942 Y0.35672
G01 X0.85814 Y0.35595
G01 X0.85674 Y0.35542
G01 X0.85248 Y0.35497
G01 X0.85098 Y0.35501
G01 X0.84952 Y0.35533
G01 X0.84569 Y0.35726
G01 X0.84389 Y0.35860
G01 X0.65370 Y0.54880
G01 X0.65247 Y0.55025
G01 X0.65140 Y0.55200
G01 X0.65026 Y0.55566
G01 X0.64994 Y0.55787
G01 X0.64997 Y0.69410
G01 X0.65035 Y0.69651
G01 X0.65219 Y0.70039
G01 X0.65349 Y0.70221
G01 X0.65575 Y0.70459
G01 X0.66008 Y0.71100
G01 X0.66326 Y0.71806
G01 X0.66521 Y0.72556
G01 X0.66569 Y0.73132
G01 X0.66570 Y0.74703
G01 X0.66428 Y0.75504
G01 X0.66164 Y0.76232
G01 X0.65781 Y0.76904
G01 X0.65290 Y0.77503
G01 X0.64705 Y0.78010
G01 X0.64043 Y0.78412
G01 X0.63323 Y0.78696
G01 X0.62608 Y0.78846
G01 X0.61792 Y0.78884
G01 X0.61025 Y0.78782
G01 X0.60285 Y0.78552
G01 X0.59595 Y0.78202
G01 X0.58974 Y0.77739
G01 X0.58440 Y0.77179
G01 X0.58155 Y0.76756
G01 X0.57884 Y0.76464
G01 X0.57683 Y0.76348
G01 X0.57423 Y0.76246
G01 X0.57279 Y0.76205
G01 X0.57130 Y0.76191
G01 X0.56707 Y0.76261
G01 X0.56563 Y0.76304
G01 X0.56431 Y0.76374
G01 X0.56314 Y0.76467
G01 X0.56038 Y0.76745
G01 X0.55938 Y0.76904
G01 X0.55447 Y0.77503
G01 X0.54863 Y0.78010
G01 X0.54201 Y0.78412
G01 X0.53481 Y0.78696
G01 X0.52723 Y0.78855
G01 X0.51950 Y0.78884
G01 X0.51182 Y0.78782
G01 X0.50462 Y0.78558
G01 X0.49752 Y0.78201
G01 X0.49132 Y0.77740
G01 X0.48598 Y0.77179
G01 X0.48313 Y0.76756
G01 X0.48042 Y0.76464
G01 X0.47840 Y0.76348
G01 X0.47580 Y0.76246
G01 X0.47436 Y0.76205
G01 X0.47287 Y0.76191
G01 X0.46864 Y0.76261
G01 X0.46721 Y0.76304
G01 X0.46588 Y0.76374
G01 X0.46471 Y0.76467
G01 X0.46195 Y0.76745
G01 X0.46095 Y0.76904
G01 X0.45605 Y0.77503
G01 X0.45020 Y0.78010
G01 X0.44358 Y0.78412
G01 X0.43638 Y0.78696
G01 X0.42881 Y0.78855
G01 X0.42107 Y0.78884
G01 X0.41340 Y0.78782
G01 X0.40600 Y0.78552
G01 X0.39910 Y0.78202
G01 X0.39288 Y0.77738
G01 X0.38862 Y0.77297
G01 X0.38701 Y0.77168
G01 X0.38352 Y0.77009
G01 X0.38210 Y0.76963
G01 X0.38061 Y0.76944
G01 X0.37636 Y0.76999
G01 X0.37492 Y0.77037
G01 X0.37357 Y0.77102
G01 X0.37236 Y0.77191
G01 X0.36951 Y0.77459
G01 X0.36581 Y0.78046
G01 X0.36218 Y0.78409
G01 X0.35782 Y0.78679
G01 X0.35290 Y0.78843
G01 X0.35000 Y0.78873
G01 X0.29960 Y0.78872
G01 X0.29674 Y0.78845
G01 X0.29182 Y0.78681
G01 X0.28745 Y0.78412
G01 X0.28382 Y0.78049
G01 X0.28112 Y0.77613
G01 X0.27948 Y0.77121
G01 X0.27919 Y0.76831
G01 X0.27919 Y0.70806
G01 X0.27947 Y0.70521
G01 X0.28110 Y0.70029
G01 X0.28383 Y0.69586
G01 X0.28881 Y0.69058
G01 X0.28944 Y0.68949
G01 X0.28989 Y0.68831
G01 X0.29092 Y0.68453
G01 X0.29100 Y0.60055
G01 X0.29084 Y0.59837
G01 X0.29155 Y0.59174
G01 X0.29329 Y0.58615
G01 X0.29624 Y0.58065
G01 X0.30051 Y0.57552
G01 X0.30205 Y0.57420
G01 X0.61500 Y0.26124
G01 X0.61623 Y0.25979
G01 X0.61730 Y0.25804
G01 X0.61868 Y0.25329
G01 X0.61876 Y0.23365
G01 X0.61856 Y0.23190
G01 X0.61770 Y0.22855
G01 X0.61713 Y0.22742
G01 X0.61429 Y0.22399
G01 X0.60959 Y0.21942
G01 X0.60691 Y0.21511
G01 X0.60527 Y0.21019
G01 X0.60498 Y0.20729
G01 X0.60498 Y0.14704
G01 X0.60526 Y0.14418
G01 X0.60689 Y0.13926
G01 X0.60958 Y0.13489
G01 X0.61321 Y0.13126
G01 X0.61757 Y0.12856
G01 X0.62249 Y0.12692
G01 X0.62539 Y0.12663
G01 X0.67579 Y0.12663
G01 X0.67865 Y0.12690
G01 X0.68357 Y0.12855
G01 X0.68794 Y0.13124
G01 X0.69160 Y0.13490
G01 X0.69524 Y0.14065
G01 X0.69683 Y0.14246
G01 X0.70020 Y0.14461
G01 X0.70155 Y0.14526
G01 X0.70300 Y0.14565
G01 X0.70449 Y0.14575
G01 X0.70877 Y0.14549
G01 X0.71020 Y0.14503
G01 X0.71151 Y0.14431
G01 X0.71470 Y0.14203
G01 X0.71620 Y0.14033
G01 X0.72204 Y0.13526
G01 X0.72866 Y0.13124
G01 X0.73586 Y0.12840
G01 X0.74344 Y0.12681
G01 X0.75117 Y0.12651
G01 X0.75884 Y0.12753
G01 X0.76624 Y0.12983
G01 X0.77314 Y0.13333
G01 X0.77935 Y0.13796
G01 X0.78469 Y0.14356
G01 X0.78754 Y0.14780
G01 X0.79024 Y0.15071
G01 X0.79226 Y0.15187
G01 X0.79486 Y0.15290
G01 X0.79630 Y0.15331
G01 X0.79779 Y0.15344
G01 X0.80202 Y0.15274
G01 X0.80346 Y0.15231
G01 X0.80478 Y0.15162
G01 X0.80595 Y0.15069
G01 X0.80872 Y0.14791
G01 X0.80971 Y0.14632
G01 X0.81462 Y0.14033
G01 X0.82047 Y0.13526
G01 X0.82709 Y0.13124
G01 X0.83428 Y0.12840
G01 X0.84186 Y0.12681
G01 X0.84960 Y0.12651
G01 X0.85727 Y0.12753
G01 X0.86466 Y0.12983
G01 X0.87156 Y0.13333
G01 X0.87777 Y0.13796
G01 X0.88312 Y0.14356
G01 X0.88596 Y0.14780
G01 X0.88867 Y0.15071
G01 X0.89069 Y0.15187
G01 X0.89329 Y0.15290
G01 X0.89473 Y0.15331
G01 X0.89622 Y0.15344
G01 X0.90045 Y0.15274
G01 X0.90188 Y0.15231
G01 X0.90321 Y0.15162
G01 X0.90438 Y0.15069
G01 X0.90714 Y0.14791
G01 X0.90814 Y0.14632
G01 X0.91305 Y0.14033
G01 X0.91889 Y0.13526
G01 X0.92551 Y0.13124
G01 X0.93271 Y0.12840
G01 X0.94029 Y0.12681
G01 X0.94802 Y0.12651
G01 X0.95569 Y0.12753
G01 X0.96309 Y0.12983
G01 X0.96999 Y0.13333
G01 X0.97620 Y0.13796
G01 X0.98154 Y0.14356
G01 X0.98587 Y0.14998
G01 X0.98905 Y0.15704
G01 X0.99099 Y0.16453
G01 X0.99148 Y0.17029
G01 X0.99144 Y0.18642
G01 X0.99007 Y0.19401
G01 X0.98742 Y0.20129
G01 X0.98359 Y0.20802
G01 X0.97984 Y0.21259
G01 X0.97888 Y0.21408
G01 X0.97746 Y0.21716
G01 X0.97526 Y0.22424
G01 X0.97226 Y0.22969
G01 X0.96821 Y0.23451
G01 X0.96665 Y0.23585
G01 X0.90207 Y0.30057
G01 X0.90001 Y0.30445
G01 X0.89928 Y0.30672
G01 X0.89926 Y0.30910
G01 X0.90001 Y0.31332
G01 X0.90063 Y0.31468
G01 X0.90150 Y0.31590
G01 X0.90441 Y0.31904
G01 X0.90567 Y0.31985
G01 X0.90974 Y0.32120
G01 X0.91196 Y0.32152
G01 X0.93662 Y0.32151
G01 X0.93948 Y0.32180
G01 X0.94440 Y0.32343
G01 X0.94877 Y0.32612
G01 X0.95242 Y0.32978
G01 X0.95606 Y0.33553
G01 X0.95765 Y0.33734
G01 X0.96103 Y0.33950
G01 X0.96238 Y0.34015
G01 X0.96382 Y0.34053
G01 X0.96811 Y0.34055
G01 X0.96960 Y0.34037
G01 X0.97102 Y0.33991
G01 X0.97233 Y0.33919
G01 X0.97552 Y0.33692
G01 X0.97702 Y0.33521
G01 X0.98287 Y0.33014
G01 X0.98949 Y0.32612
G01 X0.99669 Y0.32328
G01 X1.00426 Y0.32169
G01 X1.01200 Y0.32139
G01 X1.01967 Y0.32241
G01 X1.02706 Y0.32471
G01 X1.03397 Y0.32822
G01 X1.04018 Y0.33284
G01 X1.04552 Y0.33844
G01 X1.04836 Y0.34268
G01 X1.05107 Y0.34559
G01 X1.05309 Y0.34676
G01 X1.05569 Y0.34778
G01 X1.05713 Y0.34819
G01 X1.05862 Y0.34832
G01 X1.06285 Y0.34763
G01 X1.06428 Y0.34720
G01 X1.06561 Y0.34650
G01 X1.06678 Y0.34557
G01 X1.06954 Y0.34279
G01 X1.07054 Y0.34120
G01 X1.07545 Y0.33521
G01 X1.08129 Y0.33014
G01 X1.08791 Y0.32612
G01 X1.09493 Y0.32335
G01 X1.10270 Y0.32169
G01 X1.11042 Y0.32139
G01 X1.11810 Y0.32241
G01 X1.12549 Y0.32471
G01 X1.13239 Y0.32822
G01 X1.13860 Y0.33284
G01 X1.14394 Y0.33844
G01 X1.14679 Y0.34268
G01 X1.14950 Y0.34559
G01 X1.15151 Y0.34676
G01 X1.15555 Y0.34819
G01 X1.15704 Y0.34832
G01 X1.15853 Y0.34817
G01 X1.16271 Y0.34720
G01 X1.16403 Y0.34650
G01 X1.16520 Y0.34557
G01 X1.16797 Y0.34279
G01 X1.16897 Y0.34120
G01 X1.17387 Y0.33521
G01 X1.17972 Y0.33014
G01 X1.18634 Y0.32612
G01 X1.19354 Y0.32328
G01 X1.20111 Y0.32169
G01 X1.20888 Y0.32140
G01 X1.21849 Y0.32260
G01 X1.21975 Y0.32265
G01 X1.22100 Y0.32251
G01 X1.22483 Y0.32119
G01 X1.22618 Y0.32053
G01 X1.22738 Y0.31963
G01 X1.23006 Y0.31629
G01 X1.23084 Y0.31501
G01 X1.23136 Y0.31361
G01 X1.23161 Y0.31213
G01 X1.23177 Y0.30785
G01 X1.23145 Y0.30638
G01 X1.23086 Y0.30501
G01 X1.22892 Y0.30161
G01 X1.18175 Y0.25433
G01 X1.18008 Y0.25288
G01 X1.17613 Y0.24803
G01 X1.17302 Y0.24216
G01 X1.17138 Y0.23655
G01 X1.17098 Y0.23247
G01 X1.17073 Y0.23112
G01 X1.16986 Y0.22835
G01 X1.16859 Y0.22637
G01 X1.16688 Y0.22443
G01 X1.16174 Y0.21943
G01 X1.15907 Y0.21511
G01 X1.15743 Y0.21019
G01 X1.15714 Y0.20729
G01 X1.15714 Y0.14704
G01 X1.15742 Y0.14418
G01 X1.15906 Y0.13926
G01 X1.16175 Y0.13489
G01 X1.16537 Y0.13126
G01 X1.16973 Y0.12856
G01 X1.17465 Y0.12692
G01 X1.17756 Y0.12663
G01 X1.22796 Y0.12663
G01 X1.23082 Y0.12690
G01 X1.23574 Y0.12855
G01 X1.24011 Y0.13124
G01 X1.24377 Y0.13490
G01 X1.24740 Y0.14065
G01 X1.24899 Y0.14246
G01 X1.25237 Y0.14461
G01 X1.25372 Y0.14526
G01 X1.25516 Y0.14565
G01 X1.25666 Y0.14575
G01 X1.26094 Y0.14549
G01 X1.26236 Y0.14503
G01 X1.26367 Y0.14431
G01 X1.26686 Y0.14203
G01 X1.26836 Y0.14033
G01 X1.27421 Y0.13526
G01 X1.28081 Y0.13125
G01 X1.28821 Y0.12836
G01 X1.29560 Y0.12681
G01 X1.30334 Y0.12651
G01 X1.31101 Y0.12753
G01 X1.31840 Y0.12983
G01 X1.32530 Y0.13333
G01 X1.33152 Y0.13796
G01 X1.33686 Y0.14356
G01 X1.33970 Y0.14780
G01 X1.34241 Y0.15071
G01 X1.34443 Y0.15187
G01 X1.34703 Y0.15290
G01 X1.34847 Y0.15331
G01 X1.34996 Y0.15344
G01 X1.35419 Y0.15274
G01 X1.35562 Y0.15231
G01 X1.35695 Y0.15162
G01 X1.35812 Y0.15069
G01 X1.36088 Y0.14791
G01 X1.36188 Y0.14632
G01 X1.36679 Y0.14033
G01 X1.37263 Y0.13526
G01 X1.37925 Y0.13124
G01 X1.38645 Y0.12840
G01 X1.39403 Y0.12681
G01 X1.40176 Y0.12651
G01 X1.40943 Y0.12753
G01 X1.41683 Y0.12983
G01 X1.42373 Y0.13333
G01 X1.42994 Y0.13796
G01 X1.43528 Y0.14356
G01 X1.43813 Y0.14780
G01 X1.44084 Y0.15071
G01 X1.44285 Y0.15187
G01 X1.44545 Y0.15290
G01 X1.44689 Y0.15331
G01 X1.44838 Y0.15344
G01 X1.45261 Y0.15274
G01 X1.45405 Y0.15231
G01 X1.45537 Y0.15162
G01 X1.45654 Y0.15069
G01 X1.45930 Y0.14791
G01 X1.46030 Y0.14632
G01 X1.46521 Y0.14033
G01 X1.47106 Y0.13526
G01 X1.47768 Y0.13124
G01 X1.48487 Y0.12840
G01 X1.49245 Y0.12681
G01 X1.50019 Y0.12651
G01 X1.50786 Y0.12753
G01 X1.51525 Y0.12983
G01 X1.52215 Y0.13333
G01 X1.52837 Y0.13796
G01 X1.53371 Y0.14356
G01 X1.53803 Y0.14998
G01 X1.54121 Y0.15704
G01 X1.54316 Y0.16453
G01 X1.54364 Y0.17029
G01 X1.54361 Y0.18642
G01 X1.54223 Y0.19401
G01 X1.53959 Y0.20129
G01 X1.53576 Y0.20802
G01 X1.53085 Y0.21400
G01 X1.52450 Y0.21951
G01 X1.52208 Y0.22226
G01 X1.52113 Y0.22434
G01 X1.52034 Y0.22702
G01 X1.52002 Y0.22924
G01 X1.52006 Y0.25217
G01 X1.52049 Y0.25473
G01 X1.52109 Y0.25615
G01 X1.52304 Y0.25955
G01 X1.85776 Y0.59425
G01 X1.86054 Y0.59861
G01 X1.86224 Y0.60354
G01 X1.86269 Y0.60918
G01 X1.86254 Y0.61091
G01 X1.86259 Y0.70621
G01 X1.86322 Y0.70922
G01 X1.86360 Y0.71043
G01 X1.86417 Y0.71156
G01 X1.86700 Y0.71499
G01 X1.87171 Y0.71956
G01 X1.87439 Y0.72387
G01 X1.87603 Y0.72879
G01 X1.87632 Y0.73169
G01 X1.87511 Y0.73176
G01 X1.87514 Y0.78356
G01 X1.87481 Y0.78673
G01 X1.87325 Y0.79139
G01 X1.87068 Y0.79550
G01 X1.86734 Y0.79884
G01 X1.86323 Y0.80138
G01 X1.85859 Y0.80295
G01 X1.85596 Y0.80328
G01 X1.85432 Y0.80332
G01 X1.82529 Y0.80330
G01 X1.82255 Y0.80293
G01 X1.81928 Y0.80195
G01 X1.81725 Y0.80104
G01 X1.81388 Y0.79893
G01 X1.81041 Y0.79549
G01 X1.80662 Y0.79005
G01 X1.80337 Y0.78794
G01 X1.80160 Y0.78732
G01 X1.79975 Y0.78705
G01 X1.79696 Y0.78692
G01 X1.79509 Y0.78700
G01 X1.79327 Y0.78744
G01 X1.79106 Y0.78850
G01 X1.78746 Y0.79186
G01 X1.78441 Y0.79501
G01 X1.77916 Y0.79874
G01 X1.77814 Y0.79925
G01 X1.77304 Y0.80153
G01 X1.76677 Y0.80302
G01 X1.76019 Y0.80332
G01 X1.75708 Y0.80297
G01 X1.75215 Y0.80196
G01 X1.74744 Y0.80021
G01 X1.74546 Y0.79922
G01 X1.74173 Y0.79692
G01 X1.73945 Y0.79512
G01 X1.73675 Y0.79261
G01 X1.73448 Y0.78994
G01 X1.73262 Y0.78736
G01 X1.72973 Y0.78186
G01 X1.72773 Y0.77518
G01 X1.72719 Y0.76870
G01 X1.72722 Y0.74597
G01 X1.72734 Y0.74381
G01 X1.72819 Y0.73879
G01 X1.72863 Y0.73714
G01 X1.73060 Y0.73202
G01 X1.73317 Y0.72763
G01 X1.73442 Y0.72581
G01 X1.74028 Y0.71925
G01 X1.74077 Y0.71591
G01 X1.74097 Y0.71310
G01 X1.74097 Y0.60696
G01 X1.74089 Y0.60491
G01 X1.74037 Y0.60140
G01 X1.73685 Y0.59703
G01 X1.61086 Y0.47103
G01 X1.60821 Y0.46872
G01 X1.60530 Y0.46685
G01 X1.60430 Y0.46663
G01 X1.60153 Y0.46625
G01 X1.59966 Y0.46618
G01 X1.59781 Y0.46646
G01 X1.59605 Y0.46708
G01 X1.59352 Y0.46826
G01 X1.59190 Y0.46921
G01 X1.59050 Y0.47045
G01 X1.58935 Y0.47193
G01 X1.58786 Y0.47429
G01 X1.58706 Y0.47584
G01 X1.58655 Y0.47751
G01 X1.58639 Y0.47885
G01 X1.58728 Y0.48425
G01 X1.58784 Y0.49050
G01 X1.58776 Y0.59080
G01 X1.58801 Y0.59434
G01 X1.58859 Y0.59748
G01 X1.58910 Y0.59827
G01 X1.59125 Y0.60038
G01 X1.59531 Y0.60365
G01 X1.60103 Y0.60948
G01 X1.60356 Y0.61257
G01 X1.60609 Y0.61620
G01 X1.61035 Y0.62387
G01 X1.61317 Y0.63203
G01 X1.61383 Y0.63451
G01 X1.61484 Y0.64052
G01 X1.61531 Y0.64651
G01 X1.61534 Y0.64924
G01 X1.61430 Y0.65869
G01 X1.61228 Y0.66606
G01 X1.61072 Y0.67030
G01 X1.60894 Y0.67413
G01 X1.60460 Y0.68145
G01 X1.59895 Y0.68808
G01 X1.59525 Y0.69160
G01 X1.59239 Y0.69390
G01 X1.58539 Y0.69861
G01 X1.57754 Y0.70217
G01 X1.57406 Y0.70334
G01 X1.56915 Y0.70456
G01 X1.56428 Y0.70541
G01 X1.56057 Y0.70578
G01 X1.55196 Y0.70571
G01 X1.54355 Y0.70424
G01 X1.54010 Y0.70333
G01 X1.53530 Y0.70161
G01 X1.52895 Y0.69864
G01 X1.52743 Y0.69785
G01 X1.52049 Y0.69293
G01 X1.51735 Y0.69019
G01 X1.51420 Y0.68697
G01 X1.50935 Y0.68104
G01 X1.50431 Y0.67239
G01 X1.50246 Y0.66886
G01 X1.50139 Y0.66731
G01 X1.50032 Y0.66643
G01 X1.49885 Y0.66560
G01 X1.49631 Y0.66444
G01 X1.49454 Y0.66383
G01 X1.49269 Y0.66357
G01 X1.49082 Y0.66365
G01 X1.48805 Y0.66405
G01 X1.48623 Y0.66449
G01 X1.48453 Y0.66527
G01 X1.48301 Y0.66635
G01 X1.48090 Y0.66818
G01 X1.47960 Y0.66954
G01 X1.47867 Y0.67099
G01 X1.47812 Y0.67285
G01 X1.47753 Y0.67834
G01 X1.47753 Y0.69488
G01 X1.47739 Y0.69712
G01 X1.47624 Y0.70020
G01 X1.47436 Y0.70271
G01 X1.47185 Y0.70459
G01 X1.46887 Y0.70571
G01 X1.46653 Y0.70588
G01 X1.37204 Y0.70589
G01 X1.36981 Y0.70571
G01 X1.36661 Y0.70453
G01 X1.36422 Y0.70271
G01 X1.36241 Y0.70032
G01 X1.36125 Y0.69722
G01 X1.36107 Y0.69627
G01 X1.36108 Y0.59891
G01 X1.36125 Y0.59806
G01 X1.36241 Y0.59496
G01 X1.36422 Y0.59257
G01 X1.36661 Y0.59076
G01 X1.36991 Y0.58952
G01 X1.37670 Y0.58929
G01 X1.37872 Y0.58907
G01 X1.38181 Y0.58833
G01 X1.38524 Y0.58553
G01 X1.38653 Y0.58418
G01 X1.38746 Y0.58273
G01 X1.38802 Y0.58087
G01 X1.38861 Y0.57538
G01 X1.38861 Y0.46537
G01 X1.38853 Y0.46332
G01 X1.38801 Y0.45981
G01 X1.38449 Y0.45544
G01 X1.27371 Y0.34466
G01 X1.27137 Y0.34259
G01 X1.26833 Y0.34055
G01 X1.26496 Y0.33991
G01 X1.26310 Y0.33976
G01 X1.26124 Y0.33997
G01 X1.25945 Y0.34053
G01 X1.25687 Y0.34161
G01 X1.25522 Y0.34249
G01 X1.25377 Y0.34367
G01 X1.25257 Y0.34510
G01 X1.25098 Y0.34741
G01 X1.25007 Y0.34904
G01 X1.24949 Y0.35082
G01 X1.24929 Y0.35243
G01 X1.25056 Y0.35970
G01 X1.25108 Y0.36518
G01 X1.25115 Y0.37697
G01 X1.25096 Y0.38101
G01 X1.25038 Y0.38511
G01 X1.24964 Y0.38854
G01 X1.24714 Y0.39560
G01 X1.24338 Y0.40219
G01 X1.23861 Y0.40792
G01 X1.23421 Y0.41201
G01 X1.23228 Y0.41407
G01 X1.23167 Y0.41795
G01 X1.23146 Y0.42075
G01 X1.23146 Y0.70530
G01 X1.23183 Y0.70963
G01 X1.23234 Y0.71214
G01 X1.23336 Y0.71368
G01 X1.23753 Y0.71708
G01 X1.23914 Y0.71858
G01 X1.24076 Y0.72028
G01 X1.24192 Y0.72194
G01 X1.24337 Y0.72448
G01 X1.24489 Y0.72898
G01 X1.24525 Y0.73327
G01 X1.24524 Y0.78251
G01 X1.24493 Y0.78658
G01 X1.24340 Y0.79124
G01 X1.24087 Y0.79537
G01 X1.23742 Y0.79884
G01 X1.23321 Y0.80144
G01 X1.22867 Y0.80292
G01 X1.22590 Y0.80330
G01 X1.19684 Y0.80332
G01 X1.19262 Y0.80295
G01 X1.18798 Y0.80139
G01 X1.18387 Y0.79886
G01 X1.18049 Y0.79549
G01 X1.17670 Y0.79005
G01 X1.17506 Y0.78888
G01 X1.17345 Y0.78794
G01 X1.17168 Y0.78732
G01 X1.16983 Y0.78705
G01 X1.16704 Y0.78692
G01 X1.16517 Y0.78700
G01 X1.16335 Y0.78744
G01 X1.16114 Y0.78850
G01 X1.15421 Y0.79522
G01 X1.14912 Y0.79882
G01 X1.14326 Y0.80148
G01 X1.13653 Y0.80307
G01 X1.13027 Y0.80331
G01 X1.12721 Y0.80300
G01 X1.12368 Y0.80235
G01 X1.12014 Y0.80125
G01 X1.11733 Y0.80011
G01 X1.11555 Y0.79921
G01 X1.11173 Y0.79688
G01 X1.10792 Y0.79368
G01 X1.10452 Y0.78990
G01 X1.10270 Y0.78736
G01 X1.09979 Y0.78181
G01 X1.09784 Y0.77533
G01 X1.09730 Y0.76980
G01 X1.09728 Y0.74702
G01 X1.09742 Y0.74370
G01 X1.09782 Y0.74094
G01 X1.09870 Y0.73716
G01 X1.09986 Y0.73396
G01 X1.10115 Y0.73104
G01 X1.10473 Y0.72551
G01 X1.11036 Y0.71925
G01 X1.11085 Y0.71591
G01 X1.11105 Y0.71310
G01 X1.11105 Y0.43446
G01 X1.11089 Y0.43162
G01 X1.11019 Y0.42787
G01 X1.10849 Y0.42525
G01 X1.10732 Y0.42379
G01 X1.10589 Y0.42258
G01 X1.10450 Y0.42190
G01 X1.09349 Y0.41890
G01 X1.09149 Y0.41814
G01 X1.08481 Y0.41481
G01 X1.07881 Y0.41037
G01 X1.07770 Y0.40927
G01 X1.07359 Y0.40483
G01 X1.06987 Y0.39942
G01 X1.06755 Y0.39648
G01 X1.06574 Y0.39551
G01 X1.06314 Y0.39449
G01 X1.06134 Y0.39397
G01 X1.05947 Y0.39380
G01 X1.05761 Y0.39399
G01 X1.05487 Y0.39454
G01 X1.05308 Y0.39508
G01 X1.05142 Y0.39595
G01 X1.05042 Y0.39674
G01 X1.04842 Y0.39929
G01 X1.04648 Y0.40225
G01 X1.04513 Y0.40400
G01 X1.04170 Y0.40798
G01 X1.03879 Y0.41070
G01 X1.03599 Y0.41291
G01 X1.03117 Y0.41599
G01 X1.02955 Y0.41682
G01 X1.02460 Y0.41891
G01 X1.02255 Y0.41963
G01 X1.01534 Y0.42116
G01 X1.00781 Y0.42140
G01 X1.00414 Y0.42104
G01 X1.00034 Y0.42039
G01 X0.99254 Y0.41859
G01 X0.99156 Y0.41864
G01 X0.98942 Y0.41922
G01 X0.98617 Y0.42153
G01 X0.98405 Y0.42337
G01 X0.95211 Y0.45531
G01 X0.95071 Y0.45682
G01 X0.94860 Y0.45967
G01 X0.94820 Y0.46244
G01 X0.94800 Y0.46525
G01 X0.94800 Y0.70530
G01 X0.94836 Y0.70963
G01 X0.94888 Y0.71214
G01 X0.94910 Y0.71258
G01 X0.94990 Y0.71368
G01 X0.95406 Y0.71708
G01 X0.95742 Y0.72040
G01 X0.95992 Y0.72447
G01 X0.96146 Y0.72913
G01 X0.96178 Y0.73327
G01 X0.96175 Y0.78356
G01 X0.96142 Y0.78673
G01 X0.96041 Y0.78989
G01 X0.95950 Y0.79202
G01 X0.95730 Y0.79551
G01 X0.95409 Y0.79870
G01 X0.95228 Y0.79998
G01 X0.94974 Y0.80141
G01 X0.94634 Y0.80263
G01 X0.94418 Y0.80309
G01 X0.94094 Y0.80332
G01 X0.91284 Y0.80331
G01 X0.91011 Y0.80308
G01 X0.90800 Y0.80261
G01 X0.90451 Y0.80139
G01 X0.90040 Y0.79886
G01 X0.89703 Y0.79549
G01 X0.89324 Y0.79005
G01 X0.88998 Y0.78794
G01 X0.88821 Y0.78732
G01 X0.88636 Y0.78705
G01 X0.88357 Y0.78692
G01 X0.88170 Y0.78700
G01 X0.87988 Y0.78744
G01 X0.87818 Y0.78821
G01 X0.87768 Y0.78850
G01 X0.87582 Y0.79019
G01 X0.87103 Y0.79501
G01 X0.86578 Y0.79875
G01 X0.85966 Y0.80153
G01 X0.85307 Y0.80306
G01 X0.84583 Y0.80326
G01 X0.84028 Y0.80236
G01 X0.83672 Y0.80128
G01 X0.83397 Y0.80017
G01 X0.83017 Y0.79812
G01 X0.82827 Y0.79686
G01 X0.82611 Y0.79514
G01 X0.82329 Y0.79255
G01 X0.81978 Y0.78817
G01 X0.81729 Y0.78380
G01 X0.81621 Y0.78150
G01 X0.81436 Y0.77533
G01 X0.81381 Y0.76870
G01 X0.81381 Y0.74705
G01 X0.81394 Y0.74390
G01 X0.81438 Y0.74089
G01 X0.81521 Y0.73723
G01 X0.81639 Y0.73395
G01 X0.81770 Y0.73104
G01 X0.82099 Y0.72585
G01 X0.82689 Y0.71925
G01 X0.82738 Y0.71591
G01 X0.82759 Y0.71310
G01 X0.82760 Y0.43290
G01 X0.82867 Y0.42817
G01 X0.82955 Y0.42612
G01 X0.83084 Y0.42371
G01 X0.83296 Y0.42109
G01 X0.83423 Y0.41967
G01 X0.86285 Y0.39115
G01 X0.86424 Y0.38964
G01 X0.86636 Y0.38679
G01 X0.86675 Y0.38402
G01 X0.86696 Y0.38120
G01 X0.86695 Y0.36736
G01 X0.86663 Y0.36384
G01 X0.86616 Y0.36126
G01 X0.86534 Y0.35958
G01 X0.86422 Y0.35808
G01 X0.86284 Y0.35682
G01 X0.86060 Y0.35515
G01 X0.85900 Y0.35417
G01 X0.85725 Y0.35352
G01 X0.85540 Y0.35321
G01 X0.85262 Y0.35301
G01 X0.85075 Y0.35306
G01 X0.84906 Y0.35342
G01 X0.84736 Y0.35434
G01 X0.84306 Y0.35781
G01 X0.65289 Y0.54797
G01 X0.65150 Y0.54948
G01 X0.64939 Y0.55233
G01 X0.64879 Y0.55791
G01 X0.64885 Y0.69515
G01 X0.64943 Y0.69907
G01 X0.65262 Y0.70311
G01 X0.65475 Y0.70541
G01 X0.65668 Y0.70806
G01 X0.65889 Y0.71161
G01 X0.66022 Y0.71419
G01 X0.66203 Y0.71855
G01 X0.66330 Y0.72293
G01 X0.66395 Y0.72584
G01 X0.66451 Y0.73219
G01 X0.66454 Y0.74314
G01 X0.66435 Y0.74715
G01 X0.66336 Y0.75337
G01 X0.66299 Y0.75476
G01 X0.66048 Y0.76186
G01 X0.65680 Y0.76826
G01 X0.65537 Y0.77015
G01 X0.65199 Y0.77406
G01 X0.65063 Y0.77541
G01 X0.64630 Y0.77900
G01 X0.64136 Y0.78215
G01 X0.63979 Y0.78296
G01 X0.63489 Y0.78503
G01 X0.63279 Y0.78577
G01 X0.62588 Y0.78724
G01 X0.62359 Y0.78743
G01 X0.61796 Y0.78753
G01 X0.61438 Y0.78718
G01 X0.61050 Y0.78651
G01 X0.60735 Y0.78569
G01 X0.60337 Y0.78431
G01 X0.59884 Y0.78215
G01 X0.59656 Y0.78089
G01 X0.59062 Y0.77651
G01 X0.58951 Y0.77541
G01 X0.58540 Y0.77097
G01 X0.58168 Y0.76555
G01 X0.57937 Y0.76263
G01 X0.57755 Y0.76165
G01 X0.57495 Y0.76063
G01 X0.57315 Y0.76011
G01 X0.57129 Y0.75995
G01 X0.56943 Y0.76014
G01 X0.56668 Y0.76068
G01 X0.56489 Y0.76122
G01 X0.56323 Y0.76209
G01 X0.56223 Y0.76289
G01 X0.56023 Y0.76543
G01 X0.55829 Y0.76839
G01 X0.55694 Y0.77014
G01 X0.55352 Y0.77413
G01 X0.55220 Y0.77541
G01 X0.54780 Y0.77905
G01 X0.54479 Y0.78107
G01 X0.54144 Y0.78293
G01 X0.53450 Y0.78575
G01 X0.52716 Y0.78729
G01 X0.51962 Y0.78753
G01 X0.51804 Y0.78743
G01 X0.51215 Y0.78653
G01 X0.50692 Y0.78505
G01 X0.50505 Y0.78435
G01 X0.50042 Y0.78215
G01 X0.49819 Y0.78093
G01 X0.49209 Y0.77643
G01 X0.49108 Y0.77541
G01 X0.48698 Y0.77097
G01 X0.48325 Y0.76555
G01 X0.48094 Y0.76263
G01 X0.47912 Y0.76165
G01 X0.47652 Y0.76063
G01 X0.47472 Y0.76011
G01 X0.47286 Y0.75995
G01 X0.47100 Y0.76014
G01 X0.46826 Y0.76068
G01 X0.46647 Y0.76122
G01 X0.46481 Y0.76209
G01 X0.46380 Y0.76289
G01 X0.46180 Y0.76543
G01 X0.45986 Y0.76839
G01 X0.45854 Y0.77010
G01 X0.45509 Y0.77413
G01 X0.45217 Y0.77683
G01 X0.44945 Y0.77900
G01 X0.44636 Y0.78107
G01 X0.44294 Y0.78296
G01 X0.43607 Y0.78575
G01 X0.42860 Y0.78732
G01 X0.42120 Y0.78753
G01 X0.41752 Y0.78720
G01 X0.41373 Y0.78653
G01 X0.41055 Y0.78570
G01 X0.40652 Y0.78431
G01 X0.40005 Y0.78110
G01 X0.39431 Y0.77692
G01 X0.39263 Y0.77539
G01 X0.38956 Y0.77208
G01 X0.38632 Y0.76916
G01 X0.38253 Y0.76771
G01 X0.38067 Y0.76748
G01 X0.37880 Y0.76760
G01 X0.37605 Y0.76805
G01 X0.37424 Y0.76853
G01 X0.37255 Y0.76933
G01 X0.36931 Y0.77201
G01 X0.36697 Y0.77627
G01 X0.36488 Y0.77963
G01 X0.36143 Y0.78309
G01 X0.35723 Y0.78569
G01 X0.35258 Y0.78720
G01 X0.35000 Y0.78755
G01 X0.30064 Y0.78756
G01 X0.29706 Y0.78723
G01 X0.29231 Y0.78565
G01 X0.28820 Y0.78311
G01 X0.28485 Y0.77978
G01 X0.28228 Y0.77568
G01 X0.28071 Y0.77102
G01 X0.28034 Y0.76676
G01 X0.28034 Y0.70962
G01 X0.28071 Y0.70540
G01 X0.28225 Y0.70073
G01 X0.28487 Y0.69656
G01 X0.28796 Y0.69343
G01 X0.29103 Y0.69066
G01 X0.29136 Y0.68996
G01 X0.29195 Y0.68618
G01 X0.29215 Y0.68337
G01 X0.29208 Y0.59832
G01 X0.29277 Y0.59191
G01 X0.29441 Y0.58670
G01 X0.29490 Y0.58571
G01 X0.29731 Y0.58128
G01 X0.30135 Y0.57642
G01 X0.61580 Y0.26207
G01 X0.61719 Y0.26056
G01 X0.61931 Y0.25771
G01 X0.61971 Y0.25494
G01 X0.61991 Y0.25213
G01 X0.61991 Y0.23367
G01 X0.61955 Y0.22936
G01 X0.61903 Y0.22684
G01 X0.61801 Y0.22530
G01 X0.61384 Y0.22190
G01 X0.61050 Y0.21857
G01 X0.60808 Y0.21465
G01 X0.60648 Y0.21000
G01 X0.60613 Y0.20571
G01 X0.60616 Y0.14752
G01 X0.60644 Y0.14452
G01 X0.60798 Y0.13986
G01 X0.61051 Y0.13573
G01 X0.61222 Y0.13392
G01 X0.61396 Y0.13227
G01 X0.61807 Y0.12974
G01 X0.62271 Y0.12818
G01 X0.62547 Y0.12780
G01 X0.67422 Y0.12779
G01 X0.67833 Y0.12813
G01 X0.68308 Y0.12971
G01 X0.68741 Y0.13243
G01 X0.69068 Y0.13574
G01 X0.69278 Y0.13907
G01 X0.69515 Y0.14357
G01 X0.69556 Y0.14397
G01 X0.69918 Y0.14630
G01 X0.70087 Y0.14711
G01 X0.70268 Y0.14759
G01 X0.70454 Y0.14772
G01 X0.70734 Y0.14764
G01 X0.70920 Y0.14741
G01 X0.71098 Y0.14683
G01 X0.71209 Y0.14622
G01 X0.71450 Y0.14400
G01 X0.71850 Y0.13991
G01 X0.72286 Y0.13631
G01 X0.72773 Y0.13321
G01 X0.72930 Y0.13239
G01 X0.73425 Y0.13031
G01 X0.73630 Y0.12958
G01 X0.74364 Y0.12803
G01 X0.75104 Y0.12782
G01 X0.75471 Y0.12816
G01 X0.75859 Y0.12885
G01 X0.76379 Y0.13031
G01 X0.76579 Y0.13108
G01 X0.77247 Y0.13441
G01 X0.77847 Y0.13884
G01 X0.77961 Y0.13997
G01 X0.78369 Y0.14438
G01 X0.78741 Y0.14980
G01 X0.78972 Y0.15273
G01 X0.79154 Y0.15370
G01 X0.79414 Y0.15473
G01 X0.79594 Y0.15524
G01 X0.79780 Y0.15541
G01 X0.79966 Y0.15522
G01 X0.80241 Y0.15468
G01 X0.80420 Y0.15414
G01 X0.80586 Y0.15327
G01 X0.80686 Y0.15247
G01 X0.80886 Y0.14992
G01 X0.81080 Y0.14696
G01 X0.81212 Y0.14525
G01 X0.81557 Y0.14122
G01 X0.81850 Y0.13852
G01 X0.82122 Y0.13636
G01 X0.82430 Y0.13429
G01 X0.82772 Y0.13239
G01 X0.83459 Y0.12961
G01 X0.84207 Y0.12805
G01 X0.84955 Y0.12782
G01 X0.85314 Y0.12817
G01 X0.85694 Y0.12882
G01 X0.86222 Y0.13031
G01 X0.86422 Y0.13108
G01 X0.86868 Y0.13320
G01 X0.87095 Y0.13447
G01 X0.87700 Y0.13893
G01 X0.88212 Y0.14438
G01 X0.88583 Y0.14980
G01 X0.88815 Y0.15273
G01 X0.88996 Y0.15370
G01 X0.89257 Y0.15473
G01 X0.89436 Y0.15524
G01 X0.89623 Y0.15541
G01 X0.89809 Y0.15522
G01 X0.90083 Y0.15468
G01 X0.90262 Y0.15414
G01 X0.90428 Y0.15327
G01 X0.90557 Y0.15211
G01 X0.91058 Y0.14521
G01 X0.91401 Y0.14123
G01 X0.91696 Y0.13848
G01 X0.91971 Y0.13631
G01 X0.92458 Y0.13320
G01 X0.92615 Y0.13239
G01 X0.93302 Y0.12962
G01 X0.94049 Y0.12805
G01 X0.94789 Y0.12782
G01 X0.94948 Y0.12792
G01 X0.95536 Y0.12883
G01 X0.95859 Y0.12966
G01 X0.96257 Y0.13104
G01 X0.96711 Y0.13319
G01 X0.96938 Y0.13447
G01 X0.97532 Y0.13884
G01 X0.98054 Y0.14438
G01 X0.98243 Y0.14699
G01 X0.98472 Y0.15066
G01 X0.98602 Y0.15321
G01 X0.98781 Y0.15753
G01 X0.98909 Y0.16191
G01 X0.98974 Y0.16482
G01 X0.99029 Y0.17117
G01 X0.99031 Y0.18212
G01 X0.99010 Y0.18635
G01 X0.98914 Y0.19235
G01 X0.98692 Y0.19917
G01 X0.98625 Y0.20083
G01 X0.98255 Y0.20731
G01 X0.97886 Y0.21178
G01 X0.97676 Y0.21465
G01 X0.97573 Y0.21866
G01 X0.97409 Y0.22383
G01 X0.97128 Y0.22893
G01 X0.96829 Y0.23256
G01 X0.90210 Y0.29877
G01 X0.90004 Y0.30118
G01 X0.89826 Y0.30366
G01 X0.89769 Y0.30495
G01 X0.89734 Y0.30640
G01 X0.89721 Y0.30789
G01 X0.89731 Y0.30938
G01 X0.89771 Y0.31214
G01 X0.89815 Y0.31396
G01 X0.89893 Y0.31566
G01 X0.90001 Y0.31719
G01 X0.90184 Y0.31930
G01 X0.90320 Y0.32059
G01 X0.90465 Y0.32152
G01 X0.90650 Y0.32208
G01 X0.91200 Y0.32267
G01 X0.93659 Y0.32269
G01 X0.93926 Y0.32306
G01 X0.94381 Y0.32454
G01 X0.94802 Y0.32713
G01 X0.95141 Y0.33050
G01 X0.95361 Y0.33395
G01 X0.95598 Y0.33845
G01 X0.95639 Y0.33885
G01 X0.96001 Y0.34118
G01 X0.96170 Y0.34199
G01 X0.96350 Y0.34247
G01 X0.96537 Y0.34260
G01 X0.96817 Y0.34252
G01 X0.97002 Y0.34229
G01 X0.97180 Y0.34172
G01 X0.97292 Y0.34110
G01 X0.97533 Y0.33888
G01 X0.97933 Y0.33480
G01 X0.98369 Y0.33119
G01 X0.98671 Y0.32918
G01 X0.99005 Y0.32731
G01 X0.99699 Y0.32450
G01 X1.00434 Y0.32293
G01 X1.00632 Y0.32281
G01 X1.01195 Y0.32270
G01 X1.01559 Y0.32306
G01 X1.01942 Y0.32373
G01 X1.02257 Y0.32453
G01 X1.02654 Y0.32593
G01 X1.03329 Y0.32929
G01 X1.03929 Y0.33373
G01 X1.04041 Y0.33483
G01 X1.04452 Y0.33926
G01 X1.04824 Y0.34468
G01 X1.05055 Y0.34761
G01 X1.05237 Y0.34859
G01 X1.05497 Y0.34961
G01 X1.05677 Y0.35013
G01 X1.05863 Y0.35029
G01 X1.06049 Y0.35010
G01 X1.06323 Y0.34956
G01 X1.06503 Y0.34902
G01 X1.06668 Y0.34815
G01 X1.06769 Y0.34735
G01 X1.06969 Y0.34480
G01 X1.07163 Y0.34184
G01 X1.07295 Y0.34013
G01 X1.07641 Y0.33611
G01 X1.07932 Y0.33340
G01 X1.08205 Y0.33124
G01 X1.08699 Y0.32809
G01 X1.08855 Y0.32727
G01 X1.09536 Y0.32452
G01 X1.10292 Y0.32293
G01 X1.11038 Y0.32270
G01 X1.11396 Y0.32306
G01 X1.11777 Y0.32371
G01 X1.12099 Y0.32453
G01 X1.12504 Y0.32596
G01 X1.13141 Y0.32910
G01 X1.13772 Y0.33373
G01 X1.13886 Y0.33485
G01 X1.14294 Y0.33926
G01 X1.14666 Y0.34468
G01 X1.14898 Y0.34761
G01 X1.15079 Y0.34859
G01 X1.15339 Y0.34961
G01 X1.15519 Y0.35013
G01 X1.15706 Y0.35029
G01 X1.15892 Y0.35010
G01 X1.16166 Y0.34956
G01 X1.16345 Y0.34902
G01 X1.16511 Y0.34815
G01 X1.16611 Y0.34735
G01 X1.16811 Y0.34480
G01 X1.17006 Y0.34184
G01 X1.17137 Y0.34013
G01 X1.17478 Y0.33618
G01 X1.17614 Y0.33483
G01 X1.18054 Y0.33119
G01 X1.18352 Y0.32921
G01 X1.18690 Y0.32731
G01 X1.19385 Y0.32450
G01 X1.20132 Y0.32293
G01 X1.20876 Y0.32271
G01 X1.21025 Y0.32279
G01 X1.22142 Y0.32443
G01 X1.22552 Y0.32303
G01 X1.22720 Y0.32221
G01 X1.22870 Y0.32109
G01 X1.22996 Y0.31971
G01 X1.23163 Y0.31747
G01 X1.23261 Y0.31587
G01 X1.23326 Y0.31412
G01 X1.23357 Y0.31227
G01 X1.23377 Y0.30948
G01 X1.23373 Y0.30761
G01 X1.23336 Y0.30593
G01 X1.23244 Y0.30422
G01 X1.22897 Y0.29992
G01 X1.18100 Y0.25205
G01 X1.17841 Y0.24901
G01 X1.17719 Y0.24737
G01 X1.17582 Y0.24497
G01 X1.17378 Y0.24055
G01 X1.17261 Y0.23628
G01 X1.17171 Y0.22895
G01 X1.17123 Y0.22675
G01 X1.17027 Y0.22534
G01 X1.16601 Y0.22190
G01 X1.16276 Y0.21871
G01 X1.16024 Y0.21465
G01 X1.15965 Y0.21313
G01 X1.15863 Y0.20984
G01 X1.15830 Y0.20574
G01 X1.15830 Y0.14860
G01 X1.15861 Y0.14452
G01 X1.16014 Y0.13986
G01 X1.16267 Y0.13573
G01 X1.16612 Y0.13227
G01 X1.17022 Y0.12972
G01 X1.17487 Y0.12818
G01 X1.17764 Y0.12780
G01 X1.22639 Y0.12779
G01 X1.23050 Y0.12813
G01 X1.23525 Y0.12971
G01 X1.23957 Y0.13243
G01 X1.24285 Y0.13574
G01 X1.24497 Y0.13911
G01 X1.24732 Y0.14357
G01 X1.24773 Y0.14397
G01 X1.25135 Y0.14630
G01 X1.25303 Y0.14711
G01 X1.25484 Y0.14759
G01 X1.25671 Y0.14772
G01 X1.25950 Y0.14764
G01 X1.26136 Y0.14741
G01 X1.26314 Y0.14683
G01 X1.26426 Y0.14622
G01 X1.26667 Y0.14400
G01 X1.27067 Y0.13991
G01 X1.27503 Y0.13631
G01 X1.27990 Y0.13321
G01 X1.28145 Y0.13240
G01 X1.28642 Y0.13032
G01 X1.28865 Y0.12954
G01 X1.29581 Y0.12803
G01 X1.30321 Y0.12782
G01 X1.30688 Y0.12816
G01 X1.31076 Y0.12885
G01 X1.31596 Y0.13031
G01 X1.31796 Y0.13108
G01 X1.32463 Y0.13441
G01 X1.33063 Y0.13885
G01 X1.33177 Y0.13997
G01 X1.33585 Y0.14438
G01 X1.33957 Y0.14980
G01 X1.34189 Y0.15273
G01 X1.34371 Y0.15371
G01 X1.34631 Y0.15473
G01 X1.34811 Y0.15524
G01 X1.34997 Y0.15541
G01 X1.35183 Y0.15522
G01 X1.35457 Y0.15468
G01 X1.35636 Y0.15414
G01 X1.35802 Y0.15327
G01 X1.35903 Y0.15247
G01 X1.36102 Y0.14992
G01 X1.36297 Y0.14696
G01 X1.36429 Y0.14525
G01 X1.36774 Y0.14122
G01 X1.37066 Y0.13852
G01 X1.37338 Y0.13636
G01 X1.37647 Y0.13429
G01 X1.37989 Y0.13239
G01 X1.38676 Y0.12961
G01 X1.39423 Y0.12805
G01 X1.40172 Y0.12782
G01 X1.40530 Y0.12817
G01 X1.40910 Y0.12882
G01 X1.41438 Y0.13031
G01 X1.41638 Y0.13108
G01 X1.42085 Y0.13320
G01 X1.42312 Y0.13447
G01 X1.42917 Y0.13893
G01 X1.43428 Y0.14438
G01 X1.43800 Y0.14980
G01 X1.44031 Y0.15273
G01 X1.44213 Y0.15370
G01 X1.44473 Y0.15473
G01 X1.44653 Y0.15524
G01 X1.44839 Y0.15541
G01 X1.45026 Y0.15522
G01 X1.45300 Y0.15468
G01 X1.45479 Y0.15414
G01 X1.45645 Y0.15327
G01 X1.45774 Y0.15211
G01 X1.46274 Y0.14521
G01 X1.46617 Y0.14123
G01 X1.46912 Y0.13848
G01 X1.47188 Y0.13631
G01 X1.47675 Y0.13320
G01 X1.47831 Y0.13239
G01 X1.48518 Y0.12962
G01 X1.49266 Y0.12803
G01 X1.50006 Y0.12782
G01 X1.50164 Y0.12793
G01 X1.50753 Y0.12883
G01 X1.51075 Y0.12967
G01 X1.51473 Y0.13104
G01 X1.51927 Y0.13320
G01 X1.52154 Y0.13447
G01 X1.52759 Y0.13893
G01 X1.53265 Y0.14432
G01 X1.53460 Y0.14699
G01 X1.53685 Y0.15058
G01 X1.53905 Y0.15513
G01 X1.53997 Y0.15753
G01 X1.54125 Y0.16191
G01 X1.54191 Y0.16482
G01 X1.54248 Y0.17222
G01 X1.54248 Y0.18209
G01 X1.54227 Y0.18635
G01 X1.54170 Y0.19028
G01 X1.54097 Y0.19366
G01 X1.53848 Y0.20071
G01 X1.53467 Y0.20737
G01 X1.52995 Y0.21304
G01 X1.52697 Y0.21581
G01 X1.52358 Y0.21850
G01 X1.52032 Y0.22140
G01 X1.51969 Y0.22258
G01 X1.51907 Y0.22647
G01 X1.51887 Y0.22928
G01 X1.51887 Y0.25131
G01 X1.51895 Y0.25337
G01 X1.51947 Y0.25688
G01 X1.52299 Y0.26124
G01 X1.85532 Y0.59350
G01 X1.85732 Y0.59583
G01 X1.85939 Y0.59915
G01 X1.86101 Y0.60384
G01 X1.86146 Y0.60910
G01 X1.86139 Y0.70530
G01 X1.86175 Y0.70963
G01 X1.86226 Y0.71214
G01 X1.86328 Y0.71368
G01 X1.86531 Y0.71527
G01 X1.86903 Y0.71854
G01 X1.87069 Y0.72028
G01 X1.87183 Y0.72196
G01 X1.87322 Y0.72433
G01 X1.87381 Y0.72585
G01 X1.87479 Y0.72898
G01 X1.87511 Y0.73176
G01 X1.87320 Y0.73328
G01 X1.87320 Y0.78247
G01 X1.87289 Y0.78625
G01 X1.87149 Y0.79048
G01 X1.87014 Y0.79276
G01 X1.86918 Y0.79421
G01 X1.86609 Y0.79729
G01 X1.86286 Y0.79934
G01 X1.86112 Y0.80008
G01 X1.85812 Y0.80101
G01 X1.85574 Y0.80132
G01 X1.82573 Y0.80132
G01 X1.82301 Y0.80102
G01 X1.81877 Y0.79961
G01 X1.81492 Y0.79722
G01 X1.81190 Y0.79420
G01 X1.80821 Y0.78888
G01 X1.80751 Y0.78657
G01 X1.80708 Y0.78248
G01 X1.80708 Y0.73327
G01 X1.80751 Y0.72918
G01 X1.80842 Y0.72622
G01 X1.80925 Y0.72434
G01 X1.81084 Y0.72170
G01 X1.81287 Y0.71937
G01 X1.81440 Y0.71799
G01 X1.81693 Y0.71622
G01 X1.82069 Y0.71455
G01 X1.82117 Y0.71469
G01 X1.82086 Y0.71450
G01 X1.82086 Y0.61642
G01 X1.82101 Y0.61636
G01 X1.82086 Y0.61642
G01 X1.48411 Y0.27967
G01 X1.48224 Y0.27746
G01 X1.48117 Y0.27586
G01 X1.47984 Y0.27328
G01 X1.47896 Y0.27053
G01 X1.47858 Y0.26863
G01 X1.47834 Y0.26575
G01 X1.47834 Y0.22051
G01 X1.47858 Y0.22039
G01 X1.47834 Y0.22051
G01 X1.47742 Y0.22011
G01 X1.47551 Y0.21903
G01 X1.46985 Y0.21492
G01 X1.46832 Y0.21354
G01 X1.46299 Y0.20754
G01 X1.45847 Y0.19970
G01 X1.45567 Y0.19109
G01 X1.45478 Y0.18312
G01 X1.45472 Y0.17224
G01 X1.45551 Y0.16426
G01 X1.45594 Y0.16225
G01 X1.45810 Y0.15559
G01 X1.45887 Y0.15385
G01 X1.46102 Y0.15111
G01 X1.46425 Y0.14648
G01 X1.46758 Y0.14261
G01 X1.47037 Y0.14001
G01 X1.47300 Y0.13793
G01 X1.47592 Y0.13598
G01 X1.47912 Y0.13419
G01 X1.48579 Y0.13150
G01 X1.49285 Y0.13001
G01 X1.50005 Y0.12979
G01 X1.50347 Y0.13013
G01 X1.50715 Y0.13076
G01 X1.51018 Y0.13155
G01 X1.51400 Y0.13287
G01 X1.52041 Y0.13608
G01 X1.52624 Y0.14037
G01 X1.53118 Y0.14563
G01 X1.53297 Y0.14810
G01 X1.53515 Y0.15159
G01 X1.53640 Y0.15404
G01 X1.53810 Y0.15812
G01 X1.53936 Y0.16244
G01 X1.53994 Y0.16505
G01 X1.54052 Y0.17226
G01 X1.54050 Y0.18207
G01 X1.54031 Y0.18612
G01 X1.53977 Y0.18993
G01 X1.53907 Y0.19314
G01 X1.53667 Y0.19993
G01 X1.53306 Y0.20623
G01 X1.52848 Y0.21173
G01 X1.52568 Y0.21432
G01 X1.52232 Y0.21699
G01 X1.51901 Y0.21993
G01 X1.51771 Y0.22051
G01 X1.51756 Y0.22043
G01 X1.51771 Y0.22051
G01 X1.51771 Y0.22243
G01 X1.51711 Y0.22622
G01 X1.51690 Y0.22924
G01 X1.51693 Y0.25246
G01 X1.51753 Y0.25758
G01 X1.51959 Y0.26032
G01 X1.52157 Y0.26261
G01 X1.85391 Y0.59489
G01 X1.85571 Y0.59696
G01 X1.85765 Y0.60011
G01 X1.85906 Y0.60418
G01 X1.85948 Y0.60913
G01 X1.85942 Y0.70533
G01 X1.85980 Y0.70989
G01 X1.86023 Y0.71204
G01 X1.86023 Y0.71450
G01 X1.85994 Y0.71468
G01 X1.86023 Y0.71450
G01 X1.86205 Y0.71522
G01 X1.86616 Y0.71857
G01 X1.86920 Y0.72157
G01 X1.87147 Y0.72524
G01 X1.87288 Y0.72947
G01 X1.87317 Y0.73226
G01 X1.87320 Y0.73328
G01 X1.87204 Y0.73327
G01 X1.87204 Y0.78248
G01 X1.87179 Y0.78535
G01 X1.87144 Y0.78696
G01 X1.87051 Y0.78969
G01 X1.86911 Y0.79220
G01 X1.86814 Y0.79353
G01 X1.86554 Y0.79617
G01 X1.86319 Y0.79782
G01 X1.86057 Y0.79903
G01 X1.85901 Y0.79954
G01 X1.85577 Y0.80013
G01 X1.82573 Y0.80014
G01 X1.82410 Y0.79997
G01 X1.82129 Y0.79933
G01 X1.81865 Y0.79820
G01 X1.81722 Y0.79737
G01 X1.81491 Y0.79565
G01 X1.81244 Y0.79289
G01 X1.81096 Y0.79042
G01 X1.81029 Y0.78892
G01 X1.80944 Y0.78616
G01 X1.80905 Y0.78248
G01 X1.80905 Y0.73327
G01 X1.80944 Y0.72958
G01 X1.81029 Y0.72683
G01 X1.81096 Y0.72533
G01 X1.81244 Y0.72286
G01 X1.81491 Y0.72010
G01 X1.81722 Y0.71837
G01 X1.81865 Y0.71755
G01 X1.82129 Y0.71642
G01 X1.82283 Y0.71605
G01 X1.82318 Y0.71629
G01 X1.82283 Y0.71605
G01 X1.82283 Y0.61561
G01 X1.82298 Y0.61555
G01 X1.82283 Y0.61561
G01 X1.48550 Y0.27828
G01 X1.48376 Y0.27621
G01 X1.48290 Y0.27493
G01 X1.48166 Y0.27253
G01 X1.48084 Y0.26995
G01 X1.48054 Y0.26844
G01 X1.48031 Y0.26575
G01 X1.48031 Y0.21921
G01 X1.48063 Y0.21901
G01 X1.48031 Y0.21921
G01 X1.47741 Y0.21791
G01 X1.47037 Y0.21281
G01 X1.46459 Y0.20639
G01 X1.46026 Y0.19890
G01 X1.45759 Y0.19068
G01 X1.45673 Y0.18291
G01 X1.45669 Y0.17224
G01 X1.45747 Y0.16446
G01 X1.45781 Y0.16285
G01 X1.45997 Y0.15620
G01 X1.46064 Y0.15470
G01 X1.46459 Y0.14795
G01 X1.46979 Y0.14211
G01 X1.47101 Y0.14101
G01 X1.47736 Y0.13644
G01 X1.48525 Y0.13293
G01 X1.49371 Y0.13113
G01 X1.50235 Y0.13113
G01 X1.51080 Y0.13293
G01 X1.51796 Y0.13607
G01 X1.51939 Y0.13689
G01 X1.52505 Y0.14101
G01 X1.52627 Y0.14211
G01 X1.53147 Y0.14795
G01 X1.53579 Y0.15543
G01 X1.53846 Y0.16365
G01 X1.53932 Y0.17142
G01 X1.53937 Y0.18209
G01 X1.53859 Y0.18987
G01 X1.53825 Y0.19148
G01 X1.53579 Y0.19890
G01 X1.53147 Y0.20639
G01 X1.52569 Y0.21281
G01 X1.51865 Y0.21791
G01 X1.51574 Y0.21921
G01 X1.51543 Y0.21901
G01 X1.51574 Y0.21921
G01 X1.51574 Y0.25841
G01 X1.51560 Y0.25847
G01 X1.51574 Y0.25841
G01 X1.85308 Y0.59574
G01 X1.85482 Y0.59781
G01 X1.85568 Y0.59909
G01 X1.85659 Y0.60079
G01 X1.85774 Y0.60406
G01 X1.85804 Y0.60558
G01 X1.85826 Y0.60827
G01 X1.85826 Y0.71605
G01 X1.85793 Y0.71627
G01 X1.85826 Y0.71605
G01 X1.85980 Y0.71642
G01 X1.86319 Y0.71793
G01 X1.86618 Y0.72010
G01 X1.86814 Y0.72221
G01 X1.86911 Y0.72355
G01 X1.87081 Y0.72683
G01 X1.87166 Y0.72958
G01 X1.87204 Y0.73327
G01 X1.87008 Y0.73327
G01 X1.87008 Y0.78248
G01 X1.86983 Y0.78514
G01 X1.86871 Y0.78889
G01 X1.86707 Y0.79174
G01 X1.86487 Y0.79418
G01 X1.86272 Y0.79578
G01 X1.85919 Y0.79746
G01 X1.85567 Y0.79817
G01 X1.82573 Y0.79817
G01 X1.82451 Y0.79805
G01 X1.82190 Y0.79746
G01 X1.81945 Y0.79640
G01 X1.81623 Y0.79418
G01 X1.81403 Y0.79174
G01 X1.81266 Y0.78944
G01 X1.81137 Y0.78576
G01 X1.81102 Y0.78248
G01 X1.81102 Y0.73327
G01 X1.81137 Y0.72999
G01 X1.81266 Y0.72631
G01 X1.81403 Y0.72401
G01 X1.81623 Y0.72157
G01 X1.81889 Y0.71963
G01 X1.82133 Y0.71851
G01 X1.82480 Y0.71766
G01 X1.82518 Y0.71794
G01 X1.82480 Y0.71766
G01 X1.82480 Y0.61479
G01 X1.82495 Y0.61473
G01 X1.82480 Y0.61479
G01 X1.48689 Y0.27688
G01 X1.48464 Y0.27400
G01 X1.48348 Y0.27178
G01 X1.48272 Y0.26938
G01 X1.48228 Y0.26575
G01 X1.48228 Y0.21791
G01 X1.48260 Y0.21771
G01 X1.48228 Y0.21791
G01 X1.47838 Y0.21620
G01 X1.47169 Y0.21134
G01 X1.46618 Y0.20523
G01 X1.46206 Y0.19810
G01 X1.45952 Y0.19027
G01 X1.45869 Y0.18270
G01 X1.45866 Y0.17224
G01 X1.45942 Y0.16467
G01 X1.45968 Y0.16346
G01 X1.46184 Y0.15681
G01 X1.46234 Y0.15568
G01 X1.46618 Y0.14910
G01 X1.47125 Y0.14342
G01 X1.47217 Y0.14260
G01 X1.47834 Y0.13815
G01 X1.48586 Y0.13480
G01 X1.49391 Y0.13309
G01 X1.50214 Y0.13309
G01 X1.51019 Y0.13480
G01 X1.51716 Y0.13787
G01 X1.51823 Y0.13849
G01 X1.52389 Y0.14260
