( pcb2gcode 2.5.0 )
( Software-independent Gcode )

G94 ( Millimeters per minute feed rate. )
G21 ( Units == Millimeters. )

G90 ( Absolute coordinates. )
G00 S24000 ( RPM spindle speed. )
G01 F880.00000 ( Feedrate. )


G00 Z50.00000 (Retract to tool change height)
T0
M5      (Spindle stop.)
G04 P1.00000 (Wait for spindle to stop)
(MSG, Change tool bit to cutter diameter 2.00000mm)
M0      (Temporary machine stop.)
M3 ( Spindle on clockwise. )
G04 P1.00000 (Wait for spindle to get up to speed)
G04 P0 ( dwell for no time -- G64 should not smooth over this point )
G00 Z0.30000 ( retract )

G00 X26.47587 Y16.05321 ( rapid move to begin. )
G01 Z-0.40000 F240.00000 ( plunge. )
G04 P0 ( dwell for no time -- G64 should not smooth over this point )
G01 F880.00000
G01 X26.47462 Y15.95308
G01 X26.46332 Y15.85359
G01 X26.32898 Y15.03538
G01 X26.30782 Y14.93749
G01 X26.27699 Y14.84221
G01 X25.98247 Y14.06713
G01 X25.94226 Y13.97541
G01 X25.89306 Y13.88816
G01 X25.45016 Y13.18722
G01 X25.39251 Y13.10533
G01 X25.32695 Y13.02964
G01 X24.75339 Y12.43089
G01 X24.68057 Y12.36213
G01 X24.60127 Y12.30099
G01 X23.93043 Y11.83559
G01 X15.43070 Y5.61307
G01 X15.31912 Y5.54223
G01 X15.04315 Y5.39158
G01 X14.95074 Y5.34713
G01 X14.85428 Y5.31236
G01 X14.55339 Y5.22110
G01 X14.45392 Y5.19643
G01 X14.35247 Y5.18206
G01 X14.03932 Y5.15396
G01 X13.94998 Y5.14995
G01 X-14.04998 Y5.14995
G01 X-14.32789 Y5.16062
G01 X-14.49517 Y5.18178
G01 X-14.72667 Y5.23118
G01 X-14.88785 Y5.28010
G01 X-15.10777 Y5.36766
G01 X-15.25854 Y5.44297
G01 X-15.46062 Y5.56621
G01 X-15.53068 Y5.61307
G01 X-24.02644 Y11.83267
G01 X-24.69965 Y12.28989
G01 X-24.78082 Y12.35128
G01 X-24.85532 Y12.42060
G01 X-25.43442 Y13.01720
G01 X-25.50155 Y13.09378
G01 X-25.56053 Y13.17678
G01 X-26.00698 Y13.87823
G01 X-26.05720 Y13.96677
G01 X-26.09812 Y14.05994
G01 X-26.39350 Y14.83716
G01 X-26.42476 Y14.93403
G01 X-26.44602 Y15.03360
G01 X-26.57805 Y15.85450
G01 X-26.58905 Y15.95570
G01 X-26.58974 Y16.05750
G01 X-26.55298 Y16.88816
G01 X-26.54333 Y16.98950
G01 X-26.52342 Y17.08932
G01 X-26.30485 Y17.94698
G01 X-25.41286 Y20.81466
G01 X-24.52182 Y23.67928
G01 X-23.62982 Y26.54696
G01 X-23.60610 Y26.61455
G01 X-23.51352 Y26.85103
G01 X-23.43130 Y27.01491
G01 X-23.29708 Y27.23050
G01 X-23.18621 Y27.37675
G01 X-23.01486 Y27.56418
G01 X-22.87923 Y27.68763
G01 X-22.67654 Y27.84061
G01 X-22.52053 Y27.93726
G01 X-22.29330 Y28.05062
G01 X-22.12243 Y28.11706
G01 X-21.87832 Y28.18704
G01 X-21.69808 Y28.22120
G01 X-21.44530 Y28.24541
G01 X-21.34997 Y28.24998
G01 X21.25000 Y28.24996
G01 X21.33478 Y28.24635
G01 X21.58848 Y28.22476
G01 X21.77242 Y28.19156
G01 X22.01769 Y28.12313
G01 X22.19223 Y28.05631
G01 X22.42048 Y27.94343
G01 X22.57958 Y27.84526
G01 X22.78283 Y27.69187
G01 X22.92083 Y27.56583
G01 X23.09198 Y27.37731
G01 X23.20420 Y27.22766
G01 X23.33724 Y27.01056
G01 X23.41956 Y26.84285
G01 X23.52985 Y26.54696
G01 X24.42183 Y23.67928
G01 X25.31287 Y20.81466
G01 X26.20485 Y17.94698
G01 X26.41722 Y17.07987
G01 X26.43594 Y16.98150
G01 X26.44470 Y16.88175
G01 X26.47587 Y16.05321
G01 Z-0.80000 F240.00000 ( plunge. )
G04 P0 ( dwell for no time -- G64 should not smooth over this point )
G01 F880.00000
G01 X26.47462 Y15.95308
G01 X26.46332 Y15.85359
G01 X26.32898 Y15.03538
G01 X26.30782 Y14.93749
G01 X26.27699 Y14.84221
G01 X25.98247 Y14.06713
G01 X25.94226 Y13.97541
G01 X25.89306 Y13.88816
G01 X25.45016 Y13.18722
G01 X25.39251 Y13.10533
G01 X25.32695 Y13.02964
G01 X24.75339 Y12.43089
G01 X24.68057 Y12.36213
G01 X24.60127 Y12.30099
G01 X23.93043 Y11.83559
G01 X15.43070 Y5.61307
G01 X15.31912 Y5.54223
G01 X15.04315 Y5.39158
G01 X14.95074 Y5.34713
G01 X14.85428 Y5.31236
G01 X14.55339 Y5.22110
G01 X14.45392 Y5.19643
G01 X14.35247 Y5.18206
G01 X14.03932 Y5.15396
G01 X13.94998 Y5.14995
G01 X-14.04998 Y5.14995
G01 X-14.32789 Y5.16062
G01 X-14.49517 Y5.18178
G01 X-14.72667 Y5.23118
G01 X-14.88785 Y5.28010
G01 X-15.10777 Y5.36766
G01 X-15.25854 Y5.44297
G01 X-15.46062 Y5.56621
G01 X-15.53068 Y5.61307
G01 X-24.02644 Y11.83267
G01 X-24.69965 Y12.28989
G01 X-24.78082 Y12.35128
G01 X-24.85532 Y12.42060
G01 X-25.43442 Y13.01720
G01 X-25.50155 Y13.09378
G01 X-25.56053 Y13.17678
G01 X-26.00698 Y13.87823
G01 X-26.05720 Y13.96677
G01 X-26.09812 Y14.05994
G01 X-26.39350 Y14.83716
G01 X-26.42476 Y14.93403
G01 X-26.44602 Y15.03360
G01 X-26.57805 Y15.85450
G01 X-26.58905 Y15.95570
G01 X-26.58974 Y16.05750
G01 X-26.55298 Y16.88816
G01 X-26.54333 Y16.98950
G01 X-26.52342 Y17.08932
G01 X-26.30485 Y17.94698
G01 X-25.41286 Y20.81466
G01 X-24.52182 Y23.67928
G01 X-23.62982 Y26.54696
G01 X-23.60610 Y26.61455
G01 X-23.51352 Y26.85103
G01 X-23.43130 Y27.01491
G01 X-23.29708 Y27.23050
G01 X-23.18621 Y27.37675
G01 X-23.01486 Y27.56418
G01 X-22.87923 Y27.68763
G01 X-22.67654 Y27.84061
G01 X-22.52053 Y27.93726
G01 X-22.29330 Y28.05062
G01 X-22.12243 Y28.11706
G01 X-21.87832 Y28.18704
G01 X-21.69808 Y28.22120
G01 X-21.44530 Y28.24541
G01 X-21.34997 Y28.24998
G01 X21.25000 Y28.24996
G01 X21.33478 Y28.24635
G01 X21.58848 Y28.22476
G01 X21.77242 Y28.19156
G01 X22.01769 Y28.12313
G01 X22.19223 Y28.05631
G01 X22.42048 Y27.94343
G01 X22.57958 Y27.84526
G01 X22.78283 Y27.69187
G01 X22.92083 Y27.56583
G01 X23.09198 Y27.37731
G01 X23.20420 Y27.22766
G01 X23.33724 Y27.01056
G01 X23.41956 Y26.84285
G01 X23.52985 Y26.54696
G01 X24.42183 Y23.67928
G01 X25.31287 Y20.81466
G01 X26.20485 Y17.94698
G01 X26.41722 Y17.07987
G01 X26.43594 Y16.98150
G01 X26.44470 Y16.88175
G01 X26.47587 Y16.05321
G01 Z-1.20000 F240.00000 ( plunge. )
G04 P0 ( dwell for no time -- G64 should not smooth over this point )
G01 F880.00000
G01 X26.47462 Y15.95308
G01 X26.46332 Y15.85359
G01 X26.32898 Y15.03538
G01 X26.30782 Y14.93749
G01 X26.27699 Y14.84221
G01 X25.98247 Y14.06713
G01 X25.94226 Y13.97541
G01 X25.89306 Y13.88816
G01 X25.45016 Y13.18722
G01 X25.39251 Y13.10533
G01 X25.32695 Y13.02964
G01 X24.75339 Y12.43089
G01 X24.68057 Y12.36213
G01 X24.60127 Y12.30099
G01 X23.93043 Y11.83559
G01 X15.43070 Y5.61307
G01 X15.31912 Y5.54223
G01 X15.04315 Y5.39158
G01 X14.95074 Y5.34713
G01 X14.85428 Y5.31236
G01 X14.55339 Y5.22110
G01 X14.45392 Y5.19643
G01 X14.35247 Y5.18206
G01 X14.03932 Y5.15396
G01 X13.94998 Y5.14995
G01 X-14.04998 Y5.14995
G01 X-14.32789 Y5.16062
G01 X-14.49517 Y5.18178
G01 X-14.72667 Y5.23118
G01 X-14.88785 Y5.28010
G01 X-15.10777 Y5.36766
G01 X-15.25854 Y5.44297
G01 X-15.46062 Y5.56621
G01 X-15.53068 Y5.61307
G01 X-24.02644 Y11.83267
G01 X-24.69965 Y12.28989
G01 X-24.78082 Y12.35128
G01 X-24.85532 Y12.42060
G01 X-25.43442 Y13.01720
G01 X-25.50155 Y13.09378
G01 X-25.56053 Y13.17678
G01 X-26.00698 Y13.87823
G01 X-26.05720 Y13.96677
G01 X-26.09812 Y14.05994
G01 X-26.39350 Y14.83716
G01 X-26.42476 Y14.93403
G01 X-26.44602 Y15.03360
G01 X-26.57805 Y15.85450
G01 X-26.58905 Y15.95570
G01 X-26.58974 Y16.05750
G01 X-26.55298 Y16.88816
G01 X-26.54333 Y16.98950
G01 X-26.52342 Y17.08932
G01 X-26.30485 Y17.94698
G01 X-25.41286 Y20.81466
G01 X-24.52182 Y23.67928
G01 X-23.62982 Y26.54696
G01 X-23.60610 Y26.61455
G01 X-23.51352 Y26.85103
G01 X-23.43130 Y27.01491
G01 X-23.29708 Y27.23050
G01 X-23.18621 Y27.37675
G01 X-23.01486 Y27.56418
G01 X-22.87923 Y27.68763
G01 X-22.67654 Y27.84061
G01 X-22.52053 Y27.93726
G01 X-22.29330 Y28.05062
G01 X-22.12243 Y28.11706
G01 X-21.87832 Y28.18704
G01 X-21.69808 Y28.22120
G01 X-21.44530 Y28.24541
G01 X-21.34997 Y28.24998
G01 X21.25000 Y28.24996
G01 X21.33478 Y28.24635
G01 X21.58848 Y28.22476
G01 X21.77242 Y28.19156
G01 X22.01769 Y28.12313
G01 X22.19223 Y28.05631
G01 X22.42048 Y27.94343
G01 X22.57958 Y27.84526
G01 X22.78283 Y27.69187
G01 X22.92083 Y27.56583
G01 X23.09198 Y27.37731
G01 X23.20420 Y27.22766
G01 X23.33724 Y27.01056
G01 X23.41956 Y26.84285
G01 X23.52985 Y26.54696
G01 X24.42183 Y23.67928
G01 X25.31287 Y20.81466
G01 X26.20485 Y17.94698
G01 X26.41722 Y17.07987
G01 X26.43594 Y16.98150
G01 X26.44470 Y16.88175
G01 X26.47587 Y16.05321
G01 Z-1.60000 F240.00000 ( plunge. )
G04 P0 ( dwell for no time -- G64 should not smooth over this point )
G01 F880.00000
G01 X26.47462 Y15.95308
G01 X26.46332 Y15.85359
G01 X26.32898 Y15.03538
G01 X26.30782 Y14.93749
G01 X26.27699 Y14.84221
G01 X25.98247 Y14.06713
G01 X25.94226 Y13.97541
G01 X25.89306 Y13.88816
G01 X25.45016 Y13.18722
G01 X25.39251 Y13.10533
G01 X25.32695 Y13.02964
G01 X24.75339 Y12.43089
G01 X24.68057 Y12.36213
G01 X24.60127 Y12.30099
G01 X23.93043 Y11.83559
G01 X15.43070 Y5.61307
G01 X15.31912 Y5.54223
G01 X15.04315 Y5.39158
G01 X14.95074 Y5.34713
G01 X14.85428 Y5.31236
G01 X14.55339 Y5.22110
G01 X14.45392 Y5.19643
G01 X14.35247 Y5.18206
G01 X14.03932 Y5.15396
G01 X13.94998 Y5.14995
G01 X-14.04998 Y5.14995
G01 X-14.32789 Y5.16062
G01 X-14.49517 Y5.18178
G01 X-14.72667 Y5.23118
G01 X-14.88785 Y5.28010
G01 X-15.10777 Y5.36766
G01 X-15.25854 Y5.44297
G01 X-15.46062 Y5.56621
G01 X-15.53068 Y5.61307
G01 X-24.02644 Y11.83267
G01 X-24.69965 Y12.28989
G01 X-24.78082 Y12.35128
G01 X-24.85532 Y12.42060
G01 X-25.43442 Y13.01720
G01 X-25.50155 Y13.09378
G01 X-25.56053 Y13.17678
G01 X-26.00698 Y13.87823
G01 X-26.05720 Y13.96677
G01 X-26.09812 Y14.05994
G01 X-26.39350 Y14.83716
G01 X-26.42476 Y14.93403
G01 X-26.44602 Y15.03360
G01 X-26.57805 Y15.85450
G01 X-26.58905 Y15.95570
G01 X-26.58974 Y16.05750
G01 X-26.55298 Y16.88816
G01 X-26.54333 Y16.98950
G01 X-26.52342 Y17.08932
G01 X-26.30485 Y17.94698
G01 X-25.41286 Y20.81466
G00 Z-1.20000
G01 X-24.52182 Y23.67928
G01 Z-1.60000 F240.00000
G01 F880.00000
G01 X-23.62982 Y26.54696
G01 X-23.60610 Y26.61455
G01 X-23.51352 Y26.85103
G01 X-23.43130 Y27.01491
G01 X-23.29708 Y27.23050
G01 X-23.18621 Y27.37675
G01 X-23.01486 Y27.56418
G01 X-22.87923 Y27.68763
G01 X-22.67654 Y27.84061
G01 X-22.52053 Y27.93726
G01 X-22.29330 Y28.05062
G01 X-22.12243 Y28.11706
G01 X-21.87832 Y28.18704
G01 X-21.69808 Y28.22120
G01 X-21.44530 Y28.24541
G01 X-21.34997 Y28.24998
G01 X21.25000 Y28.24996
G01 X21.33478 Y28.24635
G01 X21.58848 Y28.22476
G01 X21.77242 Y28.19156
G01 X22.01769 Y28.12313
G01 X22.19223 Y28.05631
G01 X22.42048 Y27.94343
G01 X22.57958 Y27.84526
G01 X22.78283 Y27.69187
G01 X22.92083 Y27.56583
G01 X23.09198 Y27.37731
G01 X23.20420 Y27.22766
G01 X23.33724 Y27.01056
G01 X23.41956 Y26.84285
G01 X23.52985 Y26.54696
G01 X24.42183 Y23.67928
G00 Z-1.20000
G01 X25.31287 Y20.81466
G01 Z-1.60000 F240.00000
G01 F880.00000
G01 X26.20485 Y17.94698
G01 X26.41722 Y17.07987
G01 X26.43594 Y16.98150
G01 X26.44470 Y16.88175
G01 X26.47587 Y16.05321

G04 P0 ( dwell for no time -- G64 should not smooth over this point )
G00 Z50.000000 ( retract )

M5 ( Spindle off. )
G04 P1.000000
M9 ( Coolant off. )
M2 ( Program end. )

