( pcb2gcode 2.5.0 )
( Software-independent Gcode )
( This file uses a mill head of 0.07874inch to drill the 1 hole sizes. )
( Hole sizes: [0.125984inch] )

G94       (Inches per minute feed rate.)
G20       (Units == INCHES.)
G91.1     (Incremental arc distance mode.)
G90       (Absolute coordinates.)
S24000    (RPM spindle speed.)

G01 F42.51969 (Feedrate)
G00 Z2.36220 (Retract to tool change height)
T5
M5        (Spindle stop.)
G04 P1.00000
(MSG, Change tool bit to drill size 0.07874inch)
M6        (Tool change.)
M0        (Temporary machine stop.)
M3        (Spindle on clockwise.)
G04 P1.00000
G00 Z0.01181

G0 X0.27559 Y-0.53543
G1 Z0.01914 F12.59843
G1 F42.51969
G2 X0.27559 Y-0.53543 Z-0.00000 I-0.02362 J0.00000
G2 X0.27559 Y-0.53543 Z-0.01914 I-0.02362 J0.00000
G2 X0.27559 Y-0.53543 Z-0.03829 I-0.02362 J0.00000
G2 X0.27559 Y-0.53543 Z-0.05743 I-0.02362 J0.00000
G2 X0.27559 Y-0.53543 Z-0.07657 I-0.02362 J0.00000
G2 X0.27559 Y-0.53543 Z-0.09571 I-0.02362 J0.00000
G2 X0.27559 Y-0.53543 Z-0.11486 I-0.02362 J0.00000
G2 X0.27559 Y-0.53543 Z-0.13400 I-0.02362 J0.00000
G2 X0.27559 Y-0.53543 Z-0.15314 I-0.02362 J0.00000
G2 X0.27559 Y-0.53543 Z-0.17229 I-0.02362 J0.00000
G2 X0.27559 Y-0.53543 Z-0.19143 I-0.02362 J0.00000
G2 X0.27559 Y-0.53543 Z-0.21057 I-0.02362 J0.00000
G2 X0.27559 Y-0.53543 Z-0.22971 I-0.02362 J0.00000
G2 X0.27559 Y-0.53543 Z-0.24886 I-0.02362 J0.00000
G2 X0.27559 Y-0.53543 Z-0.26800 I-0.02362 J0.00000
G2 X0.27559 Y-0.53543 Z-0.28714 I-0.02362 J0.00000
G2 X0.27559 Y-0.53543 Z-0.30629 I-0.02362 J0.00000
G2 X0.27559 Y-0.53543 Z-0.32543 I-0.02362 J0.00000
G2 X0.27559 Y-0.53543 Z-0.34457 I-0.02362 J0.00000
G2 X0.27559 Y-0.53543 Z-0.36371 I-0.02362 J0.00000
G2 X0.27559 Y-0.53543 Z-0.38286 I-0.02362 J0.00000
G2 X0.27559 Y-0.53543 Z-0.40200 I-0.02362 J0.00000
G2 X0.27559 Y-0.53543 Z-0.42114 I-0.02362 J0.00000
G2 X0.27559 Y-0.53543 Z-0.44029 I-0.02362 J0.00000
G2 X0.27559 Y-0.53543 Z-0.45943 I-0.02362 J0.00000
G2 X0.27559 Y-0.53543 Z-0.47857 I-0.02362 J0.00000
G2 X0.27559 Y-0.53543 Z-0.49771 I-0.02362 J0.00000
G2 X0.27559 Y-0.53543 Z-0.51686 I-0.02362 J0.00000
G2 X0.27559 Y-0.53543 Z-0.53600 I-0.02362 J0.00000
G2 X0.27559 Y-0.53543 Z-0.55514 I-0.02362 J0.00000
G2 X0.27559 Y-0.53543 Z-0.57429 I-0.02362 J0.00000
G2 X0.27559 Y-0.53543 Z-0.59343 I-0.02362 J0.00000
G2 X0.27559 Y-0.53543 Z-0.61257 I-0.02362 J0.00000
G2 X0.27559 Y-0.53543 Z-0.63171 I-0.02362 J0.00000
G2 X0.27559 Y-0.53543 Z-0.65086 I-0.02362 J0.00000
G2 X0.27559 Y-0.53543 Z-0.67000 I-0.02362 J0.00000
G2 X0.27559 Y-0.53543 I-0.02362 J0.00000
G1 Z0.01181 F12.59843

G0 X2.00787 Y-0.53543
G1 Z0.01914 F12.59843
G1 F42.51969
G2 X2.00787 Y-0.53543 Z-0.00000 I-0.02362 J0.00000
G2 X2.00787 Y-0.53543 Z-0.01914 I-0.02362 J0.00000
G2 X2.00787 Y-0.53543 Z-0.03829 I-0.02362 J0.00000
G2 X2.00787 Y-0.53543 Z-0.05743 I-0.02362 J0.00000
G2 X2.00787 Y-0.53543 Z-0.07657 I-0.02362 J0.00000
G2 X2.00787 Y-0.53543 Z-0.09571 I-0.02362 J0.00000
G2 X2.00787 Y-0.53543 Z-0.11486 I-0.02362 J0.00000
G2 X2.00787 Y-0.53543 Z-0.13400 I-0.02362 J0.00000
G2 X2.00787 Y-0.53543 Z-0.15314 I-0.02362 J0.00000
G2 X2.00787 Y-0.53543 Z-0.17229 I-0.02362 J0.00000
G2 X2.00787 Y-0.53543 Z-0.19143 I-0.02362 J0.00000
G2 X2.00787 Y-0.53543 Z-0.21057 I-0.02362 J0.00000
G2 X2.00787 Y-0.53543 Z-0.22971 I-0.02362 J0.00000
G2 X2.00787 Y-0.53543 Z-0.24886 I-0.02362 J0.00000
G2 X2.00787 Y-0.53543 Z-0.26800 I-0.02362 J0.00000
G2 X2.00787 Y-0.53543 Z-0.28714 I-0.02362 J0.00000
G2 X2.00787 Y-0.53543 Z-0.30629 I-0.02362 J0.00000
G2 X2.00787 Y-0.53543 Z-0.32543 I-0.02362 J0.00000
G2 X2.00787 Y-0.53543 Z-0.34457 I-0.02362 J0.00000
G2 X2.00787 Y-0.53543 Z-0.36371 I-0.02362 J0.00000
G2 X2.00787 Y-0.53543 Z-0.38286 I-0.02362 J0.00000
G2 X2.00787 Y-0.53543 Z-0.40200 I-0.02362 J0.00000
G2 X2.00787 Y-0.53543 Z-0.42114 I-0.02362 J0.00000
G2 X2.00787 Y-0.53543 Z-0.44029 I-0.02362 J0.00000
G2 X2.00787 Y-0.53543 Z-0.45943 I-0.02362 J0.00000
G2 X2.00787 Y-0.53543 Z-0.47857 I-0.02362 J0.00000
G2 X2.00787 Y-0.53543 Z-0.49771 I-0.02362 J0.00000
G2 X2.00787 Y-0.53543 Z-0.51686 I-0.02362 J0.00000
G2 X2.00787 Y-0.53543 Z-0.53600 I-0.02362 J0.00000
G2 X2.00787 Y-0.53543 Z-0.55514 I-0.02362 J0.00000
G2 X2.00787 Y-0.53543 Z-0.57429 I-0.02362 J0.00000
G2 X2.00787 Y-0.53543 Z-0.59343 I-0.02362 J0.00000
G2 X2.00787 Y-0.53543 Z-0.61257 I-0.02362 J0.00000
G2 X2.00787 Y-0.53543 Z-0.63171 I-0.02362 J0.00000
G2 X2.00787 Y-0.53543 Z-0.65086 I-0.02362 J0.00000
G2 X2.00787 Y-0.53543 Z-0.67000 I-0.02362 J0.00000
G2 X2.00787 Y-0.53543 I-0.02362 J0.00000
G1 Z0.01181 F12.59843

G00 Z2.362205 ( All done -- retract )

M5      (Spindle off.)
G04 P1.000000
M9      (Coolant off.)
M2      (Program end.)

