( pcb2gcode 2.5.0 )
( Software-independent Gcode )

G94 ( Inches per minute feed rate. )
G20 ( Units == INCHES. )

G90 ( Absolute coordinates. )
G00 S24000 ( RPM spindle speed. )
G64 P0.00040 ( set maximum deviation from commanded toolpath )
G01 F31.49606 ( Feedrate. )


G00 Z2.36220 (Retract to tool change height)
T0
M5      (Spindle stop.)
G04 P1.00000 (Wait for spindle to stop)
(MSG, Change tool bit to mill diameter 0.00400in)
M6      (Tool change.)
M0      (Temporary machine stop.)
M3 ( Spindle on clockwise. )
G04 P1.00000 (Wait for spindle to get up to speed)
G04 P0 ( dwell for no time -- G64 should not smooth over this point )
G00 Z0.01181 ( retract )

G00 X0.31269 Y-0.22334 ( rapid move to begin. )
G01 F12.59843
( Mill infeed pass 1/1 )
G01 Z-0.00200
G04 P0 ( dwell for no time -- G64 should not smooth over this point )
G01 F31.49606
G01 X0.31269 Y-0.22334
G01 X0.31269 Y-0.17036
G01 X0.31308 Y-0.16657
G01 X0.31513 Y-0.16039
G01 X0.31854 Y-0.15486
G01 X0.32313 Y-0.15026
G01 X0.32865 Y-0.14684
G01 X0.33483 Y-0.14478
G01 X0.33867 Y-0.14438
G01 X0.36999 Y-0.14438
G01 X0.37378 Y-0.14477
G01 X0.37996 Y-0.14682
G01 X0.38550 Y-0.15023
G01 X0.39010 Y-0.15482
G01 X0.39189 Y-0.15759
G01 X0.39446 Y-0.15947
G01 X0.39552 Y-0.15984
G01 X0.39831 Y-0.15998
G01 X0.39941 Y-0.15971
G01 X0.40207 Y-0.15816
G01 X0.40574 Y-0.15436
G01 X0.41222 Y-0.14976
G01 X0.41945 Y-0.14647
G01 X0.42718 Y-0.14461
G01 X0.43511 Y-0.14424
G01 X0.44298 Y-0.14538
G01 X0.45048 Y-0.14799
G01 X0.45736 Y-0.15197
G01 X0.46336 Y-0.15718
G01 X0.46827 Y-0.16342
G01 X0.47191 Y-0.17049
G01 X0.47415 Y-0.17811
G01 X0.47471 Y-0.18404
G01 X0.47471 Y-0.21155
G01 X0.47318 Y-0.21956
G01 X0.47021 Y-0.22693
G01 X0.46590 Y-0.23360
G01 X0.46040 Y-0.23934
G01 X0.45392 Y-0.24394
G01 X0.44669 Y-0.24723
G01 X0.43896 Y-0.24909
G01 X0.43103 Y-0.24946
G01 X0.42316 Y-0.24832
G01 X0.41566 Y-0.24571
G01 X0.40878 Y-0.24173
G01 X0.40272 Y-0.23647
G01 X0.40140 Y-0.23515
G01 X0.39859 Y-0.23391
G01 X0.39785 Y-0.23374
G01 X0.39471 Y-0.23422
G01 X0.39370 Y-0.23470
G01 X0.39142 Y-0.23678
G01 X0.39012 Y-0.23884
G01 X0.38553 Y-0.24344
G01 X0.38001 Y-0.24686
G01 X0.37383 Y-0.24892
G01 X0.36999 Y-0.24932
G01 X0.33867 Y-0.24932
G01 X0.33487 Y-0.24893
G01 X0.32869 Y-0.24688
G01 X0.32316 Y-0.24347
G01 X0.31857 Y-0.23888
G01 X0.31515 Y-0.23336
G01 X0.31309 Y-0.22718
G01 X0.31269 Y-0.22334
G01 X0.31464 Y-0.22323
G01 X0.31464 Y-0.17046
G01 X0.31499 Y-0.16698
G01 X0.31690 Y-0.16121
G01 X0.32007 Y-0.15607
G01 X0.32434 Y-0.15179
G01 X0.32948 Y-0.14861
G01 X0.33524 Y-0.14667
G01 X0.33877 Y-0.14633
G01 X0.36989 Y-0.14633
G01 X0.37338 Y-0.14666
G01 X0.37914 Y-0.14859
G01 X0.38428 Y-0.15176
G01 X0.38857 Y-0.15605
G01 X0.39047 Y-0.15893
G01 X0.39332 Y-0.16106
G01 X0.39468 Y-0.16168
G01 X0.39821 Y-0.16193
G01 X0.39970 Y-0.16172
G01 X0.40327 Y-0.15970
G01 X0.40701 Y-0.15584
G01 X0.41319 Y-0.15145
G01 X0.42009 Y-0.14832
G01 X0.42745 Y-0.14654
G01 X0.43502 Y-0.14620
G01 X0.44251 Y-0.14729
G01 X0.44967 Y-0.14977
G01 X0.45622 Y-0.15356
G01 X0.46194 Y-0.15853
G01 X0.46662 Y-0.16448
G01 X0.47009 Y-0.17122
G01 X0.47222 Y-0.17848
G01 X0.47276 Y-0.18413
G01 X0.47276 Y-0.21136
G01 X0.47130 Y-0.21901
G01 X0.46847 Y-0.22602
G01 X0.46436 Y-0.23239
G01 X0.45912 Y-0.23786
G01 X0.45294 Y-0.24224
G01 X0.44605 Y-0.24537
G01 X0.43869 Y-0.24715
G01 X0.43112 Y-0.24751
G01 X0.42362 Y-0.24642
G01 X0.41647 Y-0.24394
G01 X0.40991 Y-0.24014
G01 X0.40242 Y-0.23348
G01 X0.39937 Y-0.23212
G01 X0.39791 Y-0.23179
G01 X0.39440 Y-0.23229
G01 X0.39299 Y-0.23281
G01 X0.38992 Y-0.23553
G01 X0.38858 Y-0.23762
G01 X0.38432 Y-0.24191
G01 X0.37918 Y-0.24509
G01 X0.37342 Y-0.24701
G01 X0.36989 Y-0.24737
G01 X0.33877 Y-0.24737
G01 X0.33528 Y-0.24703
G01 X0.32952 Y-0.24511
G01 X0.32438 Y-0.24194
G01 X0.32010 Y-0.23767
G01 X0.31692 Y-0.23253
G01 X0.31500 Y-0.22677
G01 X0.31464 Y-0.22323
G01 X0.31659 Y-0.22313
G01 X0.31659 Y-0.17056
G01 X0.31691 Y-0.16739
G01 X0.31868 Y-0.16204
G01 X0.32161 Y-0.15729
G01 X0.32556 Y-0.15333
G01 X0.33031 Y-0.15039
G01 X0.33565 Y-0.14859
G01 X0.33887 Y-0.14829
G01 X0.36979 Y-0.14829
G01 X0.37296 Y-0.14859
G01 X0.37831 Y-0.15037
G01 X0.38307 Y-0.15330
G01 X0.38703 Y-0.15728
G01 X0.38905 Y-0.16027
G01 X0.39218 Y-0.16264
G01 X0.39315 Y-0.16321
G01 X0.39421 Y-0.16358
G01 X0.39812 Y-0.16388
G01 X0.39924 Y-0.16383
G01 X0.40033 Y-0.16356
G01 X0.40378 Y-0.16171
G01 X0.40510 Y-0.16067
G01 X0.40830 Y-0.15732
G01 X0.41417 Y-0.15315
G01 X0.42073 Y-0.15017
G01 X0.42773 Y-0.14848
G01 X0.43492 Y-0.14816
G01 X0.44205 Y-0.14919
G01 X0.44885 Y-0.15155
G01 X0.45508 Y-0.15516
G01 X0.46052 Y-0.15988
G01 X0.46497 Y-0.16554
G01 X0.46827 Y-0.17194
G01 X0.47030 Y-0.17885
G01 X0.47081 Y-0.18422
G01 X0.47081 Y-0.21118
G01 X0.46941 Y-0.21845
G01 X0.46673 Y-0.22512
G01 X0.46282 Y-0.23117
G01 X0.45784 Y-0.23637
G01 X0.45197 Y-0.24054
G01 X0.44541 Y-0.24352
G01 X0.43841 Y-0.24521
G01 X0.43122 Y-0.24555
G01 X0.42409 Y-0.24452
G01 X0.41729 Y-0.24215
G01 X0.41105 Y-0.23855
G01 X0.40344 Y-0.23182
G01 X0.40014 Y-0.23033
G01 X0.39908 Y-0.22998
G01 X0.39796 Y-0.22984
G01 X0.39408 Y-0.23036
G01 X0.39300 Y-0.23065
G01 X0.39198 Y-0.23113
G01 X0.38842 Y-0.23428
G01 X0.38704 Y-0.23641
G01 X0.38310 Y-0.24037
G01 X0.37835 Y-0.24331
G01 X0.37301 Y-0.24509
G01 X0.36979 Y-0.24541
G01 X0.33887 Y-0.24541
G01 X0.33569 Y-0.24511
G01 X0.33035 Y-0.24333
G01 X0.32559 Y-0.24040
G01 X0.32164 Y-0.23645
G01 X0.31870 Y-0.23169
G01 X0.31692 Y-0.22635
G01 X0.31659 Y-0.22313
G01 X0.31854 Y-0.22303
G01 X0.31854 Y-0.17066
G01 X0.31883 Y-0.16780
G01 X0.32046 Y-0.16287
G01 X0.32315 Y-0.15850
G01 X0.32678 Y-0.15487
G01 X0.33115 Y-0.15217
G01 X0.33607 Y-0.15051
G01 X0.33897 Y-0.15024
G01 X0.36969 Y-0.15024
G01 X0.37255 Y-0.15051
G01 X0.37748 Y-0.15215
G01 X0.38185 Y-0.15484
G01 X0.38550 Y-0.15851
G01 X0.38763 Y-0.16161
G01 X0.39105 Y-0.16423
G01 X0.39234 Y-0.16498
G01 X0.39375 Y-0.16547
G01 X0.39802 Y-0.16583
G01 X0.39951 Y-0.16576
G01 X0.40096 Y-0.16541
G01 X0.40475 Y-0.16340
G01 X0.40651 Y-0.16202
G01 X0.40958 Y-0.15881
G01 X0.41515 Y-0.15485
G01 X0.42136 Y-0.15202
G01 X0.42800 Y-0.15043
G01 X0.43483 Y-0.15012
G01 X0.44158 Y-0.15110
G01 X0.44803 Y-0.15334
G01 X0.45394 Y-0.15676
G01 X0.45910 Y-0.16123
G01 X0.46332 Y-0.16660
G01 X0.46645 Y-0.17267
G01 X0.46837 Y-0.17922
G01 X0.46885 Y-0.18432
G01 X0.46885 Y-0.21099
G01 X0.46753 Y-0.21790
G01 X0.46498 Y-0.22422
G01 X0.46128 Y-0.22995
G01 X0.45656 Y-0.23489
G01 X0.45099 Y-0.23884
G01 X0.44477 Y-0.24166
G01 X0.43813 Y-0.24327
G01 X0.43131 Y-0.24359
G01 X0.42455 Y-0.24261
G01 X0.41810 Y-0.24037
G01 X0.41219 Y-0.23695
G01 X0.40681 Y-0.23227
G01 X0.40535 Y-0.23079
G01 X0.40446 Y-0.23015
G01 X0.40092 Y-0.22853
G01 X0.39950 Y-0.22807
G01 X0.39802 Y-0.22789
G01 X0.39377 Y-0.22843
G01 X0.39232 Y-0.22881
G01 X0.39098 Y-0.22946
G01 X0.38770 Y-0.23222
G01 X0.38692 Y-0.23303
G01 X0.38549 Y-0.23519
G01 X0.38188 Y-0.23883
G01 X0.37751 Y-0.24153
G01 X0.37259 Y-0.24318
G01 X0.36969 Y-0.24346
G01 X0.33897 Y-0.24346
G01 X0.33611 Y-0.24318
G01 X0.33118 Y-0.24155
G01 X0.32681 Y-0.23885
G01 X0.32318 Y-0.23522
G01 X0.32048 Y-0.23086
G01 X0.31884 Y-0.22594
G01 X0.31854 Y-0.22303
G01 X0.31977 Y-0.22297
G01 X0.31978 Y-0.17067
G01 X0.32008 Y-0.16799
G01 X0.32156 Y-0.16348
G01 X0.32411 Y-0.15936
G01 X0.32582 Y-0.15749
G01 X0.32765 Y-0.15584
G01 X0.33164 Y-0.15334
G01 X0.33629 Y-0.15181
G01 X0.33901 Y-0.15145
G01 X0.36959 Y-0.15145
G01 X0.37139 Y-0.15163
G01 X0.37350 Y-0.15212
G01 X0.37688 Y-0.15329
G01 X0.38099 Y-0.15580
G01 X0.38446 Y-0.15924
G01 X0.38818 Y-0.16458
G01 X0.38991 Y-0.16582
G01 X0.39153 Y-0.16676
G01 X0.39329 Y-0.16737
G01 X0.39513 Y-0.16764
G01 X0.39792 Y-0.16778
G01 X0.39979 Y-0.16769
G01 X0.40160 Y-0.16726
G01 X0.40393 Y-0.16612
G01 X0.40742 Y-0.16287
G01 X0.41047 Y-0.15972
G01 X0.41572 Y-0.15599
G01 X0.42184 Y-0.15321
G01 X0.42811 Y-0.15171
G01 X0.43478 Y-0.15143
G01 X0.43775 Y-0.15175
G01 X0.44130 Y-0.15239
G01 X0.44476 Y-0.15347
G01 X0.44752 Y-0.15456
G01 X0.45127 Y-0.15660
G01 X0.45321 Y-0.15787
G01 X0.45542 Y-0.15962
G01 X0.45812 Y-0.16212
G01 X0.46041 Y-0.16484
G01 X0.46220 Y-0.16729
G01 X0.46524 Y-0.17314
G01 X0.46712 Y-0.17940
G01 X0.46762 Y-0.18437
G01 X0.46768 Y-0.20768
G01 X0.46753 Y-0.21092
G01 X0.46710 Y-0.21383
G01 X0.46627 Y-0.21749
G01 X0.46425 Y-0.22275
G01 X0.46046 Y-0.22891
G01 X0.45706 Y-0.23261
G01 X0.45566 Y-0.23397
G01 X0.45030 Y-0.23778
G01 X0.44430 Y-0.24049
G01 X0.43803 Y-0.24197
G01 X0.43135 Y-0.24228
G01 X0.42834 Y-0.24194
G01 X0.42342 Y-0.24093
G01 X0.41871 Y-0.23917
G01 X0.41673 Y-0.23818
G01 X0.41292 Y-0.23583
G01 X0.40911 Y-0.23265
G01 X0.40408 Y-0.22778
G01 X0.40170 Y-0.22674
G01 X0.39993 Y-0.22617
G01 X0.39808 Y-0.22593
G01 X0.39622 Y-0.22606
G01 X0.39346 Y-0.22651
G01 X0.39165 Y-0.22698
G01 X0.38997 Y-0.22779
G01 X0.38820 Y-0.22914
G01 X0.38445 Y-0.23446
G01 X0.38103 Y-0.23788
G01 X0.37700 Y-0.24033
G01 X0.37237 Y-0.24189
G01 X0.36969 Y-0.24226
G01 X0.33905 Y-0.24225
G01 X0.33643 Y-0.24195
G01 X0.33179 Y-0.24040
G01 X0.32922 Y-0.23895
G01 X0.32758 Y-0.23782
G01 X0.32422 Y-0.23450
G01 X0.32157 Y-0.23025
G01 X0.32006 Y-0.22559
G01 X0.31977 Y-0.22297
G01 X0.32167 Y-0.22144
G01 X0.32172 Y-0.17085
G01 X0.32199 Y-0.16847
G01 X0.32339 Y-0.16424
G01 X0.32569 Y-0.16051
G01 X0.32721 Y-0.15891
G01 X0.32878 Y-0.15743
G01 X0.33252 Y-0.15512
G01 X0.33675 Y-0.15371
G01 X0.33914 Y-0.15340
G01 X0.36915 Y-0.15339
G01 X0.37187 Y-0.15370
G01 X0.37611 Y-0.15510
G01 X0.37985 Y-0.15740
G01 X0.38298 Y-0.16052
G01 X0.38660 Y-0.16573
G01 X0.38733 Y-0.16816
G01 X0.38776 Y-0.17224
G01 X0.38776 Y-0.22146
G01 X0.38749 Y-0.22453
G01 X0.38733 Y-0.22554
G01 X0.38657 Y-0.22807
G01 X0.38297 Y-0.23318
G01 X0.37996 Y-0.23620
G01 X0.37614 Y-0.23858
G01 X0.37191 Y-0.23999
G01 X0.36951 Y-0.24030
G01 X0.34004 Y-0.24033
G01 X0.33756 Y-0.24012
G01 X0.33570 Y-0.23970
G01 X0.33255 Y-0.23860
G01 X0.33026 Y-0.23727
G01 X0.32869 Y-0.23620
G01 X0.32581 Y-0.23331
G01 X0.32340 Y-0.22949
G01 X0.32199 Y-0.22526
G01 X0.32167 Y-0.22144
G01 X0.32285 Y-0.22146
G01 X0.32289 Y-0.17142
G01 X0.32324 Y-0.16856
G01 X0.32409 Y-0.16581
G01 X0.32475 Y-0.16431
G01 X0.32623 Y-0.16184
G01 X0.32871 Y-0.15909
G01 X0.33170 Y-0.15691
G01 X0.33508 Y-0.15541
G01 X0.33789 Y-0.15477
G01 X0.34057 Y-0.15454
G01 X0.36915 Y-0.15460
G01 X0.37278 Y-0.15520
G01 X0.37435 Y-0.15570
G01 X0.37696 Y-0.15691
G01 X0.37995 Y-0.15909
G01 X0.38243 Y-0.16184
G01 X0.38391 Y-0.16431
G01 X0.38457 Y-0.16581
G01 X0.38542 Y-0.16856
G01 X0.38581 Y-0.17224
G01 X0.38581 Y-0.22146
G01 X0.38555 Y-0.22432
G01 X0.38521 Y-0.22593
G01 X0.38428 Y-0.22866
G01 X0.38288 Y-0.23117
G01 X0.38191 Y-0.23250
G01 X0.37995 Y-0.23461
G01 X0.37696 Y-0.23678
G01 X0.37358 Y-0.23829
G01 X0.37077 Y-0.23893
G01 X0.36915 Y-0.23910
G01 X0.33911 Y-0.23909
G01 X0.33587 Y-0.23850
G01 X0.33431 Y-0.23800
G01 X0.33170 Y-0.23678
G01 X0.32871 Y-0.23461
G01 X0.32623 Y-0.23186
G01 X0.32475 Y-0.22939
G01 X0.32409 Y-0.22789
G01 X0.32324 Y-0.22514
G01 X0.32285 Y-0.22146
G01 X0.32480 Y-0.22146
G01 X0.32483 Y-0.17163
G01 X0.32515 Y-0.16897
G01 X0.32594 Y-0.16642
G01 X0.32781 Y-0.16299
G01 X0.33001 Y-0.16054
G01 X0.33268 Y-0.15861
G01 X0.33568 Y-0.15727
G01 X0.33829 Y-0.15668
G01 X0.34056 Y-0.15650
G01 X0.36915 Y-0.15655
G01 X0.37037 Y-0.15668
G01 X0.37298 Y-0.15727
G01 X0.37543 Y-0.15832
G01 X0.37865 Y-0.16054
G01 X0.38085 Y-0.16299
G01 X0.38222 Y-0.16529
G01 X0.38272 Y-0.16642
G01 X0.38361 Y-0.16958
G01 X0.38386 Y-0.17224
G01 X0.38386 Y-0.22146
G01 X0.38335 Y-0.22533
G01 X0.38250 Y-0.22786
G01 X0.38119 Y-0.23019
G01 X0.37865 Y-0.23316
G01 X0.37598 Y-0.23509
G01 X0.37298 Y-0.23643
G01 X0.37037 Y-0.23702
G01 X0.36915 Y-0.23715
G01 X0.33921 Y-0.23714
G01 X0.33628 Y-0.23659
G01 X0.33511 Y-0.23621
G01 X0.33268 Y-0.23509
G01 X0.33001 Y-0.23316
G01 X0.32781 Y-0.23071
G01 X0.32644 Y-0.22841
G01 X0.32594 Y-0.22728
G01 X0.32505 Y-0.22412
G01 X0.32480 Y-0.22146
G01 X0.32676 Y-0.22146
G01 X0.32678 Y-0.17183
G01 X0.32706 Y-0.16937
G01 X0.32780 Y-0.16702
G01 X0.32939 Y-0.16414
G01 X0.33132 Y-0.16199
G01 X0.33365 Y-0.16030
G01 X0.33629 Y-0.15912
G01 X0.33870 Y-0.15859
G01 X0.34056 Y-0.15845
G01 X0.36996 Y-0.15859
G01 X0.37237 Y-0.15912
G01 X0.37464 Y-0.16011
G01 X0.37734 Y-0.16199
G01 X0.37927 Y-0.16414
G01 X0.38052 Y-0.16626
G01 X0.38167 Y-0.16978
G01 X0.38190 Y-0.17224
G01 X0.38190 Y-0.22146
G01 X0.38150 Y-0.22472
G01 X0.38071 Y-0.22707
G01 X0.37927 Y-0.22956
G01 X0.37734 Y-0.23171
G01 X0.37501 Y-0.23340
G01 X0.37237 Y-0.23458
G01 X0.36956 Y-0.23517
G01 X0.33931 Y-0.23519
G01 X0.33590 Y-0.23443
G01 X0.33365 Y-0.23340
G01 X0.33132 Y-0.23171
G01 X0.32939 Y-0.22956
G01 X0.32814 Y-0.22744
G01 X0.32699 Y-0.22392
G01 X0.32676 Y-0.22146
G01 X0.32871 Y-0.22146
G01 X0.32897 Y-0.22392
G01 X0.32973 Y-0.22627
G01 X0.33097 Y-0.22842
G01 X0.33248 Y-0.23011
G01 X0.33482 Y-0.23181
G01 X0.33689 Y-0.23272
G01 X0.33942 Y-0.23324
G01 X0.36935 Y-0.23323
G01 X0.37177 Y-0.23272
G01 X0.37403 Y-0.23171
G01 X0.37603 Y-0.23026
G01 X0.37769 Y-0.22842
G01 X0.37893 Y-0.22627
G01 X0.37964 Y-0.22412
G01 X0.37995 Y-0.22146
G01 X0.37995 Y-0.17224
G01 X0.37973 Y-0.16999
G01 X0.37883 Y-0.16724
G01 X0.37769 Y-0.16528
G01 X0.37603 Y-0.16344
G01 X0.37403 Y-0.16199
G01 X0.37196 Y-0.16106
G01 X0.36935 Y-0.16047
G01 X0.33942 Y-0.16046
G01 X0.33689 Y-0.16098
G01 X0.33463 Y-0.16199
G01 X0.33263 Y-0.16344
G01 X0.33097 Y-0.16528
G01 X0.32973 Y-0.16743
G01 X0.32902 Y-0.16958
G01 X0.32871 Y-0.17224
G01 X0.32871 Y-0.22146
G04 P0 ( dwell for no time -- G64 should not smooth over this point )
G00 Z0.01181 ( retract )

G00 X0.39964 Y-0.20768 ( rapid move to begin. )
G01 F12.59843
( Mill infeed pass 1/1 )
G01 Z-0.00200
G04 P0 ( dwell for no time -- G64 should not smooth over this point )
G01 F31.49606
G01 X0.39964 Y-0.20768
G01 X0.39964 Y-0.18602
G01 X0.40037 Y-0.17907
G01 X0.40253 Y-0.17242
G01 X0.40531 Y-0.16750
G01 X0.40879 Y-0.16426
G01 X0.41168 Y-0.16126
G01 X0.41675 Y-0.15765
G01 X0.42242 Y-0.15508
G01 X0.42849 Y-0.15364
G01 X0.43469 Y-0.15338
G01 X0.43748 Y-0.15368
G01 X0.44082 Y-0.15428
G01 X0.44411 Y-0.15531
G01 X0.44667 Y-0.15632
G01 X0.45027 Y-0.15828
G01 X0.45204 Y-0.15943
G01 X0.45415 Y-0.16110
G01 X0.45672 Y-0.16348
G01 X0.46011 Y-0.16767
G01 X0.46247 Y-0.17184
G01 X0.46342 Y-0.17385
G01 X0.46520 Y-0.17983
G01 X0.46573 Y-0.18604
G01 X0.46570 Y-0.20869
G01 X0.46559 Y-0.21068
G01 X0.46478 Y-0.21547
G01 X0.46439 Y-0.21696
G01 X0.46248 Y-0.22191
G01 X0.45889 Y-0.22774
G01 X0.45445 Y-0.23244
G01 X0.45024 Y-0.23547
G01 X0.44856 Y-0.23644
G01 X0.44372 Y-0.23862
G01 X0.43764 Y-0.24006
G01 X0.43145 Y-0.24032
G01 X0.42866 Y-0.24001
G01 X0.42397 Y-0.23904
G01 X0.41947 Y-0.23738
G01 X0.41587 Y-0.23542
G01 X0.41410 Y-0.23427
G01 X0.41046 Y-0.23124
G01 X0.40538 Y-0.22632
G01 X0.40253 Y-0.22127
G01 X0.40063 Y-0.21562
G01 X0.40021 Y-0.21361
G01 X0.39969 Y-0.20870
G01 X0.39964 Y-0.20768
G01 X0.40159 Y-0.20768
G01 X0.40159 Y-0.18602
G01 X0.40228 Y-0.17948
G01 X0.40402 Y-0.17399
G01 X0.40469 Y-0.17249
G01 X0.40760 Y-0.16752
G01 X0.41142 Y-0.16321
G01 X0.41265 Y-0.16211
G01 X0.41664 Y-0.15921
G01 X0.41806 Y-0.15839
G01 X0.42334 Y-0.15608
G01 X0.42978 Y-0.15472
G01 X0.43636 Y-0.15472
G01 X0.44200 Y-0.15587
G01 X0.44357 Y-0.15638
G01 X0.44881 Y-0.15876
G01 X0.45413 Y-0.16263
G01 X0.45854 Y-0.16752
G01 X0.46183 Y-0.17322
G01 X0.46365 Y-0.17868
G01 X0.46399 Y-0.18029
G01 X0.46455 Y-0.18602
G01 X0.46455 Y-0.20768
G01 X0.46399 Y-0.21341
G01 X0.46365 Y-0.21502
G01 X0.46183 Y-0.22048
G01 X0.45899 Y-0.22549
G01 X0.45802 Y-0.22682
G01 X0.45413 Y-0.23107
G01 X0.44950 Y-0.23449
G01 X0.44808 Y-0.23531
G01 X0.44280 Y-0.23762
G01 X0.43717 Y-0.23886
G01 X0.43554 Y-0.23903
G01 X0.42978 Y-0.23898
G01 X0.42414 Y-0.23783
G01 X0.42257 Y-0.23732
G01 X0.41733 Y-0.23494
G01 X0.41265 Y-0.23159
G01 X0.41142 Y-0.23049
G01 X0.40760 Y-0.22618
G01 X0.40469 Y-0.22121
G01 X0.40402 Y-0.21971
G01 X0.40228 Y-0.21422
G01 X0.40159 Y-0.20768
G01 X0.40354 Y-0.20768
G01 X0.40354 Y-0.18602
G01 X0.40409 Y-0.18049
G01 X0.40435 Y-0.17929
G01 X0.40610 Y-0.17401
G01 X0.40918 Y-0.16867
G01 X0.41331 Y-0.16408
G01 X0.41779 Y-0.16079
G01 X0.41886 Y-0.16017
G01 X0.42395 Y-0.15794
G01 X0.42937 Y-0.15675
G01 X0.43060 Y-0.15662
G01 X0.43616 Y-0.15666
G01 X0.44220 Y-0.15794
G01 X0.44783 Y-0.16045
G01 X0.45235 Y-0.16369
G01 X0.45326 Y-0.16452
G01 X0.45696 Y-0.16867
G01 X0.45976 Y-0.17346
G01 X0.46027 Y-0.17459
G01 X0.46195 Y-0.17988
G01 X0.46260 Y-0.18602
G01 X0.46260 Y-0.20768
G01 X0.46205 Y-0.21321
G01 X0.46179 Y-0.21441
G01 X0.46004 Y-0.21969
G01 X0.45696 Y-0.22503
G01 X0.45326 Y-0.22918
G01 X0.45235 Y-0.23001
G01 X0.44783 Y-0.23325
G01 X0.44220 Y-0.23576
G01 X0.43677 Y-0.23694
G01 X0.43554 Y-0.23707
G01 X0.42998 Y-0.23704
G01 X0.42454 Y-0.23592
G01 X0.42337 Y-0.23554
G01 X0.41831 Y-0.23325
G01 X0.41379 Y-0.23001
G01 X0.41288 Y-0.22918
G01 X0.40918 Y-0.22503
G01 X0.40638 Y-0.22024
G01 X0.40587 Y-0.21911
G01 X0.40419 Y-0.21382
G01 X0.40354 Y-0.20768
G01 X0.40550 Y-0.20768
G01 X0.40550 Y-0.18602
G01 X0.40603 Y-0.18070
G01 X0.40788 Y-0.17481
G01 X0.41076 Y-0.16981
G01 X0.41462 Y-0.16553
G01 X0.41894 Y-0.16237
G01 X0.42455 Y-0.15980
G01 X0.43060 Y-0.15858
G01 X0.43595 Y-0.15860
G01 X0.44159 Y-0.15980
G01 X0.44686 Y-0.16214
G01 X0.45181 Y-0.16582
G01 X0.45538 Y-0.16981
G01 X0.45807 Y-0.17444
G01 X0.46004 Y-0.18029
G01 X0.46065 Y-0.18602
G01 X0.46065 Y-0.20768
G01 X0.46011 Y-0.21300
G01 X0.45826 Y-0.21889
G01 X0.45538 Y-0.22389
G01 X0.45152 Y-0.22817
G01 X0.44721 Y-0.23133
G01 X0.44159 Y-0.23390
G01 X0.43554 Y-0.23512
G01 X0.43019 Y-0.23510
G01 X0.42495 Y-0.23401
G01 X0.41928 Y-0.23156
G01 X0.41433 Y-0.22788
G01 X0.41076 Y-0.22389
G01 X0.40807 Y-0.21926
G01 X0.40610 Y-0.21341
G01 X0.40550 Y-0.20768
G01 X0.40745 Y-0.20768
G01 X0.40801 Y-0.21300
G01 X0.40959 Y-0.21790
G01 X0.41247 Y-0.22290
G01 X0.41593 Y-0.22672
G01 X0.42026 Y-0.22987
G01 X0.42515 Y-0.23205
G01 X0.43018 Y-0.23313
G01 X0.43575 Y-0.23316
G01 X0.44118 Y-0.23197
G01 X0.44588 Y-0.22987
G01 X0.45005 Y-0.22685
G01 X0.45380 Y-0.22274
G01 X0.45655 Y-0.21790
G01 X0.45813 Y-0.21300
G01 X0.45868 Y-0.20789
G01 X0.45869 Y-0.18602
G01 X0.45813 Y-0.18070
G01 X0.45638 Y-0.17541
G01 X0.45380 Y-0.17096
G01 X0.45036 Y-0.16713
G01 X0.44588 Y-0.16383
G01 X0.44099 Y-0.16165
G01 X0.43554 Y-0.16053
G01 X0.43039 Y-0.16054
G01 X0.42515 Y-0.16165
G01 X0.42026 Y-0.16383
G01 X0.41609 Y-0.16685
G01 X0.41234 Y-0.17096
G01 X0.40966 Y-0.17560
G01 X0.40797 Y-0.18090
G01 X0.40745 Y-0.18602
G01 X0.40745 Y-0.20768
G04 P0 ( dwell for no time -- G64 should not smooth over this point )
G00 Z0.01181 ( retract )

G00 X0.57954 Y-0.30556 ( rapid move to begin. )
G01 F12.59843
( Mill infeed pass 1/1 )
G01 Z-0.00200
G04 P0 ( dwell for no time -- G64 should not smooth over this point )
G01 F31.49606
G01 X0.57954 Y-0.30556
G01 X0.58042 Y-0.29697
G01 X0.58110 Y-0.29389
G01 X0.58262 Y-0.28859
G01 X0.58420 Y-0.28438
G01 X0.58591 Y-0.28066
G01 X0.59028 Y-0.27328
G01 X0.59135 Y-0.27194
G01 X0.59594 Y-0.26664
G01 X0.59966 Y-0.26309
G01 X0.60241 Y-0.26089
G01 X0.60775 Y-0.25721
G01 X0.60949 Y-0.25612
G01 X0.61734 Y-0.25256
G01 X0.62087 Y-0.25139
G01 X0.62566 Y-0.25018
G01 X0.63065 Y-0.24930
G01 X0.63423 Y-0.24896
G01 X0.64280 Y-0.24901
G01 X0.64495 Y-0.24930
G01 X0.65140 Y-0.25051
G01 X0.65678 Y-0.25205
G01 X0.65965 Y-0.25315
G01 X0.66734 Y-0.25682
G01 X0.67444 Y-0.26185
G01 X0.67753 Y-0.26454
G01 X0.68072 Y-0.26781
G01 X0.68422 Y-0.27197
G01 X0.68607 Y-0.27449
G01 X0.69056 Y-0.28233
G01 X0.69241 Y-0.28587
G01 X0.69340 Y-0.28730
G01 X0.69458 Y-0.28827
G01 X0.69859 Y-0.29025
G01 X0.70035 Y-0.29086
G01 X0.70219 Y-0.29113
G01 X0.70406 Y-0.29104
G01 X0.70682 Y-0.29064
G01 X0.70863 Y-0.29020
G01 X0.71033 Y-0.28943
G01 X0.71185 Y-0.28835
G01 X0.71396 Y-0.28652
G01 X0.71525 Y-0.28517
G01 X0.71625 Y-0.28360
G01 X0.71677 Y-0.28188
G01 X0.71736 Y-0.27638
G01 X0.71736 Y-0.25984
G01 X0.71749 Y-0.25760
G01 X0.71864 Y-0.25453
G01 X0.72053 Y-0.25202
G01 X0.72304 Y-0.25014
G01 X0.72611 Y-0.24899
G01 X0.72835 Y-0.24885
G01 X0.82283 Y-0.24885
G01 X0.82507 Y-0.24902
G01 X0.82826 Y-0.25021
G01 X0.83065 Y-0.25202
G01 X0.83255 Y-0.25453
G01 X0.83366 Y-0.25761
G01 X0.83383 Y-0.25984
G01 X0.83380 Y-0.35572
G01 X0.83362 Y-0.35666
G01 X0.83246 Y-0.35976
G01 X0.83065 Y-0.36215
G01 X0.82815 Y-0.36405
G01 X0.82507 Y-0.36515
G01 X0.82283 Y-0.36533
G01 X0.72835 Y-0.36532
G01 X0.72611 Y-0.36518
G01 X0.72304 Y-0.36403
G01 X0.72053 Y-0.36215
G01 X0.71864 Y-0.35964
G01 X0.71749 Y-0.35657
G01 X0.71736 Y-0.35433
G01 X0.71736 Y-0.33741
G01 X0.71702 Y-0.33324
G01 X0.71622 Y-0.33015
G01 X0.71341 Y-0.32673
G01 X0.71205 Y-0.32545
G01 X0.71048 Y-0.32445
G01 X0.70874 Y-0.32377
G01 X0.70606 Y-0.32299
G01 X0.70422 Y-0.32265
G01 X0.70236 Y-0.32266
G01 X0.70053 Y-0.32302
G01 X0.69785 Y-0.32382
G01 X0.69612 Y-0.32452
G01 X0.69456 Y-0.32554
G01 X0.69304 Y-0.32703
G01 X0.68891 Y-0.33489
G01 X0.68437 Y-0.34213
G01 X0.67866 Y-0.34857
G01 X0.67595 Y-0.35105
G01 X0.67196 Y-0.35418
G01 X0.66782 Y-0.35696
G01 X0.66469 Y-0.35874
G01 X0.65673 Y-0.36221
G01 X0.64845 Y-0.36429
G01 X0.64306 Y-0.36507
G01 X0.63977 Y-0.36525
G01 X0.63112 Y-0.36502
G01 X0.62279 Y-0.36334
G01 X0.61880 Y-0.36212
G01 X0.61462 Y-0.36045
G01 X0.60777 Y-0.35702
G01 X0.59957 Y-0.35108
G01 X0.59386 Y-0.34524
G01 X0.59132 Y-0.34215
G01 X0.58871 Y-0.33837
G01 X0.58454 Y-0.33086
G01 X0.58413 Y-0.32973
G01 X0.58170 Y-0.32263
G01 X0.58065 Y-0.31815
G01 X0.58004 Y-0.31413
G01 X0.57957 Y-0.30816
G01 X0.57954 Y-0.30556
G01 X0.57237 Y-0.30537
G01 X0.57283 Y-0.31506
G01 X0.57473 Y-0.32458
G01 X0.57801 Y-0.33370
G01 X0.58260 Y-0.34225
G01 X0.58840 Y-0.35002
G01 X0.59516 Y-0.35672
G01 X0.60311 Y-0.36259
G01 X0.61170 Y-0.36710
G01 X0.62086 Y-0.37030
G01 X0.63039 Y-0.37211
G01 X0.64008 Y-0.37249
G01 X0.64972 Y-0.37144
G01 X0.65910 Y-0.36897
G01 X0.66801 Y-0.36514
G01 X0.67626 Y-0.36003
G01 X0.68367 Y-0.35377
G01 X0.69006 Y-0.34647
G01 X0.69531 Y-0.33831
G01 X0.69732 Y-0.33404
G01 X0.69914 Y-0.33192
G01 X0.69974 Y-0.33145
G01 X0.70277 Y-0.33050
G01 X0.70352 Y-0.33043
G01 X0.70658 Y-0.33127
G01 X0.70725 Y-0.33161
G01 X0.70937 Y-0.33398
G01 X0.70982 Y-0.33487
G01 X0.71033 Y-0.33738
G01 X0.71033 Y-0.35612
G01 X0.71055 Y-0.35821
G01 X0.71238 Y-0.36307
G01 X0.71547 Y-0.36720
G01 X0.71960 Y-0.37030
G01 X0.72447 Y-0.37212
G01 X0.72656 Y-0.37235
G01 X0.82462 Y-0.37235
G01 X0.82671 Y-0.37212
G01 X0.83158 Y-0.37030
G01 X0.83571 Y-0.36720
G01 X0.83880 Y-0.36307
G01 X0.84063 Y-0.35821
G01 X0.84085 Y-0.35612
G01 X0.84085 Y-0.25805
G01 X0.84063 Y-0.25596
G01 X0.83880 Y-0.25110
G01 X0.83571 Y-0.24697
G01 X0.83158 Y-0.24387
G01 X0.82671 Y-0.24205
G01 X0.82462 Y-0.24182
G01 X0.72656 Y-0.24182
G01 X0.72447 Y-0.24205
G01 X0.71960 Y-0.24387
G01 X0.71547 Y-0.24697
G01 X0.71238 Y-0.25110
G01 X0.71055 Y-0.25596
G01 X0.71033 Y-0.25805
G01 X0.71033 Y-0.27642
G01 X0.70946 Y-0.27966
G01 X0.70885 Y-0.28061
G01 X0.70642 Y-0.28266
G01 X0.70571 Y-0.28291
G01 X0.70256 Y-0.28333
G01 X0.70183 Y-0.28315
G01 X0.69929 Y-0.28199
G01 X0.69850 Y-0.28134
G01 X0.69708 Y-0.27937
G01 X0.69205 Y-0.27048
G01 X0.68605 Y-0.26287
G01 X0.67898 Y-0.25622
G01 X0.67101 Y-0.25069
G01 X0.66231 Y-0.24640
G01 X0.65307 Y-0.24345
G01 X0.64350 Y-0.24189
G01 X0.63380 Y-0.24176
G01 X0.62419 Y-0.24307
G01 X0.61487 Y-0.24578
G01 X0.60606 Y-0.24985
G01 X0.59795 Y-0.25516
G01 X0.59072 Y-0.26162
G01 X0.58451 Y-0.26908
G01 X0.57948 Y-0.27737
G01 X0.57573 Y-0.28632
G01 X0.57334 Y-0.29572
G01 X0.57237 Y-0.30537
G01 X0.57432 Y-0.30542
G01 X0.57477 Y-0.31482
G01 X0.57661 Y-0.32405
G01 X0.57979 Y-0.33291
G01 X0.58424 Y-0.34120
G01 X0.58988 Y-0.34874
G01 X0.59643 Y-0.35524
G01 X0.60415 Y-0.36093
G01 X0.61248 Y-0.36531
G01 X0.62136 Y-0.36842
G01 X0.63061 Y-0.37017
G01 X0.64001 Y-0.37054
G01 X0.64936 Y-0.36951
G01 X0.65846 Y-0.36712
G01 X0.66711 Y-0.36340
G01 X0.67511 Y-0.35845
G01 X0.68229 Y-0.35237
G01 X0.68850 Y-0.34529
G01 X0.69359 Y-0.33738
G01 X0.69551 Y-0.33322
G01 X0.69820 Y-0.33013
G01 X0.69953 Y-0.32943
G01 X0.70221 Y-0.32863
G01 X0.70369 Y-0.32848
G01 X0.70712 Y-0.32939
G01 X0.70845 Y-0.33007
G01 X0.71084 Y-0.33269
G01 X0.71123 Y-0.33322
G01 X0.71173 Y-0.33445
G01 X0.71228 Y-0.33738
G01 X0.71226 Y-0.35601
G01 X0.71247 Y-0.35775
G01 X0.71408 Y-0.36214
G01 X0.71685 Y-0.36582
G01 X0.72054 Y-0.36859
G01 X0.72492 Y-0.37024
G01 X0.72667 Y-0.37040
G01 X0.82452 Y-0.37042
G01 X0.82625 Y-0.37021
G01 X0.83064 Y-0.36860
G01 X0.83433 Y-0.36582
G01 X0.83710 Y-0.36214
G01 X0.83871 Y-0.35775
G01 X0.83892 Y-0.35601
G01 X0.83892 Y-0.25816
G01 X0.83871 Y-0.25642
G01 X0.83710 Y-0.25203
G01 X0.83433 Y-0.24835
G01 X0.83064 Y-0.24557
G01 X0.82625 Y-0.24396
G01 X0.82452 Y-0.24375
G01 X0.72667 Y-0.24377
G01 X0.72492 Y-0.24393
G01 X0.72054 Y-0.24558
G01 X0.71685 Y-0.24835
G01 X0.71408 Y-0.25203
G01 X0.71247 Y-0.25642
G01 X0.71226 Y-0.25816
G01 X0.71228 Y-0.27642
G01 X0.71212 Y-0.27753
G01 X0.71133 Y-0.28021
G01 X0.71064 Y-0.28154
G01 X0.70740 Y-0.28435
G01 X0.70599 Y-0.28484
G01 X0.70247 Y-0.28528
G01 X0.70102 Y-0.28492
G01 X0.69847 Y-0.28376
G01 X0.69736 Y-0.28300
G01 X0.69692 Y-0.28249
G01 X0.69538 Y-0.28033
G01 X0.69042 Y-0.27158
G01 X0.68460 Y-0.26419
G01 X0.67775 Y-0.25775
G01 X0.67002 Y-0.25238
G01 X0.66158 Y-0.24822
G01 X0.65261 Y-0.24535
G01 X0.64333 Y-0.24384
G01 X0.63392 Y-0.24371
G01 X0.62459 Y-0.24498
G01 X0.61556 Y-0.24761
G01 X0.60701 Y-0.25155
G01 X0.59914 Y-0.25671
G01 X0.59212 Y-0.26298
G01 X0.58610 Y-0.27021
G01 X0.58122 Y-0.27826
G01 X0.57758 Y-0.28694
G01 X0.57526 Y-0.29606
G01 X0.57432 Y-0.30542
G01 X0.57628 Y-0.30547
G01 X0.57672 Y-0.31459
G01 X0.57850 Y-0.32353
G01 X0.58158 Y-0.33211
G01 X0.58590 Y-0.34015
G01 X0.59135 Y-0.34746
G01 X0.59770 Y-0.35375
G01 X0.60519 Y-0.35928
G01 X0.61326 Y-0.36352
G01 X0.62187 Y-0.36652
G01 X0.63083 Y-0.36823
G01 X0.63994 Y-0.36858
G01 X0.64901 Y-0.36759
G01 X0.65783 Y-0.36527
G01 X0.66621 Y-0.36166
G01 X0.67396 Y-0.35686
G01 X0.68092 Y-0.35097
G01 X0.68693 Y-0.34412
G01 X0.69187 Y-0.33645
G01 X0.69386 Y-0.33218
G01 X0.69699 Y-0.32860
G01 X0.69793 Y-0.32799
G01 X0.69897 Y-0.32756
G01 X0.70165 Y-0.32676
G01 X0.70275 Y-0.32654
G01 X0.70387 Y-0.32654
G01 X0.70766 Y-0.32752
G01 X0.70871 Y-0.32793
G01 X0.70965 Y-0.32853
G01 X0.71047 Y-0.32930
G01 X0.71290 Y-0.33220
G01 X0.71363 Y-0.33403
G01 X0.71420 Y-0.33674
G01 X0.71423 Y-0.35591
G01 X0.71435 Y-0.35730
G01 X0.71582 Y-0.36119
G01 X0.71825 Y-0.36443
G01 X0.72149 Y-0.36685
G01 X0.72537 Y-0.36832
G01 X0.72677 Y-0.36844
G01 X0.82441 Y-0.36847
G01 X0.82580 Y-0.36829
G01 X0.82969 Y-0.36686
G01 X0.83293 Y-0.36443
G01 X0.83537 Y-0.36119
G01 X0.83680 Y-0.35730
G01 X0.83697 Y-0.35591
G01 X0.83697 Y-0.25826
G01 X0.83680 Y-0.25688
G01 X0.83537 Y-0.25298
G01 X0.83293 Y-0.24974
G01 X0.82969 Y-0.24731
G01 X0.82580 Y-0.24588
G01 X0.82441 Y-0.24571
G01 X0.72677 Y-0.24573
G01 X0.72537 Y-0.24585
G01 X0.72149 Y-0.24732
G01 X0.71825 Y-0.24974
G01 X0.71582 Y-0.25298
G01 X0.71435 Y-0.25687
G01 X0.71423 Y-0.25827
G01 X0.71423 Y-0.27642
G01 X0.71399 Y-0.27808
G01 X0.71279 Y-0.28181
G01 X0.71218 Y-0.28275
G01 X0.71140 Y-0.28356
G01 X0.70838 Y-0.28604
G01 X0.70736 Y-0.28651
G01 X0.70627 Y-0.28678
G01 X0.70238 Y-0.28723
G01 X0.70127 Y-0.28707
G01 X0.70021 Y-0.28670
G01 X0.69766 Y-0.28554
G01 X0.69600 Y-0.28440
G01 X0.69368 Y-0.28129
G01 X0.68880 Y-0.27267
G01 X0.68316 Y-0.26552
G01 X0.67652 Y-0.25927
G01 X0.66902 Y-0.25407
G01 X0.66084 Y-0.25004
G01 X0.65216 Y-0.24725
G01 X0.64316 Y-0.24579
G01 X0.63404 Y-0.24566
G01 X0.62500 Y-0.24689
G01 X0.61624 Y-0.24945
G01 X0.60796 Y-0.25327
G01 X0.60033 Y-0.25827
G01 X0.59353 Y-0.26434
G01 X0.58770 Y-0.27135
G01 X0.58296 Y-0.27915
G01 X0.57944 Y-0.28756
G01 X0.57719 Y-0.29640
G01 X0.57628 Y-0.30547
G01 X0.57824 Y-0.30553
G01 X0.57866 Y-0.31435
G01 X0.58038 Y-0.32301
G01 X0.58337 Y-0.33132
G01 X0.58755 Y-0.33910
G01 X0.59283 Y-0.34617
G01 X0.59898 Y-0.35227
G01 X0.60623 Y-0.35762
G01 X0.61404 Y-0.36172
G01 X0.62237 Y-0.36463
G01 X0.63105 Y-0.36628
G01 X0.63987 Y-0.36662
G01 X0.64865 Y-0.36566
G01 X0.65719 Y-0.36341
G01 X0.66530 Y-0.35993
G01 X0.67281 Y-0.35528
G01 X0.67955 Y-0.34958
G01 X0.68537 Y-0.34294
G01 X0.69015 Y-0.33551
G01 X0.69221 Y-0.33113
G01 X0.69470 Y-0.32811
G01 X0.69577 Y-0.32707
G01 X0.69703 Y-0.32626
G01 X0.70109 Y-0.32489
G01 X0.70255 Y-0.32460
G01 X0.70405 Y-0.32459
G01 X0.70552 Y-0.32487
G01 X0.70959 Y-0.32619
G01 X0.71085 Y-0.32699
G01 X0.71194 Y-0.32802
G01 X0.71456 Y-0.33118
G01 X0.71515 Y-0.33235
G01 X0.71554 Y-0.33361
G01 X0.71614 Y-0.33653
G01 X0.71627 Y-0.35685
G01 X0.71755 Y-0.36024
G01 X0.71964 Y-0.36303
G01 X0.72244 Y-0.36512
G01 X0.72583 Y-0.36641
G01 X0.82431 Y-0.36651
G01 X0.82534 Y-0.36638
G01 X0.82875 Y-0.36513
G01 X0.83154 Y-0.36303
G01 X0.83364 Y-0.36024
G01 X0.83488 Y-0.35684
G01 X0.83502 Y-0.35580
G01 X0.83502 Y-0.25837
G01 X0.83488 Y-0.25733
G01 X0.83364 Y-0.25393
G01 X0.83154 Y-0.25114
G01 X0.82875 Y-0.24904
G01 X0.82534 Y-0.24779
G01 X0.82431 Y-0.24766
G01 X0.72583 Y-0.24776
G01 X0.72244 Y-0.24905
G01 X0.71964 Y-0.25114
G01 X0.71755 Y-0.25393
G01 X0.71627 Y-0.25733
G01 X0.71618 Y-0.27642
G01 X0.71586 Y-0.27863
G01 X0.71452 Y-0.28270
G01 X0.71371 Y-0.28396
G01 X0.71268 Y-0.28504
G01 X0.70935 Y-0.28774
G01 X0.70800 Y-0.28836
G01 X0.70378 Y-0.28911
G01 X0.70229 Y-0.28918
G01 X0.70081 Y-0.28897
G01 X0.69940 Y-0.28848
G01 X0.69685 Y-0.28731
G01 X0.69568 Y-0.28665
G01 X0.69464 Y-0.28580
G01 X0.69198 Y-0.28226
G01 X0.68717 Y-0.27376
G01 X0.68172 Y-0.26684
G01 X0.67529 Y-0.26079
G01 X0.66803 Y-0.25576
G01 X0.66011 Y-0.25185
G01 X0.65170 Y-0.24916
G01 X0.64299 Y-0.24774
G01 X0.63416 Y-0.24762
G01 X0.62541 Y-0.24881
G01 X0.61693 Y-0.25128
G01 X0.60891 Y-0.25498
G01 X0.60152 Y-0.25982
G01 X0.59494 Y-0.26570
G01 X0.58929 Y-0.27249
G01 X0.58471 Y-0.28004
G01 X0.58130 Y-0.28818
G01 X0.57912 Y-0.29674
G01 X0.57824 Y-0.30553
G01 X0.57954 Y-0.30556
G01 X0.58153 Y-0.30809
G01 X0.58198 Y-0.31395
G01 X0.58298 Y-0.31979
G01 X0.58358 Y-0.32210
G01 X0.58631 Y-0.33001
G01 X0.59036 Y-0.33733
G01 X0.59167 Y-0.33932
G01 X0.59535 Y-0.34397
G01 X0.59940 Y-0.34823
G01 X0.60106 Y-0.34978
G01 X0.60800 Y-0.35485
G01 X0.61054 Y-0.35631
G01 X0.61538 Y-0.35865
G01 X0.61945 Y-0.36027
G01 X0.62321 Y-0.36143
G01 X0.63142 Y-0.36307
G01 X0.63289 Y-0.36316
G01 X0.63977 Y-0.36330
G01 X0.64287 Y-0.36313
G01 X0.64803 Y-0.36238
G01 X0.65423 Y-0.36091
G01 X0.65612 Y-0.36036
G01 X0.66503 Y-0.35635
G01 X0.67084 Y-0.35258
G01 X0.67468 Y-0.34956
G01 X0.67722 Y-0.34725
G01 X0.68280 Y-0.34098
G01 X0.68722 Y-0.33391
G01 X0.69134 Y-0.32607
G01 X0.69360 Y-0.31895
G01 X0.69480 Y-0.30811
G01 X0.69480 Y-0.30606
G01 X0.69360 Y-0.29522
G01 X0.69114 Y-0.28746
G01 X0.68395 Y-0.27484
G01 X0.67925 Y-0.26909
G01 X0.67618 Y-0.26596
G01 X0.67322 Y-0.26337
G01 X0.66639 Y-0.25853
G01 X0.65885 Y-0.25493
G01 X0.65420 Y-0.25327
G01 X0.65094 Y-0.25240
G01 X0.64272 Y-0.25097
G01 X0.63295 Y-0.25100
G01 X0.62610 Y-0.25209
G01 X0.62137 Y-0.25328
G01 X0.61811 Y-0.25436
G01 X0.61047 Y-0.25782
G01 X0.60355 Y-0.26248
G01 X0.59939 Y-0.26597
G01 X0.59735 Y-0.26800
G01 X0.59284 Y-0.27321
G01 X0.59167 Y-0.27477
G01 X0.58765 Y-0.28156
G01 X0.58600 Y-0.28513
G01 X0.58447 Y-0.28924
G01 X0.58251 Y-0.29641
G01 X0.58150 Y-0.30565
G01 X0.58153 Y-0.30809
G01 X0.58269 Y-0.30709
G01 X0.58390 Y-0.31854
G01 X0.58716 Y-0.32873
G01 X0.58783 Y-0.33023
G01 X0.59277 Y-0.33878
G01 X0.59373 Y-0.34011
G01 X0.60092 Y-0.34803
G01 X0.61024 Y-0.35481
G01 X0.62077 Y-0.35949
G01 X0.63122 Y-0.36176
G01 X0.63286 Y-0.36193
G01 X0.64355 Y-0.36189
G01 X0.65403 Y-0.35970
G01 X0.65559 Y-0.35920
G01 X0.66535 Y-0.35481
G01 X0.67466 Y-0.34803
G01 X0.68185 Y-0.34011
G01 X0.68282 Y-0.33878
G01 X0.68813 Y-0.32950
G01 X0.69148 Y-0.31934
G01 X0.69182 Y-0.31773
G01 X0.69290 Y-0.30709
G01 X0.69182 Y-0.29644
G01 X0.69148 Y-0.29484
G01 X0.68813 Y-0.28467
G01 X0.68282 Y-0.27539
G01 X0.68185 Y-0.27406
G01 X0.67466 Y-0.26614
G01 X0.66535 Y-0.25937
G01 X0.65482 Y-0.25468
G01 X0.64437 Y-0.25242
G01 X0.64273 Y-0.25224
G01 X0.63204 Y-0.25229
G01 X0.62156 Y-0.25447
G01 X0.62000 Y-0.25498
G01 X0.61024 Y-0.25937
G01 X0.60156 Y-0.26562
G01 X0.60034 Y-0.26672
G01 X0.59322 Y-0.27470
G01 X0.58783 Y-0.28394
G01 X0.58716 Y-0.28544
G01 X0.58390 Y-0.29563
G01 X0.58269 Y-0.30709
G01 X0.58465 Y-0.30709
G01 X0.58571 Y-0.31753
G01 X0.58597 Y-0.31873
G01 X0.58924 Y-0.32870
G01 X0.59446 Y-0.33781
G01 X0.59518 Y-0.33881
G01 X0.60223 Y-0.34658
G01 X0.61122 Y-0.35312
G01 X0.62137 Y-0.35763
G01 X0.63163 Y-0.35985
G01 X0.63286 Y-0.35998
G01 X0.64335 Y-0.35994
G01 X0.65362 Y-0.35779
G01 X0.65480 Y-0.35741
G01 X0.66437 Y-0.35312
G01 X0.67336 Y-0.34658
G01 X0.68040 Y-0.33881
G01 X0.68113 Y-0.33781
G01 X0.68635 Y-0.32870
G01 X0.68962 Y-0.31873
G01 X0.68988 Y-0.31753
G01 X0.69094 Y-0.30709
G01 X0.68988 Y-0.29665
G01 X0.68962 Y-0.29544
G01 X0.68635 Y-0.28547
G01 X0.68113 Y-0.27636
G01 X0.68040 Y-0.27537
G01 X0.67336 Y-0.26759
G01 X0.66437 Y-0.26106
G01 X0.65422 Y-0.25654
G01 X0.64396 Y-0.25433
G01 X0.64273 Y-0.25420
G01 X0.63224 Y-0.25423
G01 X0.62197 Y-0.25638
G01 X0.62079 Y-0.25676
G01 X0.61122 Y-0.26106
G01 X0.60271 Y-0.26720
G01 X0.60179 Y-0.26803
G01 X0.59480 Y-0.27585
G01 X0.58952 Y-0.28492
G01 X0.58902 Y-0.28604
G01 X0.58581 Y-0.29604
G01 X0.58465 Y-0.30709
G01 X0.58660 Y-0.30709
G01 X0.58782 Y-0.31813
G01 X0.59102 Y-0.32791
G01 X0.59615 Y-0.33683
G01 X0.60354 Y-0.34513
G01 X0.61220 Y-0.35142
G01 X0.62197 Y-0.35578
G01 X0.63286 Y-0.35802
G01 X0.64315 Y-0.35800
G01 X0.65322 Y-0.35588
G01 X0.66339 Y-0.35142
G01 X0.67205 Y-0.34513
G01 X0.67944 Y-0.33683
G01 X0.68456 Y-0.32791
G01 X0.68777 Y-0.31813
G01 X0.68899 Y-0.30709
G01 X0.68777 Y-0.29604
G01 X0.68456 Y-0.28626
G01 X0.67944 Y-0.27734
G01 X0.67205 Y-0.26904
G01 X0.66339 Y-0.26275
G01 X0.65361 Y-0.25839
G01 X0.64273 Y-0.25615
G01 X0.63244 Y-0.25617
G01 X0.62237 Y-0.25829
G01 X0.61220 Y-0.26275
G01 X0.60354 Y-0.26904
G01 X0.59615 Y-0.27734
G01 X0.59102 Y-0.28626
G01 X0.58782 Y-0.29604
G01 X0.58660 Y-0.30709
G01 X0.58855 Y-0.30709
G01 X0.58968 Y-0.31753
G01 X0.59281 Y-0.32711
G01 X0.59784 Y-0.33586
G01 X0.60484 Y-0.34368
G01 X0.61317 Y-0.34973
G01 X0.62258 Y-0.35392
G01 X0.63286 Y-0.35607
G01 X0.64294 Y-0.35606
G01 X0.65281 Y-0.35397
G01 X0.66242 Y-0.34973
G01 X0.67075 Y-0.34368
G01 X0.67775 Y-0.33586
G01 X0.68278 Y-0.32711
G01 X0.68591 Y-0.31753
G01 X0.68704 Y-0.30709
G01 X0.68591 Y-0.29664
G01 X0.68278 Y-0.28706
G01 X0.67775 Y-0.27832
G01 X0.67075 Y-0.27049
G01 X0.66242 Y-0.26444
G01 X0.65301 Y-0.26025
G01 X0.64273 Y-0.25810
G01 X0.63265 Y-0.25811
G01 X0.62278 Y-0.26020
G01 X0.61317 Y-0.26444
G01 X0.60484 Y-0.27049
G01 X0.59784 Y-0.27832
G01 X0.59281 Y-0.28706
G01 X0.58968 Y-0.29664
G01 X0.58855 Y-0.30709
G04 P0 ( dwell for no time -- G64 should not smooth over this point )
G00 Z0.01181 ( retract )

G00 X0.71931 Y-0.35431 ( rapid move to begin. )
G01 F12.59843
( Mill infeed pass 1/1 )
G01 Z-0.00200
G04 P0 ( dwell for no time -- G64 should not smooth over this point )
G01 F31.49606
G01 X0.71931 Y-0.35431
G01 X0.71942 Y-0.35608
G01 X0.72039 Y-0.35869
G01 X0.72193 Y-0.36075
G01 X0.72398 Y-0.36229
G01 X0.72708 Y-0.36332
G01 X0.82282 Y-0.36336
G01 X0.82459 Y-0.36325
G01 X0.82719 Y-0.36229
G01 X0.82925 Y-0.36075
G01 X0.83079 Y-0.35869
G01 X0.83176 Y-0.35608
G01 X0.83187 Y-0.35431
G01 X0.83187 Y-0.25986
G01 X0.83176 Y-0.25809
G01 X0.83079 Y-0.25548
G01 X0.82925 Y-0.25342
G01 X0.82719 Y-0.25188
G01 X0.82459 Y-0.25092
G01 X0.82282 Y-0.25081
G01 X0.72836 Y-0.25081
G01 X0.72659 Y-0.25092
G01 X0.72398 Y-0.25188
G01 X0.72193 Y-0.25342
G01 X0.72039 Y-0.25548
G01 X0.71942 Y-0.25809
G01 X0.71931 Y-0.25986
G01 X0.71931 Y-0.27642
G01 X0.71910 Y-0.27943
G01 X0.71854 Y-0.28279
G01 X0.71854 Y-0.33120
G01 X0.71896 Y-0.33296
G01 X0.71931 Y-0.33738
G01 X0.71931 Y-0.35431
G01 X0.72049 Y-0.35433
G01 X0.72064 Y-0.35586
G01 X0.72109 Y-0.35734
G01 X0.72181 Y-0.35870
G01 X0.72279 Y-0.35989
G01 X0.72398 Y-0.36086
G01 X0.72534 Y-0.36159
G01 X0.72681 Y-0.36204
G01 X0.72835 Y-0.36219
G01 X0.82283 Y-0.36219
G01 X0.82437 Y-0.36204
G01 X0.82584 Y-0.36159
G01 X0.82720 Y-0.36086
G01 X0.82839 Y-0.35989
G01 X0.82937 Y-0.35870
G01 X0.83009 Y-0.35734
G01 X0.83054 Y-0.35586
G01 X0.83069 Y-0.35433
G01 X0.83069 Y-0.25984
G01 X0.83054 Y-0.25831
G01 X0.83009 Y-0.25683
G01 X0.82937 Y-0.25548
G01 X0.82839 Y-0.25429
G01 X0.82720 Y-0.25331
G01 X0.82584 Y-0.25258
G01 X0.82437 Y-0.25213
G01 X0.82283 Y-0.25198
G01 X0.72835 Y-0.25198
G01 X0.72681 Y-0.25213
G01 X0.72534 Y-0.25258
G01 X0.72398 Y-0.25331
G01 X0.72279 Y-0.25429
G01 X0.72181 Y-0.25548
G01 X0.72109 Y-0.25683
G01 X0.72064 Y-0.25831
G01 X0.72049 Y-0.25984
G01 X0.72049 Y-0.35433
G01 X0.72244 Y-0.35433
G01 X0.72255 Y-0.35548
G01 X0.72289 Y-0.35659
G01 X0.72344 Y-0.35761
G01 X0.72417 Y-0.35851
G01 X0.72506 Y-0.35924
G01 X0.72609 Y-0.35979
G01 X0.72719 Y-0.36012
G01 X0.72835 Y-0.36024
G01 X0.82283 Y-0.36024
G01 X0.82399 Y-0.36012
G01 X0.82509 Y-0.35979
G01 X0.82612 Y-0.35924
G01 X0.82701 Y-0.35851
G01 X0.82774 Y-0.35761
G01 X0.82829 Y-0.35659
G01 X0.82863 Y-0.35548
G01 X0.82874 Y-0.35433
G01 X0.82874 Y-0.25984
G01 X0.82863 Y-0.25869
G01 X0.82829 Y-0.25758
G01 X0.82774 Y-0.25656
G01 X0.82701 Y-0.25567
G01 X0.82612 Y-0.25493
G01 X0.82509 Y-0.25439
G01 X0.82399 Y-0.25405
G01 X0.82283 Y-0.25394
G01 X0.72835 Y-0.25394
G01 X0.72719 Y-0.25405
G01 X0.72609 Y-0.25439
G01 X0.72506 Y-0.25493
G01 X0.72417 Y-0.25567
G01 X0.72344 Y-0.25656
G01 X0.72289 Y-0.25758
G01 X0.72255 Y-0.25869
G01 X0.72244 Y-0.25984
G01 X0.72244 Y-0.35433
G01 X0.72439 Y-0.35433
G01 X0.72469 Y-0.35584
G01 X0.72555 Y-0.35713
G01 X0.72683 Y-0.35798
G01 X0.72835 Y-0.35828
G01 X0.82283 Y-0.35828
G01 X0.82435 Y-0.35798
G01 X0.82563 Y-0.35713
G01 X0.82649 Y-0.35584
G01 X0.82679 Y-0.35433
G01 X0.82679 Y-0.25984
G01 X0.82649 Y-0.25833
G01 X0.82563 Y-0.25705
G01 X0.82435 Y-0.25619
G01 X0.82283 Y-0.25589
G01 X0.72835 Y-0.25589
G01 X0.72683 Y-0.25619
G01 X0.72555 Y-0.25705
G01 X0.72469 Y-0.25833
G01 X0.72439 Y-0.25984
G01 X0.72439 Y-0.35433
G01 X0.72635 Y-0.35433
G01 X0.72650 Y-0.35510
G01 X0.72693 Y-0.35574
G01 X0.72758 Y-0.35618
G01 X0.72835 Y-0.35633
G01 X0.82283 Y-0.35633
G01 X0.82360 Y-0.35618
G01 X0.82425 Y-0.35574
G01 X0.82468 Y-0.35510
G01 X0.82483 Y-0.35433
G01 X0.82483 Y-0.25984
G01 X0.82468 Y-0.25908
G01 X0.82425 Y-0.25843
G01 X0.82360 Y-0.25799
G01 X0.82283 Y-0.25784
G01 X0.72835 Y-0.25784
G01 X0.72758 Y-0.25799
G01 X0.72693 Y-0.25843
G01 X0.72650 Y-0.25908
G01 X0.72635 Y-0.25984
G01 X0.72635 Y-0.35433
G04 P0 ( dwell for no time -- G64 should not smooth over this point )
G00 Z0.01181 ( retract )

G00 X0.94261 Y-0.22334 ( rapid move to begin. )
G01 F12.59843
( Mill infeed pass 1/1 )
G01 Z-0.00200
G04 P0 ( dwell for no time -- G64 should not smooth over this point )
G01 F31.49606
G01 X0.94261 Y-0.22334
G01 X0.94261 Y-0.17036
G01 X0.94300 Y-0.16657
G01 X0.94505 Y-0.16039
G01 X0.94846 Y-0.15486
G01 X0.95305 Y-0.15026
G01 X0.95857 Y-0.14684
G01 X0.96475 Y-0.14478
G01 X0.96859 Y-0.14438
G01 X0.99991 Y-0.14438
G01 X1.00371 Y-0.14477
G01 X1.00989 Y-0.14682
G01 X1.01542 Y-0.15023
G01 X1.02002 Y-0.15482
G01 X1.02181 Y-0.15759
G01 X1.02438 Y-0.15947
G01 X1.02544 Y-0.15984
G01 X1.02823 Y-0.15998
G01 X1.02933 Y-0.15971
G01 X1.03199 Y-0.15816
G01 X1.03566 Y-0.15436
G01 X1.04214 Y-0.14976
G01 X1.04937 Y-0.14647
G01 X1.05710 Y-0.14461
G01 X1.06503 Y-0.14424
G01 X1.07289 Y-0.14538
G01 X1.08061 Y-0.14810
G01 X1.08728 Y-0.15197
G01 X1.09329 Y-0.15718
G01 X1.09819 Y-0.16342
G01 X1.10183 Y-0.17049
G01 X1.10407 Y-0.17811
G01 X1.10463 Y-0.18404
G01 X1.10463 Y-0.21155
G01 X1.10310 Y-0.21956
G01 X1.10013 Y-0.22693
G01 X1.09582 Y-0.23360
G01 X1.09032 Y-0.23934
G01 X1.08384 Y-0.24394
G01 X1.07661 Y-0.24723
G01 X1.06889 Y-0.24909
G01 X1.06095 Y-0.24946
G01 X1.05308 Y-0.24832
G01 X1.04558 Y-0.24571
G01 X1.03870 Y-0.24173
G01 X1.03264 Y-0.23647
G01 X1.03132 Y-0.23515
G01 X1.02851 Y-0.23391
G01 X1.02777 Y-0.23374
G01 X1.02463 Y-0.23422
G01 X1.02362 Y-0.23470
G01 X1.02134 Y-0.23678
G01 X1.02005 Y-0.23884
G01 X1.01545 Y-0.24344
G01 X1.00993 Y-0.24686
G01 X1.00375 Y-0.24892
G01 X0.99991 Y-0.24932
G01 X0.96859 Y-0.24932
G01 X0.96480 Y-0.24893
G01 X0.95862 Y-0.24688
G01 X0.95309 Y-0.24347
G01 X0.94849 Y-0.23888
G01 X0.94507 Y-0.23336
G01 X0.94301 Y-0.22718
G01 X0.94261 Y-0.22334
G01 X0.94456 Y-0.22323
G01 X0.94456 Y-0.17046
G01 X0.94489 Y-0.16698
G01 X0.94682 Y-0.16121
G01 X0.94999 Y-0.15607
G01 X0.95426 Y-0.15179
G01 X0.95940 Y-0.14861
G01 X0.96516 Y-0.14669
G01 X0.96869 Y-0.14633
G01 X0.99981 Y-0.14633
G01 X1.00330 Y-0.14667
G01 X1.00906 Y-0.14859
G01 X1.01421 Y-0.15176
G01 X1.01849 Y-0.15605
G01 X1.02039 Y-0.15893
G01 X1.02324 Y-0.16106
G01 X1.02460 Y-0.16168
G01 X1.02814 Y-0.16193
G01 X1.02962 Y-0.16172
G01 X1.03319 Y-0.15970
G01 X1.03693 Y-0.15584
G01 X1.04311 Y-0.15145
G01 X1.05001 Y-0.14832
G01 X1.05737 Y-0.14654
G01 X1.06494 Y-0.14620
G01 X1.07242 Y-0.14729
G01 X1.07978 Y-0.14988
G01 X1.08614 Y-0.15356
G01 X1.09186 Y-0.15853
G01 X1.09654 Y-0.16448
G01 X1.10001 Y-0.17122
G01 X1.10214 Y-0.17848
G01 X1.10268 Y-0.18413
G01 X1.10268 Y-0.21136
G01 X1.10122 Y-0.21901
G01 X1.09839 Y-0.22602
G01 X1.09428 Y-0.23239
G01 X1.08904 Y-0.23786
G01 X1.08286 Y-0.24224
G01 X1.07597 Y-0.24537
G01 X1.06861 Y-0.24715
G01 X1.06104 Y-0.24751
G01 X1.05355 Y-0.24642
G01 X1.04639 Y-0.24394
G01 X1.03983 Y-0.24014
G01 X1.03234 Y-0.23348
G01 X1.02929 Y-0.23212
G01 X1.02783 Y-0.23179
G01 X1.02432 Y-0.23229
G01 X1.02291 Y-0.23281
G01 X1.01984 Y-0.23553
G01 X1.01850 Y-0.23762
G01 X1.01424 Y-0.24191
G01 X1.00910 Y-0.24509
G01 X1.00334 Y-0.24702
G01 X0.99981 Y-0.24737
G01 X0.96869 Y-0.24737
G01 X0.96520 Y-0.24703
G01 X0.95944 Y-0.24511
G01 X0.95430 Y-0.24194
G01 X0.95002 Y-0.23767
G01 X0.94684 Y-0.23253
G01 X0.94492 Y-0.22677
G01 X0.94456 Y-0.22323
G01 X0.94651 Y-0.22313
G01 X0.94651 Y-0.17056
G01 X0.94681 Y-0.16739
G01 X0.94860 Y-0.16204
G01 X0.95153 Y-0.15729
G01 X0.95548 Y-0.15333
G01 X0.96023 Y-0.15039
G01 X0.96557 Y-0.14861
G01 X0.96879 Y-0.14828
G01 X0.99971 Y-0.14829
G01 X1.00289 Y-0.14859
G01 X1.00823 Y-0.15037
G01 X1.01299 Y-0.15330
G01 X1.01695 Y-0.15728
G01 X1.01897 Y-0.16027
G01 X1.02211 Y-0.16264
G01 X1.02308 Y-0.16321
G01 X1.02414 Y-0.16358
G01 X1.02804 Y-0.16388
G01 X1.02916 Y-0.16383
G01 X1.03025 Y-0.16356
G01 X1.03370 Y-0.16171
G01 X1.03502 Y-0.16067
G01 X1.03822 Y-0.15732
G01 X1.04409 Y-0.15315
G01 X1.05065 Y-0.15017
G01 X1.05765 Y-0.14848
G01 X1.06484 Y-0.14816
G01 X1.07195 Y-0.14919
G01 X1.07896 Y-0.15166
G01 X1.08500 Y-0.15516
G01 X1.09044 Y-0.15988
G01 X1.09489 Y-0.16554
G01 X1.09819 Y-0.17194
G01 X1.10022 Y-0.17885
G01 X1.10073 Y-0.18422
G01 X1.10073 Y-0.21118
G01 X1.09933 Y-0.21845
G01 X1.09665 Y-0.22512
G01 X1.09274 Y-0.23117
G01 X1.08776 Y-0.23637
G01 X1.08189 Y-0.24054
G01 X1.07533 Y-0.24352
G01 X1.06833 Y-0.24521
G01 X1.06114 Y-0.24555
G01 X1.05401 Y-0.24452
G01 X1.04721 Y-0.24215
G01 X1.04097 Y-0.23855
G01 X1.03336 Y-0.23182
G01 X1.03006 Y-0.23033
G01 X1.02900 Y-0.22998
G01 X1.02788 Y-0.22984
G01 X1.02401 Y-0.23036
G01 X1.02292 Y-0.23065
G01 X1.02191 Y-0.23113
G01 X1.01834 Y-0.23428
G01 X1.01696 Y-0.23641
G01 X1.01302 Y-0.24037
G01 X1.00827 Y-0.24331
G01 X1.00293 Y-0.24510
G01 X0.99971 Y-0.24541
G01 X0.96879 Y-0.24541
G01 X0.96562 Y-0.24511
G01 X0.96027 Y-0.24333
G01 X0.95551 Y-0.24039
G01 X0.95156 Y-0.23645
G01 X0.94862 Y-0.23169
G01 X0.94684 Y-0.22635
G01 X0.94651 Y-0.22313
G01 X0.94846 Y-0.22303
G01 X0.94847 Y-0.17066
G01 X0.94874 Y-0.16780
G01 X0.95038 Y-0.16287
G01 X0.95307 Y-0.15850
G01 X0.95670 Y-0.15487
G01 X0.96107 Y-0.15217
G01 X0.96599 Y-0.15053
G01 X0.96889 Y-0.15024
G01 X0.99961 Y-0.15024
G01 X1.00247 Y-0.15051
G01 X1.00740 Y-0.15215
G01 X1.01178 Y-0.15484
G01 X1.01542 Y-0.15851
G01 X1.01755 Y-0.16161
G01 X1.02097 Y-0.16423
G01 X1.02226 Y-0.16498
G01 X1.02367 Y-0.16547
G01 X1.02794 Y-0.16583
G01 X1.02943 Y-0.16576
G01 X1.03089 Y-0.16541
G01 X1.03467 Y-0.16340
G01 X1.03643 Y-0.16202
G01 X1.03950 Y-0.15881
G01 X1.04507 Y-0.15485
G01 X1.05129 Y-0.15202
G01 X1.05793 Y-0.15043
G01 X1.06475 Y-0.15012
G01 X1.07149 Y-0.15110
G01 X1.07814 Y-0.15345
G01 X1.08387 Y-0.15676
G01 X1.08902 Y-0.16123
G01 X1.09324 Y-0.16660
G01 X1.09637 Y-0.17267
G01 X1.09829 Y-0.17922
G01 X1.09878 Y-0.18432
G01 X1.09878 Y-0.21099
G01 X1.09745 Y-0.21790
G01 X1.09491 Y-0.22422
G01 X1.09120 Y-0.22995
G01 X1.08648 Y-0.23489
G01 X1.08091 Y-0.23884
G01 X1.07469 Y-0.24166
G01 X1.06806 Y-0.24327
G01 X1.06123 Y-0.24359
G01 X1.05448 Y-0.24261
G01 X1.04802 Y-0.24037
G01 X1.04211 Y-0.23695
G01 X1.03673 Y-0.23227
G01 X1.03527 Y-0.23079
G01 X1.03438 Y-0.23015
G01 X1.03084 Y-0.22853
G01 X1.02942 Y-0.22807
G01 X1.02794 Y-0.22789
G01 X1.02369 Y-0.22843
G01 X1.02225 Y-0.22881
G01 X1.02090 Y-0.22946
G01 X1.01762 Y-0.23222
G01 X1.01684 Y-0.23303
G01 X1.01542 Y-0.23519
G01 X1.01181 Y-0.23883
G01 X1.00743 Y-0.24153
G01 X1.00251 Y-0.24318
G01 X0.99961 Y-0.24346
G01 X0.96889 Y-0.24346
G01 X0.96603 Y-0.24319
G01 X0.96110 Y-0.24155
G01 X0.95673 Y-0.23885
G01 X0.95310 Y-0.23522
G01 X0.95040 Y-0.23086
G01 X0.94876 Y-0.22594
G01 X0.94846 Y-0.22303
G01 X0.94969 Y-0.22297
G01 X0.94970 Y-0.17067
G01 X0.95000 Y-0.16799
G01 X0.95148 Y-0.16348
G01 X0.95403 Y-0.15936
G01 X0.95575 Y-0.15749
G01 X0.95757 Y-0.15584
G01 X0.96156 Y-0.15334
G01 X0.96621 Y-0.15181
G01 X0.96893 Y-0.15145
G01 X0.99951 Y-0.15145
G01 X1.00131 Y-0.15163
G01 X1.00342 Y-0.15212
G01 X1.00680 Y-0.15329
G01 X1.01092 Y-0.15580
G01 X1.01438 Y-0.15924
G01 X1.01810 Y-0.16458
G01 X1.01983 Y-0.16582
G01 X1.02145 Y-0.16676
G01 X1.02321 Y-0.16737
G01 X1.02505 Y-0.16764
G01 X1.02784 Y-0.16778
G01 X1.02971 Y-0.16769
G01 X1.03152 Y-0.16726
G01 X1.03385 Y-0.16612
G01 X1.03734 Y-0.16287
G01 X1.04039 Y-0.15972
G01 X1.04472 Y-0.15662
G01 X1.04577 Y-0.15592
G01 X1.05120 Y-0.15345
G01 X1.05335 Y-0.15279
G01 X1.05830 Y-0.15168
G01 X1.06050 Y-0.15152
G01 X1.06553 Y-0.15149
G01 X1.07120 Y-0.15238
G01 X1.07468 Y-0.15348
G01 X1.07763 Y-0.15466
G01 X1.08119 Y-0.15660
G01 X1.08306 Y-0.15781
G01 X1.08534 Y-0.15962
G01 X1.08804 Y-0.16212
G01 X1.09033 Y-0.16484
G01 X1.09213 Y-0.16729
G01 X1.09520 Y-0.17323
G01 X1.09704 Y-0.17940
G01 X1.09754 Y-0.18437
G01 X1.09760 Y-0.20770
G01 X1.09745 Y-0.21092
G01 X1.09702 Y-0.21383
G01 X1.09619 Y-0.21749
G01 X1.09418 Y-0.22275
G01 X1.09038 Y-0.22891
G01 X1.08698 Y-0.23262
G01 X1.08559 Y-0.23397
G01 X1.08022 Y-0.23778
G01 X1.07422 Y-0.24049
G01 X1.06795 Y-0.24197
G01 X1.06128 Y-0.24228
G01 X1.05827 Y-0.24194
G01 X1.05334 Y-0.24093
G01 X1.04863 Y-0.23917
G01 X1.04665 Y-0.23818
G01 X1.04285 Y-0.23583
G01 X1.03907 Y-0.23269
G01 X1.03400 Y-0.22778
G01 X1.03162 Y-0.22674
G01 X1.02985 Y-0.22617
G01 X1.02800 Y-0.22593
G01 X1.02614 Y-0.22606
G01 X1.02338 Y-0.22651
G01 X1.02157 Y-0.22698
G01 X1.01989 Y-0.22779
G01 X1.01812 Y-0.22914
G01 X1.01437 Y-0.23447
G01 X1.01095 Y-0.23788
G01 X1.00693 Y-0.24033
G01 X1.00552 Y-0.24091
G01 X1.00218 Y-0.24191
G01 X0.99961 Y-0.24226
G01 X0.96898 Y-0.24225
G01 X0.96635 Y-0.24195
G01 X0.96171 Y-0.24040
G01 X0.95914 Y-0.23896
G01 X0.95750 Y-0.23782
G01 X0.95414 Y-0.23450
G01 X0.95150 Y-0.23025
G01 X0.94999 Y-0.22559
G01 X0.94969 Y-0.22297
G01 X0.95159 Y-0.22144
G01 X0.95164 Y-0.17085
G01 X0.95191 Y-0.16847
G01 X0.95331 Y-0.16424
G01 X0.95561 Y-0.16051
G01 X0.95713 Y-0.15891
G01 X0.95870 Y-0.15743
G01 X0.96244 Y-0.15512
G01 X0.96667 Y-0.15371
G01 X0.96906 Y-0.15340
G01 X0.99907 Y-0.15339
G01 X1.00179 Y-0.15370
G01 X1.00603 Y-0.15510
G01 X1.00977 Y-0.15740
G01 X1.01290 Y-0.16052
G01 X1.01652 Y-0.16573
G01 X1.01725 Y-0.16816
G01 X1.01768 Y-0.17224
G01 X1.01768 Y-0.22146
G01 X1.01741 Y-0.22453
G01 X1.01725 Y-0.22554
G01 X1.01649 Y-0.22807
G01 X1.01289 Y-0.23319
G01 X1.00980 Y-0.23627
G01 X1.00656 Y-0.23832
G01 X1.00483 Y-0.23906
G01 X1.00183 Y-0.23999
G01 X0.99943 Y-0.24030
G01 X0.96997 Y-0.24033
G01 X0.96748 Y-0.24012
G01 X0.96562 Y-0.23970
G01 X0.96247 Y-0.23860
G01 X0.96018 Y-0.23727
G01 X0.95862 Y-0.23620
G01 X0.95573 Y-0.23331
G01 X0.95332 Y-0.22949
G01 X0.95191 Y-0.22526
G01 X0.95159 Y-0.22144
G01 X0.95277 Y-0.22146
G01 X0.95281 Y-0.17142
G01 X0.95316 Y-0.16856
G01 X0.95401 Y-0.16581
G01 X0.95468 Y-0.16431
G01 X0.95615 Y-0.16184
G01 X0.95863 Y-0.15909
G01 X0.96162 Y-0.15691
G01 X0.96500 Y-0.15541
G01 X0.96781 Y-0.15477
G01 X0.97049 Y-0.15454
G01 X0.99908 Y-0.15460
G01 X1.00271 Y-0.15520
G01 X1.00427 Y-0.15570
G01 X1.00688 Y-0.15691
G01 X1.00988 Y-0.15909
G01 X1.01235 Y-0.16184
G01 X1.01383 Y-0.16431
G01 X1.01450 Y-0.16581
G01 X1.01534 Y-0.16856
G01 X1.01573 Y-0.17224
G01 X1.01573 Y-0.22146
G01 X1.01547 Y-0.22432
G01 X1.01513 Y-0.22593
G01 X1.01420 Y-0.22866
G01 X1.01280 Y-0.23117
G01 X1.01183 Y-0.23250
G01 X1.00988 Y-0.23461
G01 X1.00688 Y-0.23678
G01 X1.00350 Y-0.23829
G01 X1.00069 Y-0.23893
G01 X0.99908 Y-0.23910
G01 X0.96903 Y-0.23909
G01 X0.96580 Y-0.23850
G01 X0.96423 Y-0.23800
G01 X0.96162 Y-0.23678
G01 X0.95863 Y-0.23461
G01 X0.95615 Y-0.23186
G01 X0.95468 Y-0.22939
G01 X0.95401 Y-0.22789
G01 X0.95316 Y-0.22514
G01 X0.95277 Y-0.22146
G01 X0.95472 Y-0.22146
G01 X0.95476 Y-0.17163
G01 X0.95507 Y-0.16897
G01 X0.95586 Y-0.16642
G01 X0.95773 Y-0.16299
G01 X0.95993 Y-0.16054
G01 X0.96260 Y-0.15861
G01 X0.96561 Y-0.15727
G01 X0.96822 Y-0.15668
G01 X0.97048 Y-0.15650
G01 X0.99907 Y-0.15655
G01 X1.00029 Y-0.15668
G01 X1.00290 Y-0.15727
G01 X1.00535 Y-0.15832
G01 X1.00857 Y-0.16054
G01 X1.01077 Y-0.16299
G01 X1.01214 Y-0.16529
G01 X1.01264 Y-0.16642
G01 X1.01353 Y-0.16958
G01 X1.01378 Y-0.17224
G01 X1.01378 Y-0.22146
G01 X1.01327 Y-0.22533
G01 X1.01242 Y-0.22786
G01 X1.01111 Y-0.23019
G01 X1.00857 Y-0.23316
G01 X1.00591 Y-0.23509
G01 X1.00290 Y-0.23643
G01 X1.00029 Y-0.23702
G01 X0.99907 Y-0.23715
G01 X0.96913 Y-0.23714
G01 X0.96620 Y-0.23659
G01 X0.96503 Y-0.23621
G01 X0.96260 Y-0.23509
G01 X0.95993 Y-0.23316
G01 X0.95773 Y-0.23071
G01 X0.95637 Y-0.22841
G01 X0.95523 Y-0.22533
G01 X0.95497 Y-0.22412
G01 X0.95472 Y-0.22146
G01 X0.95668 Y-0.22146
G01 X0.95670 Y-0.17183
G01 X0.95698 Y-0.16937
G01 X0.95772 Y-0.16702
G01 X0.95931 Y-0.16414
G01 X0.96124 Y-0.16199
G01 X0.96357 Y-0.16030
G01 X0.96621 Y-0.15912
G01 X0.96862 Y-0.15859
G01 X0.97048 Y-0.15845
G01 X0.99988 Y-0.15859
G01 X1.00229 Y-0.15912
G01 X1.00456 Y-0.16011
G01 X1.00726 Y-0.16199
G01 X1.00919 Y-0.16414
G01 X1.01045 Y-0.16626
G01 X1.01159 Y-0.16978
G01 X1.01182 Y-0.17224
G01 X1.01182 Y-0.22146
G01 X1.01153 Y-0.22432
G01 X1.01078 Y-0.22668
G01 X1.00919 Y-0.22956
G01 X1.00726 Y-0.23171
G01 X1.00493 Y-0.23340
G01 X1.00229 Y-0.23458
G01 X0.99948 Y-0.23517
G01 X0.96924 Y-0.23519
G01 X0.96582 Y-0.23443
G01 X0.96357 Y-0.23340
G01 X0.96124 Y-0.23171
G01 X0.95931 Y-0.22956
G01 X0.95806 Y-0.22744
G01 X0.95691 Y-0.22392
G01 X0.95668 Y-0.22146
G01 X0.95863 Y-0.22146
G01 X0.95889 Y-0.22392
G01 X0.95965 Y-0.22627
G01 X0.96089 Y-0.22842
G01 X0.96240 Y-0.23011
G01 X0.96474 Y-0.23181
G01 X0.96681 Y-0.23272
G01 X0.96934 Y-0.23324
G01 X0.99927 Y-0.23323
G01 X1.00169 Y-0.23272
G01 X1.00395 Y-0.23171
G01 X1.00595 Y-0.23026
G01 X1.00761 Y-0.22842
G01 X1.00893 Y-0.22608
G01 X1.00961 Y-0.22392
G01 X1.00987 Y-0.22146
G01 X1.00987 Y-0.17224
G01 X1.00965 Y-0.16999
G01 X1.00876 Y-0.16724
G01 X1.00761 Y-0.16528
G01 X1.00595 Y-0.16344
G01 X1.00377 Y-0.16189
G01 X1.00169 Y-0.16098
G01 X0.99927 Y-0.16047
G01 X0.96934 Y-0.16046
G01 X0.96681 Y-0.16098
G01 X0.96455 Y-0.16199
G01 X0.96255 Y-0.16344
G01 X0.96089 Y-0.16528
G01 X0.95965 Y-0.16743
G01 X0.95894 Y-0.16958
G01 X0.95863 Y-0.17224
G01 X0.95863 Y-0.22146
G04 P0 ( dwell for no time -- G64 should not smooth over this point )
G00 Z0.01181 ( retract )

G00 X1.02956 Y-0.20768 ( rapid move to begin. )
G01 F12.59843
( Mill infeed pass 1/1 )
G01 Z-0.00200
G04 P0 ( dwell for no time -- G64 should not smooth over this point )
G01 F31.49606
G01 X1.02956 Y-0.20768
G01 X1.02956 Y-0.18602
G01 X1.03029 Y-0.17907
G01 X1.03245 Y-0.17242
G01 X1.03523 Y-0.16750
G01 X1.03871 Y-0.16427
G01 X1.04161 Y-0.16126
G01 X1.04668 Y-0.15765
G01 X1.05234 Y-0.15508
G01 X1.05842 Y-0.15364
G01 X1.06461 Y-0.15338
G01 X1.06740 Y-0.15368
G01 X1.07072 Y-0.15428
G01 X1.07403 Y-0.15532
G01 X1.07678 Y-0.15642
G01 X1.08019 Y-0.15828
G01 X1.08196 Y-0.15943
G01 X1.08407 Y-0.16110
G01 X1.08664 Y-0.16348
G01 X1.09003 Y-0.16767
G01 X1.09239 Y-0.17184
G01 X1.09334 Y-0.17385
G01 X1.09512 Y-0.17983
G01 X1.09565 Y-0.18604
G01 X1.09562 Y-0.20869
G01 X1.09552 Y-0.21068
G01 X1.09470 Y-0.21547
G01 X1.09431 Y-0.21696
G01 X1.09240 Y-0.22191
G01 X1.08881 Y-0.22774
G01 X1.08438 Y-0.23244
G01 X1.08016 Y-0.23547
G01 X1.07848 Y-0.23644
G01 X1.07364 Y-0.23862
G01 X1.06757 Y-0.24006
G01 X1.06137 Y-0.24032
G01 X1.05858 Y-0.24001
G01 X1.05389 Y-0.23904
G01 X1.04939 Y-0.23738
G01 X1.04579 Y-0.23542
G01 X1.04402 Y-0.23427
G01 X1.04038 Y-0.23124
G01 X1.03530 Y-0.22632
G01 X1.03245 Y-0.22127
G01 X1.03056 Y-0.21562
G01 X1.03013 Y-0.21361
G01 X1.02961 Y-0.20870
G01 X1.02956 Y-0.20768
G01 X1.03151 Y-0.20768
G01 X1.03151 Y-0.18602
G01 X1.03220 Y-0.17948
G01 X1.03394 Y-0.17399
G01 X1.03461 Y-0.17249
G01 X1.03752 Y-0.16752
G01 X1.04135 Y-0.16321
G01 X1.04257 Y-0.16211
G01 X1.04656 Y-0.15921
G01 X1.04798 Y-0.15839
G01 X1.05326 Y-0.15608
G01 X1.05970 Y-0.15472
G01 X1.06628 Y-0.15472
G01 X1.07193 Y-0.15587
G01 X1.07349 Y-0.15638
G01 X1.07873 Y-0.15876
G01 X1.08406 Y-0.16263
G01 X1.08846 Y-0.16752
G01 X1.09175 Y-0.17322
G01 X1.09357 Y-0.17868
G01 X1.09391 Y-0.18029
G01 X1.09447 Y-0.18602
G01 X1.09447 Y-0.20768
G01 X1.09391 Y-0.21341
G01 X1.09357 Y-0.21502
G01 X1.09175 Y-0.22048
G01 X1.08891 Y-0.22549
G01 X1.08794 Y-0.22682
G01 X1.08406 Y-0.23107
G01 X1.07942 Y-0.23449
G01 X1.07800 Y-0.23531
G01 X1.07272 Y-0.23762
G01 X1.06709 Y-0.23886
G01 X1.06546 Y-0.23903
G01 X1.05970 Y-0.23898
G01 X1.05406 Y-0.23783
G01 X1.05250 Y-0.23732
G01 X1.04725 Y-0.23494
G01 X1.04257 Y-0.23159
G01 X1.04135 Y-0.23049
G01 X1.03752 Y-0.22618
G01 X1.03461 Y-0.22121
G01 X1.03394 Y-0.21971
G01 X1.03220 Y-0.21422
G01 X1.03151 Y-0.20768
G01 X1.03346 Y-0.20768
G01 X1.03346 Y-0.18602
G01 X1.03401 Y-0.18049
G01 X1.03427 Y-0.17929
G01 X1.03602 Y-0.17401
G01 X1.03910 Y-0.16867
G01 X1.04323 Y-0.16408
G01 X1.04771 Y-0.16079
G01 X1.04878 Y-0.16017
G01 X1.05387 Y-0.15794
G01 X1.05930 Y-0.15675
G01 X1.06052 Y-0.15662
G01 X1.06608 Y-0.15666
G01 X1.07212 Y-0.15794
G01 X1.07720 Y-0.16017
G01 X1.07827 Y-0.16079
G01 X1.08275 Y-0.16408
G01 X1.08649 Y-0.16819
G01 X1.08722 Y-0.16919
G01 X1.08997 Y-0.17401
G01 X1.09187 Y-0.17988
G01 X1.09252 Y-0.18602
G01 X1.09252 Y-0.20768
G01 X1.09197 Y-0.21321
G01 X1.09171 Y-0.21441
G01 X1.08997 Y-0.21969
G01 X1.08688 Y-0.22503
G01 X1.08319 Y-0.22918
G01 X1.08227 Y-0.23001
G01 X1.07776 Y-0.23325
G01 X1.07212 Y-0.23576
G01 X1.06669 Y-0.23694
G01 X1.06546 Y-0.23707
G01 X1.05991 Y-0.23704
G01 X1.05446 Y-0.23592
G01 X1.05329 Y-0.23554
G01 X1.04823 Y-0.23325
G01 X1.04371 Y-0.23001
G01 X1.04280 Y-0.22918
G01 X1.03910 Y-0.22503
G01 X1.03630 Y-0.22024
G01 X1.03580 Y-0.21911
G01 X1.03411 Y-0.21382
G01 X1.03346 Y-0.20768
G01 X1.03542 Y-0.20768
G01 X1.03542 Y-0.18602
G01 X1.03595 Y-0.18070
G01 X1.03780 Y-0.17481
G01 X1.04068 Y-0.16981
G01 X1.04454 Y-0.16553
G01 X1.04886 Y-0.16237
G01 X1.05447 Y-0.15980
G01 X1.06052 Y-0.15858
G01 X1.06587 Y-0.15860
G01 X1.07151 Y-0.15980
G01 X1.07713 Y-0.16237
G01 X1.08144 Y-0.16553
G01 X1.08504 Y-0.16949
G01 X1.08818 Y-0.17481
G01 X1.08996 Y-0.18029
G01 X1.09057 Y-0.18602
G01 X1.09057 Y-0.20768
G01 X1.09003 Y-0.21300
G01 X1.08818 Y-0.21889
G01 X1.08530 Y-0.22389
G01 X1.08144 Y-0.22817
G01 X1.07713 Y-0.23133
G01 X1.07151 Y-0.23390
G01 X1.06546 Y-0.23512
G01 X1.06011 Y-0.23510
G01 X1.05487 Y-0.23401
G01 X1.04920 Y-0.23156
G01 X1.04425 Y-0.22788
G01 X1.04068 Y-0.22389
G01 X1.03799 Y-0.21926
G01 X1.03602 Y-0.21341
G01 X1.03542 Y-0.20768
G01 X1.03737 Y-0.20768
G01 X1.03793 Y-0.21300
G01 X1.03951 Y-0.21790
G01 X1.04239 Y-0.22290
G01 X1.04585 Y-0.22672
G01 X1.05018 Y-0.22987
G01 X1.05507 Y-0.23205
G01 X1.06011 Y-0.23313
G01 X1.06567 Y-0.23316
G01 X1.07110 Y-0.23197
G01 X1.07580 Y-0.22987
G01 X1.07997 Y-0.22685
G01 X1.08372 Y-0.22274
G01 X1.08647 Y-0.21790
G01 X1.08805 Y-0.21300
G01 X1.08860 Y-0.20789
G01 X1.08861 Y-0.18602
G01 X1.08805 Y-0.18070
G01 X1.08640 Y-0.17560
G01 X1.08359 Y-0.17080
G01 X1.08014 Y-0.16698
G01 X1.07598 Y-0.16395
G01 X1.07091 Y-0.16165
G01 X1.06546 Y-0.16053
G01 X1.06031 Y-0.16054
G01 X1.05507 Y-0.16165
G01 X1.05018 Y-0.16383
G01 X1.04601 Y-0.16685
G01 X1.04226 Y-0.17096
G01 X1.03958 Y-0.17560
G01 X1.03790 Y-0.18090
G01 X1.03737 Y-0.18602
G01 X1.03737 Y-0.20768
G04 P0 ( dwell for no time -- G64 should not smooth over this point )
G00 Z0.01181 ( retract )

G00 X1.22607 Y-0.22334 ( rapid move to begin. )
G01 F12.59843
( Mill infeed pass 1/1 )
G01 Z-0.00200
G04 P0 ( dwell for no time -- G64 should not smooth over this point )
G01 F31.49606
G01 X1.22607 Y-0.22334
G01 X1.22607 Y-0.17036
G01 X1.22646 Y-0.16657
G01 X1.22851 Y-0.16039
G01 X1.23192 Y-0.15486
G01 X1.23651 Y-0.15026
G01 X1.24204 Y-0.14684
G01 X1.24821 Y-0.14478
G01 X1.25205 Y-0.14438
G01 X1.28338 Y-0.14438
G01 X1.28717 Y-0.14477
G01 X1.29335 Y-0.14682
G01 X1.29888 Y-0.15023
G01 X1.30349 Y-0.15482
G01 X1.30528 Y-0.15759
G01 X1.30784 Y-0.15947
G01 X1.30890 Y-0.15984
G01 X1.31170 Y-0.15998
G01 X1.31279 Y-0.15971
G01 X1.31545 Y-0.15816
G01 X1.31912 Y-0.15436
G01 X1.32560 Y-0.14976
G01 X1.33284 Y-0.14647
G01 X1.34056 Y-0.14461
G01 X1.34850 Y-0.14424
G01 X1.35636 Y-0.14538
G01 X1.36407 Y-0.14810
G01 X1.37075 Y-0.15197
G01 X1.37658 Y-0.15702
G01 X1.38166 Y-0.16343
G01 X1.38529 Y-0.17049
G01 X1.38753 Y-0.17811
G01 X1.38810 Y-0.18404
G01 X1.38810 Y-0.21155
G01 X1.38656 Y-0.21956
G01 X1.38359 Y-0.22693
G01 X1.37928 Y-0.23360
G01 X1.37379 Y-0.23934
G01 X1.36731 Y-0.24394
G01 X1.36007 Y-0.24723
G01 X1.35235 Y-0.24909
G01 X1.34441 Y-0.24946
G01 X1.33655 Y-0.24832
G01 X1.32904 Y-0.24571
G01 X1.32216 Y-0.24173
G01 X1.31611 Y-0.23647
G01 X1.31479 Y-0.23515
G01 X1.31197 Y-0.23391
G01 X1.31123 Y-0.23374
G01 X1.30810 Y-0.23422
G01 X1.30708 Y-0.23470
G01 X1.30480 Y-0.23678
G01 X1.30351 Y-0.23884
G01 X1.29892 Y-0.24344
G01 X1.29339 Y-0.24686
G01 X1.28722 Y-0.24892
G01 X1.28338 Y-0.24932
G01 X1.25205 Y-0.24932
G01 X1.24826 Y-0.24893
G01 X1.24208 Y-0.24688
G01 X1.23655 Y-0.24347
G01 X1.23195 Y-0.23888
G01 X1.22853 Y-0.23336
G01 X1.22647 Y-0.22718
G01 X1.22607 Y-0.22334
G01 X1.22802 Y-0.22323
G01 X1.22802 Y-0.17046
G01 X1.22837 Y-0.16698
G01 X1.23028 Y-0.16121
G01 X1.23345 Y-0.15607
G01 X1.23772 Y-0.15179
G01 X1.24287 Y-0.14861
G01 X1.24862 Y-0.14667
G01 X1.25216 Y-0.14633
G01 X1.28328 Y-0.14633
G01 X1.28676 Y-0.14666
G01 X1.29252 Y-0.14859
G01 X1.29767 Y-0.15176
G01 X1.30195 Y-0.15605
G01 X1.30386 Y-0.15893
G01 X1.30671 Y-0.16106
G01 X1.30807 Y-0.16168
G01 X1.31160 Y-0.16193
G01 X1.31308 Y-0.16172
G01 X1.31666 Y-0.15970
G01 X1.32040 Y-0.15584
G01 X1.32658 Y-0.15145
G01 X1.33347 Y-0.14832
G01 X1.34084 Y-0.14654
G01 X1.34840 Y-0.14620
G01 X1.35589 Y-0.14729
G01 X1.36325 Y-0.14988
G01 X1.36961 Y-0.15356
G01 X1.37516 Y-0.15838
G01 X1.38001 Y-0.16449
G01 X1.38347 Y-0.17122
G01 X1.38561 Y-0.17848
G01 X1.38614 Y-0.18413
G01 X1.38614 Y-0.21136
G01 X1.38468 Y-0.21901
G01 X1.38185 Y-0.22602
G01 X1.37774 Y-0.23239
G01 X1.37251 Y-0.23786
G01 X1.36633 Y-0.24224
G01 X1.35944 Y-0.24537
G01 X1.35207 Y-0.24715
G01 X1.34451 Y-0.24751
G01 X1.33701 Y-0.24642
G01 X1.32986 Y-0.24394
G01 X1.32330 Y-0.24014
G01 X1.31580 Y-0.23348
G01 X1.31275 Y-0.23212
G01 X1.31129 Y-0.23179
G01 X1.30778 Y-0.23229
G01 X1.30638 Y-0.23281
G01 X1.30330 Y-0.23553
G01 X1.30197 Y-0.23762
G01 X1.29771 Y-0.24191
G01 X1.29257 Y-0.24509
G01 X1.28681 Y-0.24702
G01 X1.28327 Y-0.24737
G01 X1.25215 Y-0.24737
G01 X1.24867 Y-0.24702
G01 X1.24291 Y-0.24511
G01 X1.23776 Y-0.24194
G01 X1.23348 Y-0.23767
G01 X1.23030 Y-0.23253
G01 X1.22838 Y-0.22677
G01 X1.22802 Y-0.22323
G01 X1.22998 Y-0.22313
G01 X1.22998 Y-0.17056
G01 X1.23029 Y-0.16739
G01 X1.23206 Y-0.16204
G01 X1.23500 Y-0.15729
G01 X1.23894 Y-0.15333
G01 X1.24370 Y-0.15039
G01 X1.24904 Y-0.14861
G01 X1.25226 Y-0.14828
G01 X1.28318 Y-0.14829
G01 X1.28635 Y-0.14859
G01 X1.29170 Y-0.15037
G01 X1.29645 Y-0.15330
G01 X1.30042 Y-0.15728
G01 X1.30244 Y-0.16027
G01 X1.30557 Y-0.16264
G01 X1.30654 Y-0.16321
G01 X1.30760 Y-0.16358
G01 X1.31150 Y-0.16388
G01 X1.31262 Y-0.16383
G01 X1.31371 Y-0.16356
G01 X1.31716 Y-0.16171
G01 X1.31849 Y-0.16067
G01 X1.32168 Y-0.15732
G01 X1.32755 Y-0.15315
G01 X1.33411 Y-0.15017
G01 X1.34111 Y-0.14848
G01 X1.34831 Y-0.14816
G01 X1.35542 Y-0.14919
G01 X1.36243 Y-0.15166
G01 X1.36847 Y-0.15516
G01 X1.37374 Y-0.15973
G01 X1.37836 Y-0.16556
G01 X1.38165 Y-0.17194
G01 X1.38368 Y-0.17885
G01 X1.38419 Y-0.18422
G01 X1.38419 Y-0.21118
G01 X1.38280 Y-0.21845
G01 X1.38011 Y-0.22512
G01 X1.37620 Y-0.23117
G01 X1.37122 Y-0.23637
G01 X1.36535 Y-0.24054
G01 X1.35880 Y-0.24352
G01 X1.35180 Y-0.24521
G01 X1.34460 Y-0.24555
G01 X1.33747 Y-0.24452
G01 X1.33067 Y-0.24215
G01 X1.32444 Y-0.23855
G01 X1.31682 Y-0.23182
G01 X1.31353 Y-0.23033
G01 X1.31246 Y-0.22998
G01 X1.31135 Y-0.22984
G01 X1.30747 Y-0.23036
G01 X1.30638 Y-0.23065
G01 X1.30537 Y-0.23113
G01 X1.30181 Y-0.23428
G01 X1.30042 Y-0.23641
G01 X1.29649 Y-0.24037
G01 X1.29173 Y-0.24331
G01 X1.28639 Y-0.24509
G01 X1.28317 Y-0.24541
G01 X1.25225 Y-0.24541
G01 X1.24908 Y-0.24511
G01 X1.24374 Y-0.24333
G01 X1.23898 Y-0.24039
G01 X1.23502 Y-0.23645
G01 X1.23208 Y-0.23169
G01 X1.23030 Y-0.22635
G01 X1.22998 Y-0.22313
G01 X1.23193 Y-0.22303
G01 X1.23193 Y-0.17066
G01 X1.23221 Y-0.16780
G01 X1.23385 Y-0.16287
G01 X1.23654 Y-0.15850
G01 X1.24017 Y-0.15487
G01 X1.24453 Y-0.15217
G01 X1.24945 Y-0.15053
G01 X1.25236 Y-0.15024
G01 X1.28308 Y-0.15024
G01 X1.28594 Y-0.15051
G01 X1.29086 Y-0.15215
G01 X1.29524 Y-0.15484
G01 X1.29889 Y-0.15851
G01 X1.30102 Y-0.16161
G01 X1.30443 Y-0.16423
G01 X1.30573 Y-0.16498
G01 X1.30714 Y-0.16547
G01 X1.31140 Y-0.16583
G01 X1.31290 Y-0.16576
G01 X1.31435 Y-0.16541
G01 X1.31814 Y-0.16340
G01 X1.31990 Y-0.16202
G01 X1.32296 Y-0.15881
G01 X1.32853 Y-0.15485
G01 X1.33475 Y-0.15202
G01 X1.34139 Y-0.15043
G01 X1.34821 Y-0.15012
G01 X1.35495 Y-0.15110
G01 X1.36161 Y-0.15345
G01 X1.36733 Y-0.15676
G01 X1.37233 Y-0.16109
G01 X1.37671 Y-0.16662
G01 X1.37983 Y-0.17267
G01 X1.38175 Y-0.17922
G01 X1.38224 Y-0.18432
G01 X1.38224 Y-0.21099
G01 X1.38092 Y-0.21790
G01 X1.37837 Y-0.22422
G01 X1.37467 Y-0.22995
G01 X1.36994 Y-0.23489
G01 X1.36437 Y-0.23884
G01 X1.35816 Y-0.24166
G01 X1.35152 Y-0.24327
G01 X1.34470 Y-0.24359
G01 X1.33794 Y-0.24261
G01 X1.33149 Y-0.24037
G01 X1.32558 Y-0.23695
G01 X1.32020 Y-0.23227
G01 X1.31874 Y-0.23079
G01 X1.31784 Y-0.23015
G01 X1.31431 Y-0.22853
G01 X1.31289 Y-0.22807
G01 X1.31140 Y-0.22789
G01 X1.30716 Y-0.22843
G01 X1.30571 Y-0.22881
G01 X1.30436 Y-0.22946
G01 X1.30108 Y-0.23222
G01 X1.30031 Y-0.23303
G01 X1.29888 Y-0.23519
G01 X1.29527 Y-0.23883
G01 X1.29090 Y-0.24153
G01 X1.28598 Y-0.24317
G01 X1.28307 Y-0.24346
G01 X1.25235 Y-0.24346
G01 X1.24949 Y-0.24319
G01 X1.24457 Y-0.24155
G01 X1.24020 Y-0.23885
G01 X1.23656 Y-0.23522
G01 X1.23386 Y-0.23086
G01 X1.23222 Y-0.22594
G01 X1.23193 Y-0.22303
G01 X1.23316 Y-0.22297
G01 X1.23316 Y-0.17067
G01 X1.23346 Y-0.16799
G01 X1.23503 Y-0.16333
G01 X1.23748 Y-0.15936
G01 X1.23919 Y-0.15755
G01 X1.24103 Y-0.15584
G01 X1.24514 Y-0.15330
G01 X1.24968 Y-0.15181
G01 X1.25226 Y-0.15144
G01 X1.28298 Y-0.15145
G01 X1.28473 Y-0.15162
G01 X1.28688 Y-0.15212
G01 X1.29026 Y-0.15329
G01 X1.29438 Y-0.15580
G01 X1.29784 Y-0.15924
G01 X1.30156 Y-0.16458
G01 X1.30330 Y-0.16582
G01 X1.30491 Y-0.16676
G01 X1.30667 Y-0.16737
G01 X1.30852 Y-0.16764
G01 X1.31131 Y-0.16778
G01 X1.31317 Y-0.16769
G01 X1.31499 Y-0.16726
G01 X1.31731 Y-0.16612
G01 X1.32081 Y-0.16287
G01 X1.32386 Y-0.15972
G01 X1.32818 Y-0.15662
G01 X1.33012 Y-0.15548
G01 X1.33465 Y-0.15345
G01 X1.33681 Y-0.15279
G01 X1.34176 Y-0.15168
G01 X1.34396 Y-0.15152
G01 X1.34899 Y-0.15149
G01 X1.35467 Y-0.15237
G01 X1.35814 Y-0.15348
G01 X1.36109 Y-0.15466
G01 X1.36280 Y-0.15551
G01 X1.36652 Y-0.15781
G01 X1.36881 Y-0.15961
G01 X1.37136 Y-0.16197
G01 X1.37380 Y-0.16483
G01 X1.37560 Y-0.16731
G01 X1.37866 Y-0.17323
G01 X1.38053 Y-0.17954
G01 X1.38101 Y-0.18437
G01 X1.38106 Y-0.20768
G01 X1.38092 Y-0.21092
G01 X1.38049 Y-0.21383
G01 X1.37966 Y-0.21749
G01 X1.37763 Y-0.22275
G01 X1.37509 Y-0.22709
G01 X1.37387 Y-0.22887
G01 X1.37044 Y-0.23262
G01 X1.36905 Y-0.23397
G01 X1.36368 Y-0.23778
G01 X1.35768 Y-0.24049
G01 X1.35142 Y-0.24197
G01 X1.34483 Y-0.24228
G01 X1.34173 Y-0.24194
G01 X1.33822 Y-0.24132
G01 X1.33681 Y-0.24091
G01 X1.33200 Y-0.23914
G01 X1.32826 Y-0.23710
G01 X1.32631 Y-0.23584
G01 X1.32250 Y-0.23265
G01 X1.31747 Y-0.22778
G01 X1.31508 Y-0.22674
G01 X1.31331 Y-0.22617
G01 X1.31146 Y-0.22593
G01 X1.30960 Y-0.22606
G01 X1.30684 Y-0.22651
G01 X1.30504 Y-0.22698
G01 X1.30336 Y-0.22779
G01 X1.30159 Y-0.22914
G01 X1.29783 Y-0.23446
G01 X1.29450 Y-0.23780
G01 X1.29029 Y-0.24040
G01 X1.28575 Y-0.24189
G01 X1.28255 Y-0.24226
G01 X1.25244 Y-0.24225
G01 X1.24981 Y-0.24196
G01 X1.24517 Y-0.24040
G01 X1.24261 Y-0.23895
G01 X1.24097 Y-0.23782
G01 X1.23760 Y-0.23450
G01 X1.23496 Y-0.23025
G01 X1.23345 Y-0.22559
G01 X1.23316 Y-0.22297
G01 X1.23506 Y-0.22144
G01 X1.23511 Y-0.17085
G01 X1.23537 Y-0.16847
G01 X1.23677 Y-0.16424
G01 X1.23908 Y-0.16051
G01 X1.24059 Y-0.15891
G01 X1.24217 Y-0.15743
G01 X1.24590 Y-0.15512
G01 X1.25014 Y-0.15371
G01 X1.25252 Y-0.15340
G01 X1.28254 Y-0.15339
G01 X1.28526 Y-0.15370
G01 X1.28950 Y-0.15510
G01 X1.29324 Y-0.15740
G01 X1.29636 Y-0.16052
G01 X1.29999 Y-0.16573
G01 X1.30072 Y-0.16816
G01 X1.30115 Y-0.17224
G01 X1.30115 Y-0.22146
G01 X1.30088 Y-0.22453
G01 X1.30072 Y-0.22554
G01 X1.29995 Y-0.22807
G01 X1.29636 Y-0.23318
G01 X1.29335 Y-0.23620
G01 X1.28953 Y-0.23858
G01 X1.28529 Y-0.23999
G01 X1.28290 Y-0.24030
G01 X1.25343 Y-0.24033
G01 X1.25095 Y-0.24012
G01 X1.24909 Y-0.23970
G01 X1.24593 Y-0.23860
G01 X1.24364 Y-0.23727
G01 X1.24208 Y-0.23620
G01 X1.23919 Y-0.23331
G01 X1.23679 Y-0.22949
G01 X1.23538 Y-0.22526
G01 X1.23506 Y-0.22144
G01 X1.23624 Y-0.22146
G01 X1.23628 Y-0.17142
G01 X1.23662 Y-0.16856
G01 X1.23747 Y-0.16581
G01 X1.23814 Y-0.16431
G01 X1.23962 Y-0.16184
G01 X1.24209 Y-0.15909
G01 X1.24509 Y-0.15691
G01 X1.24847 Y-0.15541
G01 X1.25127 Y-0.15477
G01 X1.25395 Y-0.15454
G01 X1.28254 Y-0.15460
G01 X1.28617 Y-0.15520
G01 X1.28773 Y-0.15570
G01 X1.29035 Y-0.15691
G01 X1.29334 Y-0.15909
G01 X1.29581 Y-0.16184
G01 X1.29729 Y-0.16431
G01 X1.29796 Y-0.16581
G01 X1.29881 Y-0.16856
G01 X1.29920 Y-0.17224
G01 X1.29920 Y-0.22146
G01 X1.29894 Y-0.22432
G01 X1.29860 Y-0.22593
G01 X1.29767 Y-0.22866
G01 X1.29626 Y-0.23117
G01 X1.29530 Y-0.23250
G01 X1.29334 Y-0.23461
G01 X1.29035 Y-0.23678
G01 X1.28696 Y-0.23829
G01 X1.28416 Y-0.23893
G01 X1.28254 Y-0.23910
G01 X1.25250 Y-0.23909
G01 X1.24926 Y-0.23850
G01 X1.24770 Y-0.23800
G01 X1.24509 Y-0.23678
G01 X1.24209 Y-0.23461
G01 X1.23962 Y-0.23186
G01 X1.23814 Y-0.22939
G01 X1.23747 Y-0.22789
G01 X1.23662 Y-0.22514
G01 X1.23624 Y-0.22146
G01 X1.23819 Y-0.22146
G01 X1.23822 Y-0.17163
G01 X1.23853 Y-0.16897
G01 X1.23933 Y-0.16642
G01 X1.24120 Y-0.16299
G01 X1.24340 Y-0.16054
G01 X1.24606 Y-0.15861
G01 X1.24907 Y-0.15727
G01 X1.25168 Y-0.15668
G01 X1.25395 Y-0.15650
G01 X1.28254 Y-0.15655
G01 X1.28375 Y-0.15668
G01 X1.28636 Y-0.15727
G01 X1.28882 Y-0.15832
G01 X1.29203 Y-0.16054
G01 X1.29424 Y-0.16299
G01 X1.29560 Y-0.16529
G01 X1.29610 Y-0.16642
G01 X1.29700 Y-0.16958
G01 X1.29724 Y-0.17224
G01 X1.29724 Y-0.22146
G01 X1.29674 Y-0.22533
G01 X1.29588 Y-0.22786
G01 X1.29457 Y-0.23019
G01 X1.29203 Y-0.23316
G01 X1.28937 Y-0.23509
G01 X1.28636 Y-0.23643
G01 X1.28375 Y-0.23702
G01 X1.28254 Y-0.23715
G01 X1.25260 Y-0.23714
G01 X1.24967 Y-0.23659
G01 X1.24849 Y-0.23621
G01 X1.24606 Y-0.23509
G01 X1.24340 Y-0.23316
G01 X1.24120 Y-0.23071
G01 X1.23983 Y-0.22841
G01 X1.23933 Y-0.22728
G01 X1.23844 Y-0.22412
G01 X1.23819 Y-0.22146
G01 X1.24014 Y-0.22146
G01 X1.24016 Y-0.17183
G01 X1.24044 Y-0.16937
G01 X1.24119 Y-0.16702
G01 X1.24278 Y-0.16414
G01 X1.24471 Y-0.16199
G01 X1.24704 Y-0.16030
G01 X1.24967 Y-0.15912
G01 X1.25209 Y-0.15859
G01 X1.25394 Y-0.15845
G01 X1.28335 Y-0.15859
G01 X1.28576 Y-0.15912
G01 X1.28802 Y-0.16011
G01 X1.29073 Y-0.16199
G01 X1.29266 Y-0.16414
G01 X1.29391 Y-0.16626
G01 X1.29505 Y-0.16978
G01 X1.29529 Y-0.17224
G01 X1.29529 Y-0.22146
G01 X1.29488 Y-0.22472
G01 X1.29410 Y-0.22707
G01 X1.29266 Y-0.22956
G01 X1.29073 Y-0.23171
G01 X1.28839 Y-0.23340
G01 X1.28576 Y-0.23458
G01 X1.28294 Y-0.23517
G01 X1.25270 Y-0.23519
G01 X1.24929 Y-0.23443
G01 X1.24704 Y-0.23340
G01 X1.24471 Y-0.23171
G01 X1.24278 Y-0.22956
G01 X1.24152 Y-0.22744
G01 X1.24038 Y-0.22392
G01 X1.24014 Y-0.22146
G01 X1.24209 Y-0.22146
G01 X1.24235 Y-0.22392
G01 X1.24312 Y-0.22627
G01 X1.24436 Y-0.22842
G01 X1.24586 Y-0.23011
G01 X1.24820 Y-0.23181
G01 X1.25028 Y-0.23272
G01 X1.25280 Y-0.23324
G01 X1.28273 Y-0.23323
G01 X1.28516 Y-0.23272
G01 X1.28742 Y-0.23171
G01 X1.28942 Y-0.23026
G01 X1.29108 Y-0.22842
G01 X1.29231 Y-0.22627
G01 X1.29303 Y-0.22412
G01 X1.29334 Y-0.22146
G01 X1.29334 Y-0.17224
G01 X1.29311 Y-0.16999
G01 X1.29222 Y-0.16724
G01 X1.29108 Y-0.16528
G01 X1.28942 Y-0.16344
G01 X1.28742 Y-0.16199
G01 X1.28535 Y-0.16106
G01 X1.28273 Y-0.16047
G01 X1.25280 Y-0.16046
G01 X1.25028 Y-0.16098
G01 X1.24802 Y-0.16199
G01 X1.24601 Y-0.16344
G01 X1.24436 Y-0.16528
G01 X1.24312 Y-0.16743
G01 X1.24241 Y-0.16958
G01 X1.24209 Y-0.17224
G01 X1.24209 Y-0.22146
G04 P0 ( dwell for no time -- G64 should not smooth over this point )
G00 Z0.01181 ( retract )

G00 X1.31302 Y-0.20768 ( rapid move to begin. )
G01 F12.59843
( Mill infeed pass 1/1 )
G01 Z-0.00200
G04 P0 ( dwell for no time -- G64 should not smooth over this point )
G01 F31.49606
G01 X1.31302 Y-0.20768
G01 X1.31302 Y-0.18602
G01 X1.31375 Y-0.17907
G01 X1.31591 Y-0.17242
G01 X1.31869 Y-0.16750
G01 X1.32218 Y-0.16426
G01 X1.32507 Y-0.16126
G01 X1.33014 Y-0.15765
G01 X1.33581 Y-0.15508
G01 X1.34188 Y-0.15364
G01 X1.34808 Y-0.15338
G01 X1.35086 Y-0.15368
G01 X1.35418 Y-0.15428
G01 X1.35749 Y-0.15532
G01 X1.36024 Y-0.15642
G01 X1.36366 Y-0.15828
G01 X1.36542 Y-0.15943
G01 X1.36753 Y-0.16110
G01 X1.36996 Y-0.16334
G01 X1.37349 Y-0.16768
G01 X1.37586 Y-0.17184
G01 X1.37681 Y-0.17385
G01 X1.37859 Y-0.17983
G01 X1.37911 Y-0.18604
G01 X1.37908 Y-0.20869
G01 X1.37898 Y-0.21068
G01 X1.37816 Y-0.21547
G01 X1.37778 Y-0.21696
G01 X1.37586 Y-0.22191
G01 X1.37227 Y-0.22774
G01 X1.36784 Y-0.23244
G01 X1.36362 Y-0.23547
G01 X1.36195 Y-0.23644
G01 X1.35710 Y-0.23862
G01 X1.35103 Y-0.24006
G01 X1.34484 Y-0.24032
G01 X1.34205 Y-0.24001
G01 X1.33736 Y-0.23904
G01 X1.33285 Y-0.23738
G01 X1.32926 Y-0.23542
G01 X1.32749 Y-0.23427
G01 X1.32385 Y-0.23124
G01 X1.31876 Y-0.22632
G01 X1.31591 Y-0.22127
G01 X1.31402 Y-0.21562
G01 X1.31359 Y-0.21361
G01 X1.31308 Y-0.20870
G01 X1.31302 Y-0.20768
G01 X1.31498 Y-0.20768
G01 X1.31498 Y-0.18602
G01 X1.31566 Y-0.17948
G01 X1.31740 Y-0.17399
G01 X1.31807 Y-0.17249
G01 X1.32099 Y-0.16752
G01 X1.32481 Y-0.16321
G01 X1.32603 Y-0.16211
G01 X1.33003 Y-0.15921
G01 X1.33145 Y-0.15839
G01 X1.33673 Y-0.15608
G01 X1.34317 Y-0.15472
G01 X1.34975 Y-0.15472
G01 X1.35539 Y-0.15587
G01 X1.35695 Y-0.15638
G01 X1.36220 Y-0.15876
G01 X1.36752 Y-0.16263
G01 X1.37192 Y-0.16752
G01 X1.37521 Y-0.17322
G01 X1.37704 Y-0.17868
G01 X1.37738 Y-0.18029
G01 X1.37794 Y-0.18602
G01 X1.37794 Y-0.20768
G01 X1.37738 Y-0.21341
G01 X1.37704 Y-0.21502
G01 X1.37521 Y-0.22048
G01 X1.37237 Y-0.22549
G01 X1.37141 Y-0.22682
G01 X1.36752 Y-0.23107
G01 X1.36289 Y-0.23449
G01 X1.36146 Y-0.23531
G01 X1.35618 Y-0.23762
G01 X1.35056 Y-0.23886
G01 X1.34892 Y-0.23903
G01 X1.34317 Y-0.23898
G01 X1.33752 Y-0.23783
G01 X1.33596 Y-0.23732
G01 X1.33072 Y-0.23494
G01 X1.32603 Y-0.23159
G01 X1.32481 Y-0.23049
G01 X1.32099 Y-0.22618
G01 X1.31807 Y-0.22121
G01 X1.31740 Y-0.21971
G01 X1.31566 Y-0.21422
G01 X1.31498 Y-0.20768
G01 X1.31693 Y-0.20768
G01 X1.31693 Y-0.18602
G01 X1.31748 Y-0.18049
G01 X1.31773 Y-0.17929
G01 X1.31948 Y-0.17401
G01 X1.32257 Y-0.16867
G01 X1.32670 Y-0.16408
G01 X1.33117 Y-0.16079
G01 X1.33224 Y-0.16017
G01 X1.33733 Y-0.15794
G01 X1.34276 Y-0.15675
G01 X1.34399 Y-0.15662
G01 X1.34954 Y-0.15666
G01 X1.35558 Y-0.15794
G01 X1.36122 Y-0.16045
G01 X1.36573 Y-0.16369
G01 X1.36665 Y-0.16452
G01 X1.37034 Y-0.16867
G01 X1.37315 Y-0.17346
G01 X1.37365 Y-0.17459
G01 X1.37534 Y-0.17988
G01 X1.37598 Y-0.18602
G01 X1.37598 Y-0.20768
G01 X1.37543 Y-0.21321
G01 X1.37518 Y-0.21441
G01 X1.37343 Y-0.21969
G01 X1.37034 Y-0.22503
G01 X1.36665 Y-0.22918
G01 X1.36573 Y-0.23001
G01 X1.36122 Y-0.23325
G01 X1.35558 Y-0.23576
G01 X1.35015 Y-0.23694
G01 X1.34892 Y-0.23707
G01 X1.34337 Y-0.23704
G01 X1.33793 Y-0.23592
G01 X1.33675 Y-0.23554
G01 X1.33169 Y-0.23325
G01 X1.32718 Y-0.23001
G01 X1.32626 Y-0.22918
G01 X1.32257 Y-0.22503
G01 X1.31976 Y-0.22024
G01 X1.31926 Y-0.21911
G01 X1.31757 Y-0.21382
G01 X1.31693 Y-0.20768
G01 X1.31888 Y-0.20768
G01 X1.31888 Y-0.18602
G01 X1.31942 Y-0.18070
G01 X1.32127 Y-0.17481
G01 X1.32415 Y-0.16981
G01 X1.32801 Y-0.16553
G01 X1.33232 Y-0.16237
G01 X1.33794 Y-0.15980
G01 X1.34399 Y-0.15858
G01 X1.34934 Y-0.15860
G01 X1.35498 Y-0.15980
G01 X1.36024 Y-0.16214
G01 X1.36520 Y-0.16582
G01 X1.36877 Y-0.16981
G01 X1.37146 Y-0.17444
G01 X1.37343 Y-0.18029
G01 X1.37403 Y-0.18602
G01 X1.37403 Y-0.20768
G01 X1.37349 Y-0.21300
G01 X1.37165 Y-0.21889
G01 X1.36877 Y-0.22389
G01 X1.36459 Y-0.22843
G01 X1.36024 Y-0.23156
G01 X1.35498 Y-0.23390
G01 X1.34892 Y-0.23512
G01 X1.34357 Y-0.23510
G01 X1.33834 Y-0.23401
G01 X1.33267 Y-0.23156
G01 X1.32771 Y-0.22788
G01 X1.32415 Y-0.22389
G01 X1.32145 Y-0.21926
G01 X1.31948 Y-0.21341
G01 X1.31888 Y-0.20768
G01 X1.32083 Y-0.20768
G01 X1.32139 Y-0.21300
G01 X1.32297 Y-0.21790
G01 X1.32586 Y-0.22290
G01 X1.32931 Y-0.22672
G01 X1.33364 Y-0.22987
G01 X1.33854 Y-0.23205
G01 X1.34357 Y-0.23313
G01 X1.34913 Y-0.23316
G01 X1.35457 Y-0.23197
G01 X1.35927 Y-0.22987
G01 X1.36344 Y-0.22685
G01 X1.36719 Y-0.22274
G01 X1.36994 Y-0.21790
G01 X1.37152 Y-0.21300
G01 X1.37207 Y-0.20789
G01 X1.37208 Y-0.18602
G01 X1.37152 Y-0.18070
G01 X1.36977 Y-0.17541
G01 X1.36719 Y-0.17096
G01 X1.36375 Y-0.16713
G01 X1.35927 Y-0.16383
G01 X1.35437 Y-0.16165
G01 X1.34892 Y-0.16053
G01 X1.34378 Y-0.16054
G01 X1.33854 Y-0.16165
G01 X1.33364 Y-0.16383
G01 X1.32947 Y-0.16685
G01 X1.32573 Y-0.17096
G01 X1.32305 Y-0.17560
G01 X1.32136 Y-0.18090
G01 X1.32083 Y-0.18602
G01 X1.32083 Y-0.20768
G04 P0 ( dwell for no time -- G64 should not smooth over this point )
G00 Z0.01181 ( retract )

G00 X1.52332 Y-0.22365 ( rapid move to begin. )
G01 F12.59843
( Mill infeed pass 1/1 )
G01 Z-0.00200
G04 P0 ( dwell for no time -- G64 should not smooth over this point )
G01 F31.49606
G01 X1.52332 Y-0.22365
G01 X1.52336 Y-0.20674
G01 X1.52492 Y-0.19815
G01 X1.52790 Y-0.18994
G01 X1.53222 Y-0.18235
G01 X1.53776 Y-0.17559
G01 X1.54436 Y-0.16986
G01 X1.54792 Y-0.16770
G01 X1.55183 Y-0.16533
G01 X1.55995 Y-0.16212
G01 X1.56851 Y-0.16033
G01 X1.57724 Y-0.16000
G01 X1.58590 Y-0.16115
G01 X1.59424 Y-0.16374
G01 X1.60203 Y-0.16770
G01 X1.60904 Y-0.17292
G01 X1.61507 Y-0.17924
G01 X1.61820 Y-0.18388
G01 X1.61947 Y-0.18528
G01 X1.62020 Y-0.18577
G01 X1.62280 Y-0.18680
G01 X1.62354 Y-0.18694
G01 X1.62666 Y-0.18635
G01 X1.62766 Y-0.18583
G01 X1.62986 Y-0.18368
G01 X1.63064 Y-0.18235
G01 X1.63618 Y-0.17559
G01 X1.64278 Y-0.16986
G01 X1.65025 Y-0.16533
G01 X1.65838 Y-0.16212
G01 X1.66693 Y-0.16033
G01 X1.67566 Y-0.16000
G01 X1.68432 Y-0.16115
G01 X1.69267 Y-0.16374
G01 X1.70046 Y-0.16770
G01 X1.70747 Y-0.17292
G01 X1.71350 Y-0.17924
G01 X1.71662 Y-0.18388
G01 X1.71811 Y-0.18548
G01 X1.72123 Y-0.18680
G01 X1.72197 Y-0.18694
G01 X1.72509 Y-0.18635
G01 X1.72609 Y-0.18583
G01 X1.72829 Y-0.18368
G01 X1.72907 Y-0.18235
G01 X1.73461 Y-0.17559
G01 X1.74121 Y-0.16986
G01 X1.74868 Y-0.16533
G01 X1.75680 Y-0.16212
G01 X1.76536 Y-0.16033
G01 X1.77409 Y-0.16000
G01 X1.78275 Y-0.16115
G01 X1.79109 Y-0.16374
G01 X1.79888 Y-0.16770
G01 X1.80589 Y-0.17292
G01 X1.81068 Y-0.17786
G01 X1.81369 Y-0.17924
G01 X1.81443 Y-0.17941
G01 X1.81794 Y-0.17884
G01 X1.81859 Y-0.17845
G01 X1.82066 Y-0.17658
G01 X1.82444 Y-0.17061
G01 X1.82903 Y-0.16601
G01 X1.83456 Y-0.16259
G01 X1.84073 Y-0.16053
G01 X1.84458 Y-0.16013
G01 X1.89558 Y-0.16013
G01 X1.89938 Y-0.16052
G01 X1.90556 Y-0.16257
G01 X1.91108 Y-0.16598
G01 X1.91568 Y-0.17057
G01 X1.91910 Y-0.17609
G01 X1.92116 Y-0.18227
G01 X1.92156 Y-0.18611
G01 X1.92156 Y-0.24696
G01 X1.92117 Y-0.25075
G01 X1.91912 Y-0.25693
G01 X1.91571 Y-0.26246
G01 X1.91112 Y-0.26706
G01 X1.90560 Y-0.27048
G01 X1.89942 Y-0.27254
G01 X1.89558 Y-0.27294
G01 X1.84457 Y-0.27294
G01 X1.84078 Y-0.27255
G01 X1.83460 Y-0.27050
G01 X1.82907 Y-0.26709
G01 X1.82446 Y-0.26249
G01 X1.82028 Y-0.25595
G01 X1.81742 Y-0.25411
G01 X1.81633 Y-0.25382
G01 X1.81354 Y-0.25390
G01 X1.81247 Y-0.25425
G01 X1.80994 Y-0.25600
G01 X1.80870 Y-0.25748
G01 X1.80210 Y-0.26321
G01 X1.79463 Y-0.26774
G01 X1.78650 Y-0.27095
G01 X1.77795 Y-0.27274
G01 X1.76922 Y-0.27307
G01 X1.76056 Y-0.27192
G01 X1.75221 Y-0.26933
G01 X1.74442 Y-0.26537
G01 X1.73741 Y-0.26015
G01 X1.73138 Y-0.25383
G01 X1.72826 Y-0.24919
G01 X1.72677 Y-0.24759
G01 X1.72365 Y-0.24627
G01 X1.72291 Y-0.24613
G01 X1.71979 Y-0.24672
G01 X1.71879 Y-0.24724
G01 X1.71659 Y-0.24939
G01 X1.71581 Y-0.25072
G01 X1.71027 Y-0.25748
G01 X1.70367 Y-0.26321
G01 X1.69620 Y-0.26774
G01 X1.68808 Y-0.27095
G01 X1.67952 Y-0.27274
G01 X1.67079 Y-0.27307
G01 X1.66213 Y-0.27192
G01 X1.65379 Y-0.26933
G01 X1.64600 Y-0.26537
G01 X1.63899 Y-0.26015
G01 X1.63296 Y-0.25383
G01 X1.62983 Y-0.24919
G01 X1.62834 Y-0.24759
G01 X1.62523 Y-0.24627
G01 X1.62449 Y-0.24613
G01 X1.62137 Y-0.24672
G01 X1.62037 Y-0.24724
G01 X1.61817 Y-0.24939
G01 X1.61739 Y-0.25072
G01 X1.61185 Y-0.25748
G01 X1.60525 Y-0.26321
G01 X1.59778 Y-0.26774
G01 X1.58965 Y-0.27095
G01 X1.58183 Y-0.27259
G01 X1.58110 Y-0.27274
G01 X1.57237 Y-0.27307
G01 X1.56371 Y-0.27192
G01 X1.55536 Y-0.26933
G01 X1.54757 Y-0.26537
G01 X1.54056 Y-0.26015
G01 X1.53453 Y-0.25383
G01 X1.52965 Y-0.24658
G01 X1.52607 Y-0.23862
G01 X1.52387 Y-0.23016
G01 X1.52332 Y-0.22365
G01 X1.52527 Y-0.22357
G01 X1.52530 Y-0.20692
G01 X1.52680 Y-0.19866
G01 X1.52967 Y-0.19076
G01 X1.53383 Y-0.18345
G01 X1.53916 Y-0.17695
G01 X1.54551 Y-0.17144
G01 X1.55270 Y-0.16708
G01 X1.56052 Y-0.16399
G01 X1.56874 Y-0.16227
G01 X1.57714 Y-0.16196
G01 X1.58548 Y-0.16306
G01 X1.59350 Y-0.16556
G01 X1.60100 Y-0.16936
G01 X1.60774 Y-0.17438
G01 X1.61354 Y-0.18046
G01 X1.61658 Y-0.18497
G01 X1.61847 Y-0.18701
G01 X1.61948 Y-0.18759
G01 X1.62208 Y-0.18862
G01 X1.62356 Y-0.18889
G01 X1.62776 Y-0.18805
G01 X1.62902 Y-0.18723
G01 X1.63141 Y-0.18487
G01 X1.63226 Y-0.18346
G01 X1.63759 Y-0.17695
G01 X1.64393 Y-0.17144
G01 X1.65112 Y-0.16708
G01 X1.65894 Y-0.16399
G01 X1.66717 Y-0.16227
G01 X1.67557 Y-0.16196
G01 X1.68390 Y-0.16306
G01 X1.69193 Y-0.16556
G01 X1.69942 Y-0.16936
G01 X1.70617 Y-0.17438
G01 X1.71197 Y-0.18046
G01 X1.71500 Y-0.18497
G01 X1.71690 Y-0.18701
G01 X1.71791 Y-0.18759
G01 X1.72051 Y-0.18862
G01 X1.72198 Y-0.18889
G01 X1.72619 Y-0.18805
G01 X1.72744 Y-0.18723
G01 X1.72983 Y-0.18487
G01 X1.73068 Y-0.18346
G01 X1.73601 Y-0.17695
G01 X1.74236 Y-0.17144
G01 X1.74955 Y-0.16708
G01 X1.75737 Y-0.16399
G01 X1.76559 Y-0.16227
G01 X1.77399 Y-0.16196
G01 X1.78233 Y-0.16306
G01 X1.79035 Y-0.16556
G01 X1.79785 Y-0.16936
G01 X1.80460 Y-0.17439
G01 X1.80908 Y-0.17904
G01 X1.80989 Y-0.17969
G01 X1.81292 Y-0.18104
G01 X1.81438 Y-0.18136
G01 X1.81861 Y-0.18067
G01 X1.81989 Y-0.17990
G01 X1.82236 Y-0.17762
G01 X1.82597 Y-0.17182
G01 X1.83024 Y-0.16754
G01 X1.83538 Y-0.16436
G01 X1.84114 Y-0.16242
G01 X1.84468 Y-0.16208
G01 X1.89548 Y-0.16208
G01 X1.89897 Y-0.16241
G01 X1.90473 Y-0.16434
G01 X1.90987 Y-0.16751
G01 X1.91415 Y-0.17178
G01 X1.91734 Y-0.17692
G01 X1.91927 Y-0.18268
G01 X1.91961 Y-0.18621
G01 X1.91961 Y-0.24686
G01 X1.91928 Y-0.25034
G01 X1.91735 Y-0.25611
G01 X1.91418 Y-0.26125
G01 X1.90991 Y-0.26553
G01 X1.90477 Y-0.26871
G01 X1.89901 Y-0.27063
G01 X1.89548 Y-0.27099
G01 X1.84467 Y-0.27099
G01 X1.84119 Y-0.27065
G01 X1.83543 Y-0.26873
G01 X1.83028 Y-0.26556
G01 X1.82599 Y-0.26127
G01 X1.82175 Y-0.25467
G01 X1.82083 Y-0.25389
G01 X1.81843 Y-0.25244
G01 X1.81776 Y-0.25211
G01 X1.81628 Y-0.25187
G01 X1.81274 Y-0.25204
G01 X1.81137 Y-0.25263
G01 X1.80862 Y-0.25456
G01 X1.80729 Y-0.25611
G01 X1.80094 Y-0.26162
G01 X1.79376 Y-0.26598
G01 X1.78594 Y-0.26907
G01 X1.77771 Y-0.27080
G01 X1.76931 Y-0.27112
G01 X1.76098 Y-0.27001
G01 X1.75295 Y-0.26752
G01 X1.74545 Y-0.26371
G01 X1.73871 Y-0.25869
G01 X1.73291 Y-0.25261
G01 X1.72988 Y-0.24810
G01 X1.72798 Y-0.24606
G01 X1.72697 Y-0.24548
G01 X1.72437 Y-0.24445
G01 X1.72290 Y-0.24418
G01 X1.71941 Y-0.24480
G01 X1.71802 Y-0.24537
G01 X1.71505 Y-0.24819
G01 X1.71420 Y-0.24961
G01 X1.70887 Y-0.25611
G01 X1.70252 Y-0.26162
G01 X1.69533 Y-0.26598
G01 X1.68751 Y-0.26907
G01 X1.67929 Y-0.27080
G01 X1.67088 Y-0.27112
G01 X1.66255 Y-0.27001
G01 X1.65452 Y-0.26752
G01 X1.64703 Y-0.26371
G01 X1.64028 Y-0.25869
G01 X1.63448 Y-0.25261
G01 X1.63145 Y-0.24810
G01 X1.62956 Y-0.24606
G01 X1.62854 Y-0.24548
G01 X1.62594 Y-0.24445
G01 X1.62447 Y-0.24418
G01 X1.62099 Y-0.24480
G01 X1.61960 Y-0.24537
G01 X1.61662 Y-0.24819
G01 X1.61577 Y-0.24961
G01 X1.61044 Y-0.25611
G01 X1.60409 Y-0.26162
G01 X1.59691 Y-0.26598
G01 X1.58909 Y-0.26907
G01 X1.58086 Y-0.27080
G01 X1.57246 Y-0.27112
G01 X1.56413 Y-0.27001
G01 X1.55610 Y-0.26752
G01 X1.54860 Y-0.26371
G01 X1.54186 Y-0.25869
G01 X1.53605 Y-0.25261
G01 X1.53136 Y-0.24564
G01 X1.52791 Y-0.23797
G01 X1.52579 Y-0.22983
G01 X1.52527 Y-0.22357
G01 X1.52722 Y-0.22349
G01 X1.52726 Y-0.20710
G01 X1.52869 Y-0.19917
G01 X1.53145 Y-0.19158
G01 X1.53544 Y-0.18456
G01 X1.54056 Y-0.17832
G01 X1.54666 Y-0.17303
G01 X1.55357 Y-0.16884
G01 X1.56108 Y-0.16587
G01 X1.56898 Y-0.16421
G01 X1.57705 Y-0.16392
G01 X1.58506 Y-0.16498
G01 X1.59277 Y-0.16737
G01 X1.59997 Y-0.17103
G01 X1.60644 Y-0.17585
G01 X1.61202 Y-0.18169
G01 X1.61496 Y-0.18606
G01 X1.61726 Y-0.18854
G01 X1.61877 Y-0.18941
G01 X1.62137 Y-0.19043
G01 X1.62245 Y-0.19074
G01 X1.62357 Y-0.19084
G01 X1.62743 Y-0.19018
G01 X1.62850 Y-0.18986
G01 X1.62950 Y-0.18934
G01 X1.63037 Y-0.18864
G01 X1.63295 Y-0.18607
G01 X1.63387 Y-0.18457
G01 X1.63899 Y-0.17832
G01 X1.64509 Y-0.17303
G01 X1.65199 Y-0.16884
G01 X1.65950 Y-0.16587
G01 X1.66741 Y-0.16421
G01 X1.67548 Y-0.16392
G01 X1.68348 Y-0.16498
G01 X1.69119 Y-0.16737
G01 X1.69839 Y-0.17103
G01 X1.70487 Y-0.17585
G01 X1.71044 Y-0.18169
G01 X1.71338 Y-0.18606
G01 X1.71568 Y-0.18854
G01 X1.71720 Y-0.18941
G01 X1.71980 Y-0.19043
G01 X1.72088 Y-0.19074
G01 X1.72199 Y-0.19084
G01 X1.72585 Y-0.19018
G01 X1.72693 Y-0.18986
G01 X1.72792 Y-0.18934
G01 X1.72880 Y-0.18864
G01 X1.73137 Y-0.18607
G01 X1.73230 Y-0.18457
G01 X1.73741 Y-0.17832
G01 X1.74351 Y-0.17303
G01 X1.75042 Y-0.16884
G01 X1.75793 Y-0.16587
G01 X1.76583 Y-0.16421
G01 X1.77390 Y-0.16392
G01 X1.78191 Y-0.16498
G01 X1.78962 Y-0.16737
G01 X1.79682 Y-0.17103
G01 X1.80330 Y-0.17586
G01 X1.80767 Y-0.18039
G01 X1.80889 Y-0.18136
G01 X1.81214 Y-0.18283
G01 X1.81321 Y-0.18317
G01 X1.81432 Y-0.18331
G01 X1.81820 Y-0.18279
G01 X1.81928 Y-0.18250
G01 X1.82030 Y-0.18202
G01 X1.82386 Y-0.17888
G01 X1.82752 Y-0.17303
G01 X1.83146 Y-0.16908
G01 X1.83622 Y-0.16614
G01 X1.84156 Y-0.16434
G01 X1.84478 Y-0.16403
G01 X1.89538 Y-0.16403
G01 X1.89855 Y-0.16435
G01 X1.90390 Y-0.16612
G01 X1.90866 Y-0.16905
G01 X1.91261 Y-0.17300
G01 X1.91555 Y-0.17775
G01 X1.91735 Y-0.18309
G01 X1.91766 Y-0.18631
G01 X1.91766 Y-0.24676
G01 X1.91736 Y-0.24993
G01 X1.91557 Y-0.25528
G01 X1.91264 Y-0.26004
G01 X1.90869 Y-0.26399
G01 X1.90394 Y-0.26693
G01 X1.89860 Y-0.26873
G01 X1.89538 Y-0.26903
G01 X1.84477 Y-0.26903
G01 X1.84160 Y-0.26874
G01 X1.83626 Y-0.26695
G01 X1.83150 Y-0.26402
G01 X1.82752 Y-0.26004
G01 X1.82377 Y-0.25411
G01 X1.82258 Y-0.25275
G01 X1.81843 Y-0.25028
G01 X1.81735 Y-0.25000
G01 X1.81623 Y-0.24992
G01 X1.81232 Y-0.25013
G01 X1.81125 Y-0.25048
G01 X1.81027 Y-0.25102
G01 X1.80730 Y-0.25312
G01 X1.80589 Y-0.25474
G01 X1.79979 Y-0.26004
G01 X1.79288 Y-0.26423
G01 X1.78537 Y-0.26719
G01 X1.77747 Y-0.26885
G01 X1.76940 Y-0.26916
G01 X1.76140 Y-0.26810
G01 X1.75368 Y-0.26571
G01 X1.74649 Y-0.26204
G01 X1.74001 Y-0.25722
G01 X1.73444 Y-0.25138
G01 X1.73150 Y-0.24701
G01 X1.72919 Y-0.24453
G01 X1.72768 Y-0.24366
G01 X1.72508 Y-0.24264
G01 X1.72401 Y-0.24233
G01 X1.72289 Y-0.24223
G01 X1.71903 Y-0.24289
G01 X1.71795 Y-0.24321
G01 X1.71696 Y-0.24373
G01 X1.71351 Y-0.24700
G01 X1.71258 Y-0.24850
G01 X1.70746 Y-0.25474
G01 X1.70136 Y-0.26004
G01 X1.69446 Y-0.26423
G01 X1.68695 Y-0.26719
G01 X1.67905 Y-0.26885
G01 X1.67098 Y-0.26916
G01 X1.66297 Y-0.26810
G01 X1.65526 Y-0.26571
G01 X1.64806 Y-0.26204
G01 X1.64158 Y-0.25722
G01 X1.63601 Y-0.25138
G01 X1.63307 Y-0.24701
G01 X1.63077 Y-0.24453
G01 X1.62926 Y-0.24366
G01 X1.62666 Y-0.24264
G01 X1.62558 Y-0.24233
G01 X1.62446 Y-0.24223
G01 X1.62061 Y-0.24289
G01 X1.61953 Y-0.24321
G01 X1.61853 Y-0.24373
G01 X1.61508 Y-0.24700
G01 X1.61416 Y-0.24850
G01 X1.60904 Y-0.25474
G01 X1.60294 Y-0.26004
G01 X1.59603 Y-0.26423
G01 X1.58852 Y-0.26719
G01 X1.58062 Y-0.26885
G01 X1.57255 Y-0.26916
G01 X1.56455 Y-0.26810
G01 X1.55683 Y-0.26571
G01 X1.54964 Y-0.26204
G01 X1.54316 Y-0.25722
G01 X1.53758 Y-0.25138
G01 X1.53307 Y-0.24468
G01 X1.52976 Y-0.23732
G01 X1.52773 Y-0.22950
G01 X1.52722 Y-0.22349
G01 X1.52918 Y-0.22341
G01 X1.52921 Y-0.20728
G01 X1.53058 Y-0.19968
G01 X1.53323 Y-0.19240
G01 X1.53706 Y-0.18567
G01 X1.54197 Y-0.17969
G01 X1.54782 Y-0.17461
G01 X1.55444 Y-0.17059
G01 X1.56164 Y-0.16775
G01 X1.56922 Y-0.16616
G01 X1.57696 Y-0.16587
G01 X1.58464 Y-0.16689
G01 X1.59203 Y-0.16919
G01 X1.59893 Y-0.17269
G01 X1.60515 Y-0.17732
G01 X1.61049 Y-0.18292
G01 X1.61334 Y-0.18715
G01 X1.61604 Y-0.19007
G01 X1.61805 Y-0.19123
G01 X1.62065 Y-0.19225
G01 X1.62209 Y-0.19266
G01 X1.62358 Y-0.19279
G01 X1.62781 Y-0.19210
G01 X1.62924 Y-0.19167
G01 X1.63056 Y-0.19098
G01 X1.63173 Y-0.19004
G01 X1.63449 Y-0.18727
G01 X1.63549 Y-0.18568
G01 X1.64039 Y-0.17968
G01 X1.64624 Y-0.17461
G01 X1.65286 Y-0.17059
G01 X1.66007 Y-0.16775
G01 X1.66765 Y-0.16616
G01 X1.67538 Y-0.16587
G01 X1.68306 Y-0.16689
G01 X1.69046 Y-0.16919
G01 X1.69736 Y-0.17269
G01 X1.70357 Y-0.17732
G01 X1.70891 Y-0.18292
G01 X1.71176 Y-0.18715
G01 X1.71447 Y-0.19007
G01 X1.71648 Y-0.19123
G01 X1.71908 Y-0.19225
G01 X1.72052 Y-0.19266
G01 X1.72201 Y-0.19279
G01 X1.72623 Y-0.19210
G01 X1.72766 Y-0.19167
G01 X1.72899 Y-0.19098
G01 X1.73016 Y-0.19004
G01 X1.73291 Y-0.18727
G01 X1.73391 Y-0.18568
G01 X1.73882 Y-0.17968
G01 X1.74467 Y-0.17461
G01 X1.75129 Y-0.17059
G01 X1.75849 Y-0.16775
G01 X1.76607 Y-0.16616
G01 X1.77381 Y-0.16587
G01 X1.78149 Y-0.16689
G01 X1.78888 Y-0.16919
G01 X1.79578 Y-0.17269
G01 X1.80201 Y-0.17733
G01 X1.80627 Y-0.18175
G01 X1.80788 Y-0.18303
G01 X1.81136 Y-0.18462
G01 X1.81278 Y-0.18508
G01 X1.81427 Y-0.18527
G01 X1.81851 Y-0.18472
G01 X1.81996 Y-0.18434
G01 X1.82130 Y-0.18369
G01 X1.82250 Y-0.18280
G01 X1.82536 Y-0.18013
G01 X1.82906 Y-0.17425
G01 X1.83269 Y-0.17062
G01 X1.83705 Y-0.16792
G01 X1.84197 Y-0.16626
G01 X1.84488 Y-0.16599
G01 X1.89528 Y-0.16599
G01 X1.89814 Y-0.16625
G01 X1.90307 Y-0.16790
G01 X1.90744 Y-0.17059
G01 X1.91107 Y-0.17422
G01 X1.91378 Y-0.17859
G01 X1.91543 Y-0.18351
G01 X1.91570 Y-0.18641
G01 X1.91570 Y-0.24666
G01 X1.91544 Y-0.24952
G01 X1.91379 Y-0.25445
G01 X1.91110 Y-0.25882
G01 X1.90747 Y-0.26245
G01 X1.90310 Y-0.26515
G01 X1.89818 Y-0.26681
G01 X1.89528 Y-0.26708
G01 X1.84487 Y-0.26708
G01 X1.84201 Y-0.26681
G01 X1.83709 Y-0.26517
G01 X1.83272 Y-0.26248
G01 X1.82906 Y-0.25881
G01 X1.82542 Y-0.25306
G01 X1.82383 Y-0.25125
G01 X1.82046 Y-0.24910
G01 X1.81911 Y-0.24845
G01 X1.81766 Y-0.24807
G01 X1.81617 Y-0.24797
G01 X1.81190 Y-0.24823
G01 X1.81048 Y-0.24869
G01 X1.80917 Y-0.24941
G01 X1.80598 Y-0.25168
G01 X1.80448 Y-0.25338
G01 X1.79863 Y-0.25845
G01 X1.79201 Y-0.26247
G01 X1.78481 Y-0.26532
G01 X1.77723 Y-0.26691
G01 X1.76950 Y-0.26720
G01 X1.76182 Y-0.26619
G01 X1.75442 Y-0.26389
G01 X1.74752 Y-0.26038
G01 X1.74131 Y-0.25576
G01 X1.73596 Y-0.25015
G01 X1.73311 Y-0.24591
G01 X1.73041 Y-0.24300
G01 X1.72840 Y-0.24184
G01 X1.72580 Y-0.24082
G01 X1.72436 Y-0.24041
G01 X1.72288 Y-0.24027
G01 X1.71865 Y-0.24097
G01 X1.71722 Y-0.24140
G01 X1.71589 Y-0.24209
G01 X1.71472 Y-0.24302
G01 X1.71196 Y-0.24580
G01 X1.71097 Y-0.24739
G01 X1.70606 Y-0.25338
G01 X1.70021 Y-0.25845
G01 X1.69359 Y-0.26247
G01 X1.68639 Y-0.26532
G01 X1.67881 Y-0.26691
G01 X1.67107 Y-0.26720
G01 X1.66339 Y-0.26619
G01 X1.65600 Y-0.26389
G01 X1.64909 Y-0.26038
G01 X1.64288 Y-0.25576
G01 X1.63754 Y-0.25015
G01 X1.63469 Y-0.24591
G01 X1.63198 Y-0.24300
G01 X1.62997 Y-0.24184
G01 X1.62737 Y-0.24082
G01 X1.62594 Y-0.24041
G01 X1.62445 Y-0.24027
G01 X1.62022 Y-0.24097
G01 X1.61879 Y-0.24140
G01 X1.61747 Y-0.24209
G01 X1.61630 Y-0.24302
G01 X1.61354 Y-0.24580
G01 X1.61254 Y-0.24739
G01 X1.60763 Y-0.25338
G01 X1.60178 Y-0.25845
G01 X1.59516 Y-0.26247
G01 X1.58796 Y-0.26532
G01 X1.58038 Y-0.26691
G01 X1.57265 Y-0.26720
G01 X1.56497 Y-0.26619
G01 X1.55757 Y-0.26389
G01 X1.55067 Y-0.26038
G01 X1.54445 Y-0.25576
G01 X1.53911 Y-0.25015
G01 X1.53479 Y-0.24373
G01 X1.53160 Y-0.23667
G01 X1.52965 Y-0.22917
G01 X1.52918 Y-0.22341
G01 X1.53042 Y-0.22337
G01 X1.53040 Y-0.21051
G01 X1.53057 Y-0.20735
G01 X1.53155 Y-0.20131
G01 X1.53189 Y-0.19997
G01 X1.53435 Y-0.19299
G01 X1.53807 Y-0.18647
G01 X1.54289 Y-0.18067
G01 X1.54425 Y-0.17932
G01 X1.54859 Y-0.17573
G01 X1.55167 Y-0.17367
G01 X1.55509 Y-0.17177
G01 X1.56196 Y-0.16899
G01 X1.56930 Y-0.16744
G01 X1.57692 Y-0.16720
G01 X1.58050 Y-0.16755
G01 X1.58430 Y-0.16820
G01 X1.58957 Y-0.16970
G01 X1.59158 Y-0.17045
G01 X1.59608 Y-0.17260
G01 X1.59831 Y-0.17384
G01 X1.60436 Y-0.17830
G01 X1.60947 Y-0.18376
G01 X1.61319 Y-0.18918
G01 X1.61540 Y-0.19198
G01 X1.61734 Y-0.19304
G01 X1.61994 Y-0.19407
G01 X1.62173 Y-0.19458
G01 X1.62359 Y-0.19475
G01 X1.62545 Y-0.19456
G01 X1.62819 Y-0.19401
G01 X1.62997 Y-0.19348
G01 X1.63163 Y-0.19261
G01 X1.63277 Y-0.19170
G01 X1.63465 Y-0.18929
G01 X1.63655 Y-0.18640
G01 X1.63792 Y-0.18463
G01 X1.64132 Y-0.18067
G01 X1.64268 Y-0.17932
G01 X1.64708 Y-0.17568
G01 X1.65010 Y-0.17368
G01 X1.65344 Y-0.17180
G01 X1.66038 Y-0.16899
G01 X1.66772 Y-0.16743
G01 X1.67534 Y-0.16720
G01 X1.67898 Y-0.16754
G01 X1.68273 Y-0.16820
G01 X1.68595 Y-0.16904
G01 X1.68993 Y-0.17042
G01 X1.69674 Y-0.17383
G01 X1.70268 Y-0.17822
G01 X1.70381 Y-0.17935
G01 X1.70789 Y-0.18376
G01 X1.71162 Y-0.18918
G01 X1.71382 Y-0.19198
G01 X1.71577 Y-0.19304
G01 X1.71837 Y-0.19407
G01 X1.72016 Y-0.19458
G01 X1.72202 Y-0.19475
G01 X1.72387 Y-0.19456
G01 X1.72662 Y-0.19401
G01 X1.72840 Y-0.19348
G01 X1.73005 Y-0.19261
G01 X1.73119 Y-0.19170
G01 X1.73308 Y-0.18929
G01 X1.73503 Y-0.18633
G01 X1.73634 Y-0.18463
G01 X1.73974 Y-0.18066
G01 X1.74272 Y-0.17790
G01 X1.74550 Y-0.17568
G01 X1.74853 Y-0.17368
G01 X1.75194 Y-0.17177
G01 X1.75881 Y-0.16900
G01 X1.76628 Y-0.16741
G01 X1.77368 Y-0.16720
G01 X1.77735 Y-0.16753
G01 X1.78115 Y-0.16820
G01 X1.78433 Y-0.16903
G01 X1.78836 Y-0.17041
G01 X1.79483 Y-0.17363
G01 X1.80055 Y-0.17780
G01 X1.80222 Y-0.17932
G01 X1.80532 Y-0.18265
G01 X1.80845 Y-0.18548
G01 X1.81236 Y-0.18699
G01 X1.81421 Y-0.18722
G01 X1.81607 Y-0.18709
G01 X1.81883 Y-0.18664
G01 X1.82063 Y-0.18617
G01 X1.82231 Y-0.18536
G01 X1.82381 Y-0.18425
G01 X1.82563 Y-0.18262
G01 X1.82791 Y-0.17846
G01 X1.83000 Y-0.17510
G01 X1.83330 Y-0.17177
G01 X1.83755 Y-0.16910
G01 X1.84219 Y-0.16753
G01 X1.84644 Y-0.16716
G01 X1.89371 Y-0.16716
G01 X1.89694 Y-0.16739
G01 X1.89909 Y-0.16785
G01 X1.90321 Y-0.16944
G01 X1.90667 Y-0.17163
G01 X1.90988 Y-0.17478
G01 X1.91260 Y-0.17905
G01 X1.91315 Y-0.18055
G01 X1.91421 Y-0.18385
G01 X1.91453 Y-0.18797
G01 X1.91453 Y-0.24510
G01 X1.91419 Y-0.24933
G01 X1.91262 Y-0.25399
G01 X1.91014 Y-0.25796
G01 X1.90842 Y-0.25982
G01 X1.90661 Y-0.26149
G01 X1.90318 Y-0.26367
G01 X1.90118 Y-0.26452
G01 X1.89796 Y-0.26554
G01 X1.89371 Y-0.26591
G01 X1.84644 Y-0.26591
G01 X1.84496 Y-0.26589
G01 X1.84223 Y-0.26552
G01 X1.83759 Y-0.26397
G01 X1.83348 Y-0.26145
G01 X1.82999 Y-0.25796
G01 X1.82787 Y-0.25458
G01 X1.82559 Y-0.25025
G01 X1.82508 Y-0.24975
G01 X1.82147 Y-0.24743
G01 X1.81978 Y-0.24662
G01 X1.81798 Y-0.24614
G01 X1.81612 Y-0.24602
G01 X1.81332 Y-0.24609
G01 X1.81147 Y-0.24632
G01 X1.80970 Y-0.24690
G01 X1.80847 Y-0.24757
G01 X1.80616 Y-0.24969
G01 X1.80220 Y-0.25375
G01 X1.79787 Y-0.25734
G01 X1.79293 Y-0.26049
G01 X1.79136 Y-0.26130
G01 X1.78641 Y-0.26338
G01 X1.78436 Y-0.26411
G01 X1.77702 Y-0.26565
G01 X1.76954 Y-0.26588
G01 X1.76595 Y-0.26552
G01 X1.76207 Y-0.26485
G01 X1.75693 Y-0.26339
G01 X1.75488 Y-0.26262
G01 X1.74847 Y-0.25945
G01 X1.74220 Y-0.25485
G01 X1.74106 Y-0.25372
G01 X1.73698 Y-0.24931
G01 X1.73326 Y-0.24389
G01 X1.73106 Y-0.24109
G01 X1.72911 Y-0.24003
G01 X1.72651 Y-0.23900
G01 X1.72472 Y-0.23849
G01 X1.72286 Y-0.23832
G01 X1.72101 Y-0.23851
G01 X1.71827 Y-0.23906
G01 X1.71648 Y-0.23959
G01 X1.71483 Y-0.24046
G01 X1.71369 Y-0.24136
G01 X1.71180 Y-0.24378
G01 X1.70986 Y-0.24673
G01 X1.70854 Y-0.24844
G01 X1.70508 Y-0.25246
G01 X1.70212 Y-0.25521
G01 X1.69944 Y-0.25734
G01 X1.69640 Y-0.25937
G01 X1.69294 Y-0.26130
G01 X1.68607 Y-0.26407
G01 X1.67873 Y-0.26563
G01 X1.67111 Y-0.26588
G01 X1.66753 Y-0.26552
G01 X1.66373 Y-0.26487
G01 X1.65846 Y-0.26337
G01 X1.65645 Y-0.26262
G01 X1.65194 Y-0.26047
G01 X1.64972 Y-0.25923
G01 X1.64378 Y-0.25485
G01 X1.64264 Y-0.25373
G01 X1.63856 Y-0.24931
G01 X1.63483 Y-0.24389
G01 X1.63263 Y-0.24109
G01 X1.63069 Y-0.24003
G01 X1.62809 Y-0.23900
G01 X1.62630 Y-0.23849
G01 X1.62444 Y-0.23832
G01 X1.62258 Y-0.23851
G01 X1.61984 Y-0.23906
G01 X1.61806 Y-0.23959
G01 X1.61640 Y-0.24046
G01 X1.61526 Y-0.24136
G01 X1.61337 Y-0.24378
G01 X1.61143 Y-0.24673
G01 X1.61011 Y-0.24844
G01 X1.60671 Y-0.25240
G01 X1.60374 Y-0.25517
G01 X1.60095 Y-0.25738
G01 X1.59612 Y-0.26046
G01 X1.59451 Y-0.26130
G01 X1.58961 Y-0.26336
G01 X1.58745 Y-0.26412
G01 X1.58030 Y-0.26563
G01 X1.57832 Y-0.26576
G01 X1.57269 Y-0.26587
G01 X1.57119 Y-0.26577
G01 X1.56522 Y-0.26486
G01 X1.56208 Y-0.26403
G01 X1.55810 Y-0.26265
G01 X1.55162 Y-0.25944
G01 X1.54535 Y-0.25486
G01 X1.53944 Y-0.24842
G01 X1.53595 Y-0.24304
G01 X1.53467 Y-0.24053
G01 X1.53289 Y-0.23625
G01 X1.53157 Y-0.23174
G01 X1.53095 Y-0.22888
G01 X1.53042 Y-0.22337
G01 X1.53231 Y-0.22144
G01 X1.53235 Y-0.21061
G01 X1.53251 Y-0.20758
G01 X1.53305 Y-0.20377
G01 X1.53375 Y-0.20056
G01 X1.53616 Y-0.19376
G01 X1.53975 Y-0.18748
G01 X1.54435 Y-0.18197
G01 X1.54714 Y-0.17938
G01 X1.54977 Y-0.17729
G01 X1.55269 Y-0.17534
G01 X1.55588 Y-0.17355
G01 X1.56256 Y-0.17086
G01 X1.56963 Y-0.16937
G01 X1.57683 Y-0.16915
G01 X1.58025 Y-0.16949
G01 X1.58393 Y-0.17012
G01 X1.58696 Y-0.17091
G01 X1.59078 Y-0.17223
G01 X1.59698 Y-0.17531
G01 X1.60254 Y-0.17937
G01 X1.60397 Y-0.18069
G01 X1.60857 Y-0.18579
G01 X1.61161 Y-0.19032
G01 X1.61400 Y-0.19334
G01 X1.61470 Y-0.19497
G01 X1.61713 Y-0.20262
G01 X1.61802 Y-0.21059
G01 X1.61808 Y-0.22146
G01 X1.61729 Y-0.22944
G01 X1.61687 Y-0.23145
G01 X1.61434 Y-0.23906
G01 X1.61385 Y-0.24000
G01 X1.61181 Y-0.24260
G01 X1.60858 Y-0.24723
G01 X1.60526 Y-0.25110
G01 X1.60400 Y-0.25233
G01 X1.59983 Y-0.25578
G01 X1.59515 Y-0.25877
G01 X1.59372 Y-0.25952
G01 X1.58888 Y-0.26155
G01 X1.58704 Y-0.26221
G01 X1.57998 Y-0.26370
G01 X1.57826 Y-0.26381
G01 X1.57139 Y-0.26382
G01 X1.56568 Y-0.26295
G01 X1.56069 Y-0.26154
G01 X1.55883 Y-0.26084
G01 X1.55443 Y-0.25874
G01 X1.55241 Y-0.25763
G01 X1.54659 Y-0.25334
G01 X1.54165 Y-0.24808
G01 X1.53985 Y-0.24560
G01 X1.53767 Y-0.24211
G01 X1.53558 Y-0.23779
G01 X1.53473 Y-0.23558
G01 X1.53347 Y-0.23127
G01 X1.53289 Y-0.22865
G01 X1.53231 Y-0.22144
G01 X1.53348 Y-0.22146
G01 X1.53348 Y-0.21161
G01 X1.53438 Y-0.20302
G01 X1.53676 Y-0.19557
G01 X1.53743 Y-0.19407
G01 X1.54137 Y-0.18732
G01 X1.54657 Y-0.18149
G01 X1.54779 Y-0.18039
G01 X1.55414 Y-0.17583
G01 X1.56127 Y-0.17261
G01 X1.56283 Y-0.17210
G01 X1.57048 Y-0.17052
G01 X1.57830 Y-0.17047
G01 X1.57993 Y-0.17065
G01 X1.58757 Y-0.17231
G01 X1.59546 Y-0.17583
G01 X1.60181 Y-0.18039
G01 X1.60303 Y-0.18149
G01 X1.60823 Y-0.18732
G01 X1.61218 Y-0.19407
G01 X1.61285 Y-0.19557
G01 X1.61522 Y-0.20302
G01 X1.61613 Y-0.21161
G01 X1.61613 Y-0.22146
G01 X1.61522 Y-0.23005
G01 X1.61285 Y-0.23750
G01 X1.61218 Y-0.23900
G01 X1.60823 Y-0.24574
G01 X1.60303 Y-0.25158
G01 X1.60181 Y-0.25268
G01 X1.59546 Y-0.25724
G01 X1.58834 Y-0.26046
G01 X1.58678 Y-0.26097
G01 X1.57912 Y-0.26255
G01 X1.57130 Y-0.26260
G01 X1.56967 Y-0.26242
G01 X1.56203 Y-0.26076
G01 X1.55487 Y-0.25762
G01 X1.55345 Y-0.25679
G01 X1.54715 Y-0.25216
G01 X1.54189 Y-0.24638
G01 X1.54092 Y-0.24505
G01 X1.53705 Y-0.23826
G01 X1.53460 Y-0.23084
G01 X1.53425 Y-0.22923
G01 X1.53348 Y-0.22146
G01 X1.53543 Y-0.22146
G01 X1.53547 Y-0.21100
G01 X1.53620 Y-0.20404
G01 X1.53645 Y-0.20283
G01 X1.53884 Y-0.19560
G01 X1.54262 Y-0.18899
G01 X1.54334 Y-0.18799
G01 X1.54846 Y-0.18236
G01 X1.55512 Y-0.17752
G01 X1.56206 Y-0.17439
G01 X1.56323 Y-0.17401
G01 X1.57069 Y-0.17246
G01 X1.57830 Y-0.17243
G01 X1.57953 Y-0.17256
G01 X1.58697 Y-0.17417
G01 X1.59394 Y-0.17724
G01 X1.59501 Y-0.17786
G01 X1.60115 Y-0.18236
G01 X1.60626 Y-0.18799
G01 X1.60699 Y-0.18899
G01 X1.61077 Y-0.19560
G01 X1.61315 Y-0.20283
G01 X1.61341 Y-0.20404
G01 X1.61414 Y-0.21100
G01 X1.61417 Y-0.22146
G01 X1.61341 Y-0.22903
G01 X1.61315 Y-0.23024
G01 X1.61099 Y-0.23689
G01 X1.61049 Y-0.23802
G01 X1.60665 Y-0.24460
G01 X1.60158 Y-0.25028
G01 X1.60067 Y-0.25110
G01 X1.59449 Y-0.25555
G01 X1.58755 Y-0.25868
G01 X1.58637 Y-0.25906
G01 X1.57892 Y-0.26061
G01 X1.57130 Y-0.26064
G01 X1.57008 Y-0.26051
G01 X1.56264 Y-0.25890
G01 X1.55567 Y-0.25583
G01 X1.55460 Y-0.25522
G01 X1.54846 Y-0.25071
G01 X1.54334 Y-0.24508
G01 X1.54262 Y-0.24408
G01 X1.53884 Y-0.23747
G01 X1.53645 Y-0.23024
G01 X1.53620 Y-0.22903
G01 X1.53547 Y-0.22207
G01 X1.53543 Y-0.22146
G01 X1.53739 Y-0.22146
G01 X1.53739 Y-0.21161
G01 X1.53814 Y-0.20424
G01 X1.54047 Y-0.19678
G01 X1.54453 Y-0.18962
G01 X1.55009 Y-0.18355
G01 X1.55609 Y-0.17921
G01 X1.56285 Y-0.17618
G01 X1.57089 Y-0.17440
G01 X1.57912 Y-0.17447
G01 X1.58637 Y-0.17603
G01 X1.59314 Y-0.17902
G01 X1.59984 Y-0.18381
G01 X1.60530 Y-0.18997
G01 X1.60899 Y-0.19639
G01 X1.61129 Y-0.20344
G01 X1.61220 Y-0.21120
G01 X1.61222 Y-0.22146
G01 X1.61147 Y-0.22883
G01 X1.60913 Y-0.23629
G01 X1.60507 Y-0.24345
G01 X1.59952 Y-0.24952
G01 X1.59351 Y-0.25386
G01 X1.58675 Y-0.25689
G01 X1.57912 Y-0.25860
G01 X1.57089 Y-0.25867
G01 X1.56285 Y-0.25689
G01 X1.55609 Y-0.25386
G01 X1.55009 Y-0.24952
G01 X1.54453 Y-0.24345
G01 X1.54047 Y-0.23629
G01 X1.53820 Y-0.22924
G01 X1.53741 Y-0.22187
G01 X1.53739 Y-0.22146
G01 X1.53934 Y-0.22146
G01 X1.54017 Y-0.22903
G01 X1.54240 Y-0.23588
G01 X1.54611 Y-0.24230
G01 X1.55123 Y-0.24794
G01 X1.55707 Y-0.25217
G01 X1.56365 Y-0.25511
G01 X1.57110 Y-0.25673
G01 X1.57872 Y-0.25669
G01 X1.58596 Y-0.25511
G01 X1.59254 Y-0.25217
G01 X1.59837 Y-0.24794
G01 X1.60349 Y-0.24230
G01 X1.60728 Y-0.23569
G01 X1.60953 Y-0.22862
G01 X1.61027 Y-0.22146
G01 X1.61026 Y-0.21141
G01 X1.60944 Y-0.20404
G01 X1.60720 Y-0.19719
G01 X1.60361 Y-0.19094
G01 X1.59853 Y-0.18526
G01 X1.59235 Y-0.18080
G01 X1.58576 Y-0.17788
G01 X1.57872 Y-0.17638
G01 X1.57110 Y-0.17634
G01 X1.56365 Y-0.17796
G01 X1.55707 Y-0.18090
G01 X1.55123 Y-0.18513
G01 X1.54611 Y-0.19077
G01 X1.54233 Y-0.19738
G01 X1.54008 Y-0.20445
G01 X1.53934 Y-0.21161
G01 X1.53934 Y-0.22146
G04 P0 ( dwell for no time -- G64 should not smooth over this point )
G00 Z0.01181 ( retract )

G00 X1.62995 Y-0.22146 ( rapid move to begin. )
G01 F12.59843
( Mill infeed pass 1/1 )
G01 Z-0.00200
G04 P0 ( dwell for no time -- G64 should not smooth over this point )
G01 F31.49606
G01 X1.62995 Y-0.22146
G01 X1.62995 Y-0.21161
G01 X1.63074 Y-0.20363
G01 X1.63116 Y-0.20162
G01 X1.63333 Y-0.19497
G01 X1.63418 Y-0.19306
G01 X1.63626 Y-0.19041
G01 X1.63945 Y-0.18584
G01 X1.64277 Y-0.18197
G01 X1.64557 Y-0.17938
G01 X1.64820 Y-0.17729
G01 X1.65288 Y-0.17430
G01 X1.65431 Y-0.17355
G01 X1.66099 Y-0.17086
G01 X1.66805 Y-0.16937
G01 X1.67525 Y-0.16915
G01 X1.67867 Y-0.16949
G01 X1.68235 Y-0.17012
G01 X1.68734 Y-0.17153
G01 X1.68920 Y-0.17223
G01 X1.69541 Y-0.17531
G01 X1.70144 Y-0.17973
G01 X1.70700 Y-0.18579
G01 X1.71002 Y-0.19029
G01 X1.71242 Y-0.19334
G01 X1.71276 Y-0.19401
G01 X1.71556 Y-0.20262
G01 X1.71650 Y-0.21161
G01 X1.71645 Y-0.22248
G01 X1.71556 Y-0.23045
G01 X1.71276 Y-0.23906
G01 X1.71228 Y-0.24000
G01 X1.71024 Y-0.24260
G01 X1.70701 Y-0.24723
G01 X1.70368 Y-0.25110
G01 X1.70089 Y-0.25369
G01 X1.69826 Y-0.25578
G01 X1.69357 Y-0.25877
G01 X1.69214 Y-0.25952
G01 X1.68547 Y-0.26221
G01 X1.67840 Y-0.26370
G01 X1.67120 Y-0.26392
G01 X1.66779 Y-0.26358
G01 X1.66410 Y-0.26295
G01 X1.66107 Y-0.26216
G01 X1.65725 Y-0.26084
G01 X1.65084 Y-0.25763
G01 X1.64501 Y-0.25334
G01 X1.64007 Y-0.24808
G01 X1.63644 Y-0.24277
G01 X1.63404 Y-0.23973
G01 X1.63333 Y-0.23810
G01 X1.63090 Y-0.23045
G01 X1.62995 Y-0.22146
G01 X1.63191 Y-0.22146
G01 X1.63191 Y-0.21161
G01 X1.63281 Y-0.20302
G01 X1.63518 Y-0.19557
G01 X1.63585 Y-0.19407
G01 X1.63980 Y-0.18732
G01 X1.64500 Y-0.18149
