( pcb2gcode 2.5.0 )
( Software-independent Gcode )

G94 ( Inches per minute feed rate. )
G20 ( Units == INCHES. )

G90 ( Absolute coordinates. )
G00 S24000 ( RPM spindle speed. )
G64 P0.00040 ( set maximum deviation from commanded toolpath )
G01 F31.49606 ( Feedrate. )


G00 Z2.36220 (Retract to tool change height)
T0
M5      (Spindle stop.)
G04 P1.00000 (Wait for spindle to stop)
(MSG, Change tool bit to mill diameter 0.00400in)
M6      (Tool change.)
M0      (Temporary machine stop.)
M3 ( Spindle on clockwise. )
G04 P1.00000 (Wait for spindle to get up to speed)
G04 P0 ( dwell for no time -- G64 should not smooth over this point )
G00 Z0.01181 ( retract )

G00 X-0.13091 Y-0.52935 ( rapid move to begin. )
G01 F12.59843
( Mill infeed pass 1/1 )
G01 Z-0.00200
G04 P0 ( dwell for no time -- G64 should not smooth over this point )
G01 F31.49606
G01 X-0.13091 Y-0.52935
G01 X-0.13113 Y-0.54388
G01 X-0.13276 Y-0.55813
G01 X-0.13572 Y-0.57185
G01 X-0.13999 Y-0.58512
G01 X-0.14606 Y-0.59920
G01 X-0.15335 Y-0.61212
G01 X-0.16185 Y-0.62416
G01 X-0.17105 Y-0.63476
G01 X-0.18146 Y-0.64463
G01 X-0.19295 Y-0.65353
G01 X-0.20430 Y-0.66063
G01 X-0.20585 Y-0.66135
G01 X-0.20729 Y-0.66238
G01 X-0.54271 Y-0.84959
G01 X-0.54902 Y-0.85268
G01 X-0.55549 Y-0.85475
G01 X-0.56127 Y-0.85574
G01 X-0.56520 Y-0.85594
G01 X-0.56688 Y-0.85582
G01 X-0.56871 Y-0.85601
G01 X-1.66819 Y-0.85601
G01 X-1.67038 Y-0.85585
G01 X-1.67184 Y-0.85598
G01 X-1.67519 Y-0.85589
G01 X-1.68073 Y-0.85499
G01 X-1.68705 Y-0.85292
G01 X-1.69030 Y-0.85131
G01 X-1.69170 Y-0.85038
G01 X-1.69345 Y-0.84962
G01 X-2.02932 Y-0.66216
G01 X-2.03097 Y-0.66102
G01 X-2.03235 Y-0.66040
G01 X-2.04296 Y-0.65395
G01 X-2.05475 Y-0.64507
G01 X-2.06577 Y-0.63480
G01 X-2.07521 Y-0.62399
G01 X-2.08373 Y-0.61195
G01 X-2.09079 Y-0.59945
G01 X-2.09645 Y-0.58660
G01 X-2.10101 Y-0.57256
G01 X-2.10403 Y-0.55854
G01 X-2.10566 Y-0.54387
G01 X-2.10577 Y-0.52931
G01 X-2.10443 Y-0.51502
G01 X-2.10145 Y-0.50005
G01 X-2.09771 Y-0.48791
G01 X-2.09702 Y-0.48637
G01 X-2.09659 Y-0.48438
G01 X-1.99208 Y-0.14840
G01 X-1.99128 Y-0.14648
G01 X-1.99091 Y-0.14504
G01 X-1.98878 Y-0.13992
G01 X-1.98537 Y-0.13460
G01 X-1.98151 Y-0.13033
G01 X-1.97595 Y-0.12603
G01 X-1.96999 Y-0.12300
G01 X-1.96358 Y-0.12110
G01 X-1.95816 Y-0.12050
G01 X-1.95644 Y-0.12056
G01 X-1.95471 Y-0.12036
G01 X-0.28106 Y-0.12036
G01 X-0.27905 Y-0.12056
G01 X-0.27756 Y-0.12051
G01 X-0.27210 Y-0.12109
G01 X-0.26662 Y-0.12265
G01 X-0.26063 Y-0.12555
G01 X-0.25542 Y-0.12939
G01 X-0.25043 Y-0.13486
G01 X-0.24741 Y-0.13973
G01 X-0.24525 Y-0.14507
G01 X-0.24486 Y-0.14673
G01 X-0.24409 Y-0.14855
G01 X-0.13959 Y-0.48453
G01 X-0.13912 Y-0.48662
G01 X-0.13851 Y-0.48800
G01 X-0.13487 Y-0.50038
G01 X-0.13222 Y-0.51436
G01 X-0.13091 Y-0.52935
G01 X-0.12895 Y-0.52938
G01 X-0.12916 Y-0.54371
G01 X-0.13089 Y-0.55873
G01 X-0.13381 Y-0.57227
G01 X-0.13819 Y-0.58589
G01 X-0.14436 Y-0.60016
G01 X-0.15165 Y-0.61308
G01 X-0.16014 Y-0.62513
G01 X-0.16944 Y-0.63590
G01 X-0.18012 Y-0.64604
G01 X-0.19208 Y-0.65530
G01 X-0.20327 Y-0.66229
G01 X-0.20487 Y-0.66305
G01 X-0.20634 Y-0.66408
G01 X-0.54176 Y-0.85129
G01 X-0.54354 Y-0.85207
G01 X-0.54489 Y-0.85290
G01 X-0.54867 Y-0.85464
G01 X-0.55515 Y-0.85667
G01 X-0.56117 Y-0.85769
G01 X-0.56510 Y-0.85789
G01 X-0.56685 Y-0.85778
G01 X-0.56871 Y-0.85797
G01 X-1.66819 Y-0.85797
G01 X-1.67035 Y-0.85781
G01 X-1.67189 Y-0.85794
G01 X-1.67525 Y-0.85784
G01 X-1.68105 Y-0.85692
G01 X-1.68792 Y-0.85467
G01 X-1.69117 Y-0.85306
G01 X-1.69264 Y-0.85210
G01 X-1.69440 Y-0.85133
G01 X-2.03027 Y-0.66386
G01 X-2.03193 Y-0.66273
G01 X-2.03337 Y-0.66207
G01 X-2.04398 Y-0.65562
G01 X-2.05608 Y-0.64650
G01 X-2.06696 Y-0.63638
G01 X-2.07668 Y-0.62528
G01 X-2.08543 Y-0.61291
G01 X-2.09249 Y-0.60041
G01 X-2.09824 Y-0.58738
G01 X-2.10281 Y-0.57336
G01 X-2.10594 Y-0.55895
G01 X-2.10761 Y-0.54388
G01 X-2.10771 Y-0.52913
G01 X-2.10638 Y-0.51484
G01 X-2.10331 Y-0.49948
G01 X-2.09957 Y-0.48734
G01 X-2.09888 Y-0.48575
G01 X-2.09845 Y-0.48380
G01 X-1.99395 Y-0.14782
G01 X-1.99315 Y-0.14587
G01 X-1.99272 Y-0.14430
G01 X-1.99042 Y-0.13887
G01 X-1.98701 Y-0.13355
G01 X-1.98295 Y-0.12902
G01 X-1.97745 Y-0.12469
G01 X-1.97055 Y-0.12113
G01 X-1.96380 Y-0.11916
G01 X-1.95838 Y-0.11856
G01 X-1.95652 Y-0.11860
G01 X-1.95471 Y-0.11841
G01 X-0.28106 Y-0.11841
G01 X-0.27900 Y-0.11860
G01 X-0.27736 Y-0.11856
G01 X-0.27158 Y-0.11921
G01 X-0.26578 Y-0.12089
G01 X-0.25948 Y-0.12398
G01 X-0.25411 Y-0.12794
G01 X-0.24899 Y-0.13355
G01 X-0.24575 Y-0.13871
G01 X-0.24344 Y-0.14435
G01 X-0.24299 Y-0.14613
G01 X-0.24223 Y-0.14797
G01 X-0.13772 Y-0.48395
G01 X-0.13725 Y-0.48600
G01 X-0.13664 Y-0.48745
G01 X-0.13291 Y-0.50020
G01 X-0.13027 Y-0.51419
G01 X-0.12895 Y-0.52938
G01 X-0.12700 Y-0.52940
G01 X-0.12721 Y-0.54374
G01 X-0.12898 Y-0.55915
G01 X-0.13205 Y-0.57324
G01 X-0.13640 Y-0.58666
G01 X-0.14266 Y-0.60112
G01 X-0.14994 Y-0.61404
G01 X-0.15854 Y-0.62626
G01 X-0.16836 Y-0.63760
G01 X-0.17877 Y-0.64746
G01 X-0.19105 Y-0.65696
G01 X-0.20539 Y-0.66579
G01 X-0.54081 Y-0.85300
G01 X-0.54262 Y-0.85380
G01 X-0.54406 Y-0.85466
G01 X-0.54808 Y-0.85650
G01 X-0.55482 Y-0.85859
G01 X-0.56107 Y-0.85964
G01 X-0.56500 Y-0.85984
G01 X-0.56683 Y-0.85974
G01 X-0.56871 Y-0.85992
G01 X-1.66819 Y-0.85992
G01 X-1.67032 Y-0.85977
G01 X-1.67195 Y-0.85989
G01 X-1.67531 Y-0.85979
G01 X-1.68137 Y-0.85885
G01 X-1.68878 Y-0.85642
G01 X-1.69204 Y-0.85481
G01 X-1.69358 Y-0.85382
G01 X-1.69535 Y-0.85303
G01 X-2.03123 Y-0.66557
G01 X-2.03289 Y-0.66444
G01 X-2.03438 Y-0.66373
G01 X-2.04499 Y-0.65729
G01 X-2.05741 Y-0.64793
G01 X-2.06828 Y-0.63781
G01 X-2.07815 Y-0.62656
G01 X-2.08713 Y-0.61387
G01 X-2.09419 Y-0.60137
G01 X-2.10003 Y-0.58817
G01 X-2.10467 Y-0.57397
G01 X-2.10785 Y-0.55936
G01 X-2.10956 Y-0.54390
G01 X-2.10966 Y-0.52895
G01 X-2.10832 Y-0.51466
G01 X-2.10518 Y-0.49890
G01 X-2.10144 Y-0.48676
G01 X-2.10075 Y-0.48514
G01 X-2.10031 Y-0.48322
G01 X-1.99581 Y-0.14724
G01 X-1.99501 Y-0.14525
G01 X-1.99453 Y-0.14356
G01 X-1.99207 Y-0.13781
G01 X-1.98865 Y-0.13249
G01 X-1.98439 Y-0.12770
G01 X-1.97774 Y-0.12256
G01 X-1.97111 Y-0.11926
G01 X-1.96401 Y-0.11722
G01 X-1.95859 Y-0.11662
G01 X-1.95659 Y-0.11664
G01 X-1.95471 Y-0.11646
G01 X-0.28106 Y-0.11646
G01 X-0.27716 Y-0.11662
G01 X-0.27105 Y-0.11733
G01 X-0.26494 Y-0.11913
G01 X-0.25832 Y-0.12240
G01 X-0.25280 Y-0.12649
G01 X-0.24754 Y-0.13224
G01 X-0.24408 Y-0.13769
G01 X-0.24163 Y-0.14363
G01 X-0.13586 Y-0.48337
G01 X-0.13539 Y-0.48538
G01 X-0.13477 Y-0.48690
G01 X-0.13113 Y-0.49928
G01 X-0.12833 Y-0.51402
G01 X-0.12700 Y-0.52940
G01 X-0.12505 Y-0.52943
G01 X-0.12526 Y-0.54377
G01 X-0.12707 Y-0.55956
G01 X-0.13019 Y-0.57383
G01 X-0.13461 Y-0.58744
G01 X-0.14096 Y-0.60208
G01 X-0.14824 Y-0.61500
G01 X-0.15695 Y-0.62738
G01 X-0.16649 Y-0.63846
G01 X-0.17743 Y-0.64888
G01 X-0.19001 Y-0.65861
G01 X-0.20443 Y-0.66749
G01 X-0.53985 Y-0.85470
G01 X-0.54171 Y-0.85554
G01 X-0.54323 Y-0.85643
G01 X-0.54748 Y-0.85835
G01 X-0.55448 Y-0.86052
G01 X-0.56097 Y-0.86159
G01 X-0.56871 Y-0.86187
G01 X-1.66819 Y-0.86187
G01 X-1.67030 Y-0.86173
G01 X-1.67201 Y-0.86184
G01 X-1.67536 Y-0.86174
G01 X-1.68168 Y-0.86077
G01 X-1.68965 Y-0.85817
G01 X-1.69291 Y-0.85655
G01 X-1.69452 Y-0.85554
G01 X-1.69630 Y-0.85474
G01 X-2.03218 Y-0.66727
G01 X-2.04600 Y-0.65896
G01 X-2.05874 Y-0.64936
G01 X-2.06962 Y-0.63924
G01 X-2.07962 Y-0.62785
G01 X-2.08883 Y-0.61483
G01 X-2.09624 Y-0.60163
G01 X-2.10209 Y-0.58822
G01 X-2.10653 Y-0.57457
G01 X-2.10976 Y-0.55977
G01 X-2.11151 Y-0.54392
G01 X-2.11164 Y-0.52956
G01 X-2.11027 Y-0.51448
G01 X-2.10724 Y-0.49910
G01 X-1.99768 Y-0.14666
G01 X-1.99633 Y-0.14281
G01 X-1.99436 Y-0.13802
G01 X-1.99371 Y-0.13676
G01 X-1.99030 Y-0.13144
G01 X-1.98583 Y-0.12638
G01 X-1.97985 Y-0.12160
G01 X-1.97863 Y-0.12083
G01 X-1.97301 Y-0.11793
G01 X-1.97168 Y-0.11739
G01 X-1.96562 Y-0.11557
G01 X-1.96423 Y-0.11528
G01 X-1.95881 Y-0.11468
G01 X-1.95471 Y-0.11450
G01 X-0.28106 Y-0.11450
G01 X-0.27697 Y-0.11468
G01 X-0.27053 Y-0.11545
G01 X-0.26410 Y-0.11737
G01 X-0.25843 Y-0.12007
G01 X-0.25717 Y-0.12083
G01 X-0.25149 Y-0.12504
G01 X-0.24610 Y-0.13093
G01 X-0.24521 Y-0.13210
G01 X-0.24182 Y-0.13787
G01 X-0.23981 Y-0.14290
G01 X-0.13399 Y-0.48279
G01 X-0.13353 Y-0.48477
G01 X-0.13290 Y-0.48635
G01 X-0.12907 Y-0.49947
G01 X-0.12638 Y-0.51385
G01 X-0.12505 Y-0.52943
G01 X-0.12310 Y-0.52946
G01 X-0.12337 Y-0.54477
G01 X-0.12500 Y-0.55902
G01 X-0.12809 Y-0.57350
G01 X-0.13248 Y-0.58733
G01 X-0.13879 Y-0.60210
G01 X-0.14708 Y-0.61681
G01 X-0.15595 Y-0.62927
G01 X-0.16568 Y-0.64043
G01 X-0.17683 Y-0.65094
G01 X-0.18898 Y-0.66027
G01 X-0.20348 Y-0.66920
G01 X-0.53890 Y-0.85641
G01 X-0.54571 Y-0.85975
G01 X-0.55414 Y-0.86244
G01 X-0.56087 Y-0.86354
G01 X-0.56871 Y-0.86382
G01 X-1.66819 Y-0.86382
G01 X-1.67027 Y-0.86369
G01 X-1.67206 Y-0.86379
G01 X-1.67673 Y-0.86357
G01 X-1.68346 Y-0.86234
G01 X-1.69052 Y-0.85992
G01 X-1.69726 Y-0.85644
G01 X-2.03313 Y-0.66898
G01 X-2.04702 Y-0.66063
G01 X-2.05929 Y-0.65144
G01 X-2.07095 Y-0.64067
G01 X-2.08109 Y-0.62913
G01 X-2.09053 Y-0.61579
G01 X-2.09803 Y-0.60242
G01 X-2.10395 Y-0.58882
G01 X-2.10839 Y-0.57517
G01 X-2.11167 Y-0.56018
G01 X-2.11341 Y-0.54493
G01 X-2.11359 Y-0.52958
G01 X-2.11206 Y-0.51329
G01 X-2.10891 Y-0.49775
G01 X-2.10517 Y-0.48561
G01 X-2.10448 Y-0.48390
G01 X-2.10404 Y-0.48206
G01 X-1.99954 Y-0.14608
G01 X-1.99814 Y-0.14207
G01 X-1.99617 Y-0.13728
G01 X-1.99535 Y-0.13571
G01 X-1.99194 Y-0.13039
G01 X-1.99092 Y-0.12906
G01 X-1.98727 Y-0.12506
G01 X-1.98604 Y-0.12393
G01 X-1.98104 Y-0.12006
G01 X-1.97953 Y-0.11909
G01 X-1.97391 Y-0.11619
G01 X-1.97224 Y-0.11552
G01 X-1.96619 Y-0.11370
G01 X-1.96444 Y-0.11334
G01 X-1.95903 Y-0.11274
G01 X-1.95471 Y-0.11255
G01 X-0.28106 Y-0.11255
G01 X-0.27677 Y-0.11274
G01 X-0.27164 Y-0.11326
G01 X-0.27000 Y-0.11357
G01 X-0.26485 Y-0.11501
G01 X-0.26326 Y-0.11560
G01 X-0.25759 Y-0.11831
G01 X-0.25601 Y-0.11925
G01 X-0.25019 Y-0.12359
G01 X-0.24465 Y-0.12962
G01 X-0.24355 Y-0.13108
G01 X-0.24075 Y-0.13565
G01 X-0.24000 Y-0.13715
G01 X-0.23800 Y-0.14218
G01 X-0.13213 Y-0.48221
G01 X-0.13166 Y-0.48415
G01 X-0.13102 Y-0.48580
G01 X-0.12715 Y-0.49911
G01 X-0.12457 Y-0.51271
G01 X-0.12310 Y-0.52946
G04 P0 ( dwell for no time -- G64 should not smooth over this point )
G00 Z0.01181 ( retract )

G00 X-0.31269 Y-0.22334 ( rapid move to begin. )
G01 F12.59843
( Mill infeed pass 1/1 )
G01 Z-0.00200
G04 P0 ( dwell for no time -- G64 should not smooth over this point )
G01 F31.49606
G01 X-0.31269 Y-0.22334
G01 X-0.31269 Y-0.17036
G01 X-0.31308 Y-0.16657
G01 X-0.31513 Y-0.16039
G01 X-0.31854 Y-0.15486
G01 X-0.32313 Y-0.15026
G01 X-0.32865 Y-0.14684
G01 X-0.33483 Y-0.14478
G01 X-0.33867 Y-0.14438
G01 X-0.36999 Y-0.14438
G01 X-0.37378 Y-0.14477
G01 X-0.37996 Y-0.14682
G01 X-0.38550 Y-0.15023
G01 X-0.39010 Y-0.15482
G01 X-0.39189 Y-0.15759
G01 X-0.39446 Y-0.15947
G01 X-0.39552 Y-0.15984
G01 X-0.39831 Y-0.15998
G01 X-0.39941 Y-0.15971
G01 X-0.40207 Y-0.15816
G01 X-0.40574 Y-0.15436
G01 X-0.41222 Y-0.14976
G01 X-0.41945 Y-0.14647
G01 X-0.42718 Y-0.14461
G01 X-0.43511 Y-0.14424
G01 X-0.44298 Y-0.14538
G01 X-0.45048 Y-0.14799
G01 X-0.45736 Y-0.15197
G01 X-0.46336 Y-0.15718
G01 X-0.46827 Y-0.16342
G01 X-0.47191 Y-0.17049
G01 X-0.47415 Y-0.17811
G01 X-0.47471 Y-0.18404
G01 X-0.47471 Y-0.21155
G01 X-0.47318 Y-0.21956
G01 X-0.47021 Y-0.22693
G01 X-0.46589 Y-0.23362
G01 X-0.46206 Y-0.23778
G01 X-0.46095 Y-0.24130
G01 X-0.46093 Y-0.34778
G01 X-0.46118 Y-0.34956
G01 X-0.46297 Y-0.35270
G01 X-0.58901 Y-0.47874
G01 X-0.59133 Y-0.48026
G01 X-0.59440 Y-0.48070
G01 X-0.59552 Y-0.48053
G01 X-0.59838 Y-0.47916
G01 X-0.59890 Y-0.47861
G01 X-0.60039 Y-0.47624
G01 X-0.60070 Y-0.47524
G01 X-0.60077 Y-0.47260
G01 X-0.60056 Y-0.47160
G01 X-0.59991 Y-0.46415
G01 X-0.60009 Y-0.46213
G01 X-0.60006 Y-0.36353
G01 X-0.59952 Y-0.36117
G01 X-0.59765 Y-0.35868
G01 X-0.59529 Y-0.35685
G01 X-0.58840 Y-0.35002
G01 X-0.58271 Y-0.34240
G01 X-0.57800 Y-0.33370
G01 X-0.57473 Y-0.32458
G01 X-0.57283 Y-0.31506
G01 X-0.57237 Y-0.30537
G01 X-0.57334 Y-0.29572
G01 X-0.57573 Y-0.28632
G01 X-0.57948 Y-0.27737
G01 X-0.58451 Y-0.26908
G01 X-0.59071 Y-0.26162
G01 X-0.59810 Y-0.25506
G01 X-0.60606 Y-0.24985
G01 X-0.61487 Y-0.24578
G01 X-0.62419 Y-0.24307
G01 X-0.63380 Y-0.24176
G01 X-0.64350 Y-0.24189
G01 X-0.65307 Y-0.24345
G01 X-0.66231 Y-0.24640
G01 X-0.67101 Y-0.25069
G01 X-0.67898 Y-0.25622
G01 X-0.68605 Y-0.26287
G01 X-0.69205 Y-0.27048
G01 X-0.69708 Y-0.27937
G01 X-0.69872 Y-0.28160
G01 X-0.70183 Y-0.28315
G01 X-0.70294 Y-0.28331
G01 X-0.70608 Y-0.28282
G01 X-0.70674 Y-0.28244
G01 X-0.70885 Y-0.28061
G01 X-0.70946 Y-0.27966
G01 X-0.71025 Y-0.27698
G01 X-0.71033 Y-0.25805
G01 X-0.71055 Y-0.25596
G01 X-0.71238 Y-0.25110
G01 X-0.71547 Y-0.24697
G01 X-0.71960 Y-0.24387
G01 X-0.72447 Y-0.24205
G01 X-0.72656 Y-0.24182
G01 X-0.82462 Y-0.24182
G01 X-0.82671 Y-0.24205
G01 X-0.83158 Y-0.24387
G01 X-0.83571 Y-0.24697
G01 X-0.83880 Y-0.25110
G01 X-0.84063 Y-0.25596
G01 X-0.84085 Y-0.25805
G01 X-0.84085 Y-0.35612
G01 X-0.84063 Y-0.35821
G01 X-0.83880 Y-0.36307
G01 X-0.83571 Y-0.36720
G01 X-0.83158 Y-0.37030
G01 X-0.82671 Y-0.37212
G01 X-0.82462 Y-0.37235
G01 X-0.82004 Y-0.37236
G01 X-0.81715 Y-0.37309
G01 X-0.81451 Y-0.37539
G01 X-0.81416 Y-0.37606
G01 X-0.81332 Y-0.37903
G01 X-0.81329 Y-0.48937
G01 X-0.81346 Y-0.49090
G01 X-0.81533 Y-0.49429
G01 X-0.92615 Y-0.60511
G01 X-0.92824 Y-0.60653
G01 X-0.93166 Y-0.60712
G01 X-0.93240 Y-0.60697
G01 X-0.93498 Y-0.60589
G01 X-0.93561 Y-0.60547
G01 X-0.93744 Y-0.60287
G01 X-0.93774 Y-0.60218
G01 X-0.93786 Y-0.59872
G01 X-0.93726 Y-0.59630
G01 X-0.93670 Y-0.58979
G01 X-0.93670 Y-0.57370
G01 X-0.93830 Y-0.56429
G01 X-0.94128 Y-0.55608
G01 X-0.94561 Y-0.54849
G01 X-0.95114 Y-0.54173
G01 X-0.95399 Y-0.53926
G01 X-0.95511 Y-0.53800
G01 X-0.95552 Y-0.53725
G01 X-0.95639 Y-0.53401
G01 X-0.95639 Y-0.24939
G01 X-0.95561 Y-0.24621
G01 X-0.95370 Y-0.24395
G01 X-0.94848 Y-0.23887
G01 X-0.94507 Y-0.23336
G01 X-0.94301 Y-0.22718
G01 X-0.94261 Y-0.22334
G01 X-0.94261 Y-0.17036
G01 X-0.94300 Y-0.16657
G01 X-0.94505 Y-0.16039
G01 X-0.94846 Y-0.15486
G01 X-0.95305 Y-0.15026
G01 X-0.95857 Y-0.14684
G01 X-0.96475 Y-0.14478
G01 X-0.96859 Y-0.14438
G01 X-0.99991 Y-0.14438
G01 X-1.00371 Y-0.14477
G01 X-1.00989 Y-0.14682
G01 X-1.01542 Y-0.15023
G01 X-1.02002 Y-0.15482
G01 X-1.02181 Y-0.15759
G01 X-1.02438 Y-0.15947
G01 X-1.02544 Y-0.15984
G01 X-1.02823 Y-0.15998
G01 X-1.02933 Y-0.15971
G01 X-1.03199 Y-0.15816
G01 X-1.03566 Y-0.15436
G01 X-1.04214 Y-0.14976
G01 X-1.04937 Y-0.14647
G01 X-1.05710 Y-0.14461
G01 X-1.06503 Y-0.14424
G01 X-1.07289 Y-0.14538
G01 X-1.08061 Y-0.14810
G01 X-1.08728 Y-0.15197
G01 X-1.09329 Y-0.15718
G01 X-1.09819 Y-0.16342
G01 X-1.10183 Y-0.17049
G01 X-1.10407 Y-0.17811
G01 X-1.10463 Y-0.18404
G01 X-1.10462 Y-0.21176
G01 X-1.10310 Y-0.21956
G01 X-1.10013 Y-0.22693
G01 X-1.09581 Y-0.23362
G01 X-1.09198 Y-0.23778
G01 X-1.09085 Y-0.24158
G01 X-1.09088 Y-0.52058
G01 X-1.09126 Y-0.52258
G01 X-1.09294 Y-0.52517
G01 X-1.09346 Y-0.52571
G01 X-1.09662 Y-0.52712
G01 X-1.09771 Y-0.52729
G01 X-1.10605 Y-0.52988
G01 X-1.11384 Y-0.53384
G01 X-1.12085 Y-0.53906
G01 X-1.12688 Y-0.54538
G01 X-1.13001 Y-0.55002
G01 X-1.13150 Y-0.55162
G01 X-1.13461 Y-0.55294
G01 X-1.13536 Y-0.55308
G01 X-1.13847 Y-0.55249
G01 X-1.13947 Y-0.55197
G01 X-1.14167 Y-0.54982
G01 X-1.14246 Y-0.54849
G01 X-1.14800 Y-0.54173
G01 X-1.15459 Y-0.53600
G01 X-1.16206 Y-0.53147
G01 X-1.17019 Y-0.52826
G01 X-1.17874 Y-0.52647
G01 X-1.18747 Y-0.52614
G01 X-1.19613 Y-0.52729
G01 X-1.19910 Y-0.52819
G01 X-1.20189 Y-0.52833
G01 X-1.20293 Y-0.52809
G01 X-1.20538 Y-0.52675
G01 X-1.23782 Y-0.49443
G01 X-1.23884 Y-0.49312
G01 X-1.23977 Y-0.49007
G01 X-1.23985 Y-0.24939
G01 X-1.23907 Y-0.24621
G01 X-1.23717 Y-0.24395
G01 X-1.23194 Y-0.23887
G01 X-1.22853 Y-0.23336
G01 X-1.22647 Y-0.22718
G01 X-1.22607 Y-0.22334
G01 X-1.22607 Y-0.17036
G01 X-1.22646 Y-0.16657
G01 X-1.22851 Y-0.16039
G01 X-1.23192 Y-0.15486
G01 X-1.23651 Y-0.15026
G01 X-1.24204 Y-0.14684
G01 X-1.24821 Y-0.14478
G01 X-1.25205 Y-0.14438
G01 X-1.28338 Y-0.14438
G01 X-1.28717 Y-0.14477
G01 X-1.29335 Y-0.14682
G01 X-1.29888 Y-0.15023
G01 X-1.30349 Y-0.15482
G01 X-1.30528 Y-0.15759
G01 X-1.30784 Y-0.15947
G01 X-1.30890 Y-0.15984
G01 X-1.31170 Y-0.15998
G01 X-1.31279 Y-0.15971
G01 X-1.31545 Y-0.15816
G01 X-1.31912 Y-0.15436
G01 X-1.32560 Y-0.14976
G01 X-1.33284 Y-0.14647
G01 X-1.34056 Y-0.14461
G01 X-1.34850 Y-0.14424
G01 X-1.35636 Y-0.14538
G01 X-1.36387 Y-0.14799
G01 X-1.37075 Y-0.15197
G01 X-1.37675 Y-0.15718
G01 X-1.38166 Y-0.16342
G01 X-1.38529 Y-0.17049
G01 X-1.38753 Y-0.17811
G01 X-1.38810 Y-0.18404
G01 X-1.38810 Y-0.21155
G01 X-1.38656 Y-0.21956
G01 X-1.38359 Y-0.22693
G01 X-1.37928 Y-0.23362
G01 X-1.37545 Y-0.23778
G01 X-1.37432 Y-0.24158
G01 X-1.37440 Y-0.52225
G01 X-1.37306 Y-0.52862
G01 X-1.36986 Y-0.53517
G01 X-1.36556 Y-0.54023
G01 X-1.36429 Y-0.54125
G01 X-1.33699 Y-0.56856
G01 X-1.33596 Y-0.56987
G01 X-1.33495 Y-0.57348
G01 X-1.33496 Y-0.58740
G01 X-1.33509 Y-0.58810
G01 X-1.33606 Y-0.59072
G01 X-1.33646 Y-0.59137
G01 X-1.33898 Y-0.59330
G01 X-1.34003 Y-0.59369
G01 X-1.34282 Y-0.59389
G01 X-1.34392 Y-0.59365
G01 X-1.34683 Y-0.59197
G01 X-1.53703 Y-0.40177
G01 X-1.53811 Y-0.40034
G01 X-1.53907 Y-0.39685
G01 X-1.53906 Y-0.26118
G01 X-1.53890 Y-0.25987
G01 X-1.53732 Y-0.25679
G01 X-1.53453 Y-0.25383
G01 X-1.52965 Y-0.24658
G01 X-1.52607 Y-0.23862
G01 X-1.52387 Y-0.23016
G01 X-1.52332 Y-0.22365
G01 X-1.52332 Y-0.20756
G01 X-1.52492 Y-0.19815
G01 X-1.52790 Y-0.18994
G01 X-1.53222 Y-0.18235
G01 X-1.53776 Y-0.17559
G01 X-1.54436 Y-0.16986
G01 X-1.55183 Y-0.16533
G01 X-1.55995 Y-0.16212
G01 X-1.56760 Y-0.16052
G01 X-1.56851 Y-0.16033
G01 X-1.57724 Y-0.16000
G01 X-1.58590 Y-0.16115
G01 X-1.59424 Y-0.16374
G01 X-1.60203 Y-0.16770
G01 X-1.60904 Y-0.17292
G01 X-1.61507 Y-0.17924
G01 X-1.61820 Y-0.18388
G01 X-1.61969 Y-0.18548
G01 X-1.62280 Y-0.18680
G01 X-1.62354 Y-0.18694
G01 X-1.62666 Y-0.18635
G01 X-1.62766 Y-0.18583
G01 X-1.62986 Y-0.18368
G01 X-1.63064 Y-0.18235
G01 X-1.63618 Y-0.17559
G01 X-1.64278 Y-0.16986
G01 X-1.65025 Y-0.16533
G01 X-1.65838 Y-0.16212
G01 X-1.66602 Y-0.16052
G01 X-1.66693 Y-0.16033
G01 X-1.67566 Y-0.16000
G01 X-1.68432 Y-0.16115
G01 X-1.69247 Y-0.16368
G01 X-1.70046 Y-0.16770
G01 X-1.70747 Y-0.17292
G01 X-1.71350 Y-0.17924
G01 X-1.71662 Y-0.18388
G01 X-1.71811 Y-0.18548
G01 X-1.72123 Y-0.18680
G01 X-1.72197 Y-0.18694
G01 X-1.72509 Y-0.18635
G01 X-1.72609 Y-0.18583
G01 X-1.72829 Y-0.18368
G01 X-1.72907 Y-0.18235
G01 X-1.73461 Y-0.17559
G01 X-1.74121 Y-0.16986
G01 X-1.74868 Y-0.16533
G01 X-1.75680 Y-0.16212
G01 X-1.76536 Y-0.16033
G01 X-1.77409 Y-0.16000
G01 X-1.78275 Y-0.16115
G01 X-1.79109 Y-0.16374
G01 X-1.79888 Y-0.16770
G01 X-1.80589 Y-0.17292
G01 X-1.81068 Y-0.17786
G01 X-1.81369 Y-0.17924
G01 X-1.81443 Y-0.17941
G01 X-1.81794 Y-0.17884
G01 X-1.81859 Y-0.17845
G01 X-1.82066 Y-0.17658
G01 X-1.82444 Y-0.17061
G01 X-1.82903 Y-0.16601
G01 X-1.83456 Y-0.16259
G01 X-1.84073 Y-0.16053
G01 X-1.84458 Y-0.16013
G01 X-1.89558 Y-0.16013
G01 X-1.89938 Y-0.16052
G01 X-1.90556 Y-0.16257
G01 X-1.91108 Y-0.16598
G01 X-1.91568 Y-0.17057
G01 X-1.91910 Y-0.17609
G01 X-1.92116 Y-0.18227
G01 X-1.92156 Y-0.18611
G01 X-1.92156 Y-0.24696
G01 X-1.92117 Y-0.25075
G01 X-1.91912 Y-0.25693
G01 X-1.91571 Y-0.26248
G01 X-1.91090 Y-0.26749
G01 X-1.90977 Y-0.27103
G01 X-1.90975 Y-0.35417
G01 X-1.90993 Y-0.35642
G01 X-1.90910 Y-0.36419
G01 X-1.90703 Y-0.37085
G01 X-1.90353 Y-0.37737
G01 X-1.89854 Y-0.38338
G01 X-1.89698 Y-0.38468
G01 X-1.58403 Y-0.69763
G01 X-1.58323 Y-0.69862
G01 X-1.58286 Y-0.69931
G01 X-1.58200 Y-0.70256
G01 X-1.58200 Y-0.72108
G01 X-1.58253 Y-0.72367
G01 X-1.58296 Y-0.72452
G01 X-1.58468 Y-0.72652
G01 X-1.58990 Y-0.73160
G01 X-1.59332 Y-0.73711
G01 X-1.59538 Y-0.74329
G01 X-1.59577 Y-0.74713
G01 X-1.59577 Y-0.80798
G01 X-1.59539 Y-0.81178
G01 X-1.59334 Y-0.81796
G01 X-1.58993 Y-0.82349
G01 X-1.58534 Y-0.82808
G01 X-1.57981 Y-0.83150
G01 X-1.57364 Y-0.83357
G01 X-1.56979 Y-0.83396
G01 X-1.51879 Y-0.83396
G01 X-1.51499 Y-0.83357
G01 X-1.50881 Y-0.83152
G01 X-1.50328 Y-0.82812
G01 X-1.49868 Y-0.82352
G01 X-1.49450 Y-0.81698
G01 X-1.49164 Y-0.81514
G01 X-1.49055 Y-0.81485
G01 X-1.48775 Y-0.81492
G01 X-1.48668 Y-0.81527
G01 X-1.48415 Y-0.81702
G01 X-1.48291 Y-0.81850
G01 X-1.47631 Y-0.82423
G01 X-1.46884 Y-0.82876
G01 X-1.46071 Y-0.83197
G01 X-1.45216 Y-0.83376
G01 X-1.44343 Y-0.83409
G01 X-1.43477 Y-0.83294
G01 X-1.42643 Y-0.83035
G01 X-1.41864 Y-0.82639
G01 X-1.41163 Y-0.82118
G01 X-1.40560 Y-0.81486
G01 X-1.40247 Y-0.81021
G01 X-1.40098 Y-0.80861
G01 X-1.39787 Y-0.80729
G01 X-1.39712 Y-0.80716
G01 X-1.39400 Y-0.80774
G01 X-1.39301 Y-0.80826
G01 X-1.39080 Y-0.81042
G01 X-1.39002 Y-0.81175
G01 X-1.38448 Y-0.81850
G01 X-1.37788 Y-0.82423
G01 X-1.37041 Y-0.82876
G01 X-1.36229 Y-0.83197
G01 X-1.35374 Y-0.83376
G01 X-1.34501 Y-0.83409
G01 X-1.33634 Y-0.83294
G01 X-1.32800 Y-0.83035
G01 X-1.32021 Y-0.82639
G01 X-1.31320 Y-0.82118
G01 X-1.30717 Y-0.81486
G01 X-1.30404 Y-0.81021
G01 X-1.30277 Y-0.80881
G01 X-1.30204 Y-0.80832
G01 X-1.29944 Y-0.80729
G01 X-1.29870 Y-0.80716
G01 X-1.29558 Y-0.80774
G01 X-1.29458 Y-0.80826
G01 X-1.29238 Y-0.81042
G01 X-1.29160 Y-0.81175
G01 X-1.28606 Y-0.81850
G01 X-1.27946 Y-0.82423
G01 X-1.27199 Y-0.82876
G01 X-1.26386 Y-0.83197
G01 X-1.25531 Y-0.83376
G01 X-1.24658 Y-0.83409
G01 X-1.23792 Y-0.83294
G01 X-1.22958 Y-0.83035
G01 X-1.22179 Y-0.82639
G01 X-1.21478 Y-0.82118
G01 X-1.20875 Y-0.81486
G01 X-1.20387 Y-0.80761
G01 X-1.20028 Y-0.79964
G01 X-1.19808 Y-0.79119
G01 X-1.19753 Y-0.78468
G01 X-1.19758 Y-0.76777
G01 X-1.19913 Y-0.75918
G01 X-1.20211 Y-0.75096
G01 X-1.20643 Y-0.74337
G01 X-1.21074 Y-0.73803
G01 X-1.21181 Y-0.73582
G01 X-1.21419 Y-0.72818
G01 X-1.21775 Y-0.72170
G01 X-1.22252 Y-0.71603
G01 X-1.22408 Y-0.71473
G01 X-1.28784 Y-0.65096
G01 X-1.28821 Y-0.65045
G01 X-1.28980 Y-0.64707
G01 X-1.28932 Y-0.64333
G01 X-1.28894 Y-0.64267
G01 X-1.28683 Y-0.64030
G01 X-1.28616 Y-0.63995
G01 X-1.28320 Y-0.63910
G01 X-1.25796 Y-0.63908
G01 X-1.25417 Y-0.63869
G01 X-1.24799 Y-0.63664
G01 X-1.24246 Y-0.63323
G01 X-1.23785 Y-0.62864
G01 X-1.23367 Y-0.62209
G01 X-1.23081 Y-0.62025
G01 X-1.22972 Y-0.61997
G01 X-1.22693 Y-0.62004
G01 X-1.22585 Y-0.62039
G01 X-1.22332 Y-0.62214
G01 X-1.22208 Y-0.62362
G01 X-1.21548 Y-0.62935
G01 X-1.20801 Y-0.63388
G01 X-1.19989 Y-0.63709
G01 X-1.19134 Y-0.63888
G01 X-1.18260 Y-0.63921
G01 X-1.17394 Y-0.63806
G01 X-1.16560 Y-0.63547
G01 X-1.15781 Y-0.63151
G01 X-1.15080 Y-0.62630
G01 X-1.14477 Y-0.61998
G01 X-1.14164 Y-0.61533
G01 X-1.14015 Y-0.61373
G01 X-1.13704 Y-0.61241
G01 X-1.13630 Y-0.61227
G01 X-1.13318 Y-0.61286
G01 X-1.13218 Y-0.61338
G01 X-1.12998 Y-0.61553
G01 X-1.12920 Y-0.61686
G01 X-1.12366 Y-0.62362
G01 X-1.11706 Y-0.62935
G01 X-1.10959 Y-0.63388
G01 X-1.10165 Y-0.63701
G01 X-1.09291 Y-0.63888
G01 X-1.08418 Y-0.63921
G01 X-1.07552 Y-0.63806
G01 X-1.06717 Y-0.63547
G01 X-1.05939 Y-0.63151
G01 X-1.05238 Y-0.62630
G01 X-1.04635 Y-0.61998
G01 X-1.04322 Y-0.61533
G01 X-1.04195 Y-0.61393
G01 X-1.04122 Y-0.61343
G01 X-1.03862 Y-0.61241
G01 X-1.03787 Y-0.61227
G01 X-1.03475 Y-0.61286
G01 X-1.03375 Y-0.61338
G01 X-1.03155 Y-0.61553
G01 X-1.03077 Y-0.61686
G01 X-1.02523 Y-0.62362
G01 X-1.01863 Y-0.62935
G01 X-1.01116 Y-0.63388
G01 X-1.00304 Y-0.63709
G01 X-0.99448 Y-0.63888
G01 X-0.98575 Y-0.63921
G01 X-0.97503 Y-0.63798
G01 X-0.97210 Y-0.63904
G01 X-0.97145 Y-0.63944
G01 X-0.96932 Y-0.64228
G01 X-0.96913 Y-0.64301
G01 X-0.96894 Y-0.64618
G01 X-0.96917 Y-0.64690
G01 X-0.97085 Y-0.64981
G01 X-1.01728 Y-0.69625
G01 X-1.01900 Y-0.69770
G01 X-1.02368 Y-0.70344
G01 X-1.02731 Y-0.71035
G01 X-1.02929 Y-0.71705
G01 X-1.02974 Y-0.72169
G01 X-1.03038 Y-0.72397
G01 X-1.03252 Y-0.72652
G01 X-1.03774 Y-0.73160
G01 X-1.04115 Y-0.73711
G01 X-1.04321 Y-0.74329
G01 X-1.04361 Y-0.74713
G01 X-1.04361 Y-0.80798
G01 X-1.04322 Y-0.81178
G01 X-1.04117 Y-0.81796
G01 X-1.03776 Y-0.82349
G01 X-1.03317 Y-0.82808
G01 X-1.02765 Y-0.83150
G01 X-1.02147 Y-0.83357
G01 X-1.01763 Y-0.83396
G01 X-0.96662 Y-0.83396
G01 X-0.96283 Y-0.83357
G01 X-0.95665 Y-0.83152
G01 X-0.95112 Y-0.82812
G01 X-0.94651 Y-0.82352
G01 X-0.94233 Y-0.81698
G01 X-0.93947 Y-0.81514
G01 X-0.93838 Y-0.81485
G01 X-0.93559 Y-0.81492
G01 X-0.93451 Y-0.81527
G01 X-0.93198 Y-0.81702
G01 X-0.93074 Y-0.81850
G01 X-0.92414 Y-0.82423
G01 X-0.91668 Y-0.82876
G01 X-0.90835 Y-0.83201
G01 X-0.90000 Y-0.83376
G01 X-0.89127 Y-0.83409
G01 X-0.88260 Y-0.83294
G01 X-0.87426 Y-0.83035
G01 X-0.86647 Y-0.82639
G01 X-0.85946 Y-0.82118
G01 X-0.85343 Y-0.81486
G01 X-0.85030 Y-0.81021
G01 X-0.84881 Y-0.80861
G01 X-0.84570 Y-0.80729
G01 X-0.84496 Y-0.80716
G01 X-0.84184 Y-0.80774
G01 X-0.84084 Y-0.80826
G01 X-0.83864 Y-0.81042
G01 X-0.83786 Y-0.81175
G01 X-0.83232 Y-0.81850
G01 X-0.82572 Y-0.82423
G01 X-0.81825 Y-0.82876
G01 X-0.81012 Y-0.83197
G01 X-0.80157 Y-0.83376
G01 X-0.79284 Y-0.83409
G01 X-0.78418 Y-0.83294
G01 X-0.77584 Y-0.83035
G01 X-0.76805 Y-0.82639
G01 X-0.76104 Y-0.82118
G01 X-0.75501 Y-0.81486
G01 X-0.75188 Y-0.81021
G01 X-0.75061 Y-0.80881
G01 X-0.74988 Y-0.80832
G01 X-0.74728 Y-0.80729
G01 X-0.74653 Y-0.80716
G01 X-0.74341 Y-0.80774
G01 X-0.74242 Y-0.80826
G01 X-0.74021 Y-0.81042
G01 X-0.73943 Y-0.81175
G01 X-0.73389 Y-0.81850
G01 X-0.72729 Y-0.82423
G01 X-0.71982 Y-0.82876
G01 X-0.71170 Y-0.83197
G01 X-0.70315 Y-0.83376
G01 X-0.69442 Y-0.83409
G01 X-0.68575 Y-0.83294
G01 X-0.67741 Y-0.83035
G01 X-0.66962 Y-0.82639
G01 X-0.66261 Y-0.82118
G01 X-0.65658 Y-0.81486
G01 X-0.65170 Y-0.80761
G01 X-0.64811 Y-0.79964
G01 X-0.64592 Y-0.79119
G01 X-0.64537 Y-0.78468
G01 X-0.64541 Y-0.76777
G01 X-0.64696 Y-0.75918
G01 X-0.64994 Y-0.75096
G01 X-0.65427 Y-0.74337
G01 X-0.65981 Y-0.73661
G01 X-0.66653 Y-0.73078
G01 X-0.66770 Y-0.72949
G01 X-0.66812 Y-0.72872
G01 X-0.66891 Y-0.72604
G01 X-0.66898 Y-0.70318
G01 X-0.66878 Y-0.70175
G01 X-0.66714 Y-0.69869
G01 X-0.33275 Y-0.36440
G01 X-0.32920 Y-0.35895
G01 X-0.32683 Y-0.35205
G01 X-0.32629 Y-0.34544
G01 X-0.32647 Y-0.34382
G01 X-0.32645 Y-0.24917
G01 X-0.32569 Y-0.24621
G01 X-0.32378 Y-0.24395
G01 X-0.31856 Y-0.23887
G01 X-0.31515 Y-0.23336
G01 X-0.31309 Y-0.22718
G01 X-0.31269 Y-0.22334
G01 X-0.31464 Y-0.22323
G01 X-0.31464 Y-0.17046
G01 X-0.31499 Y-0.16698
G01 X-0.31690 Y-0.16121
G01 X-0.32007 Y-0.15607
G01 X-0.32434 Y-0.15179
G01 X-0.32948 Y-0.14861
G01 X-0.33524 Y-0.14669
G01 X-0.33877 Y-0.14633
G01 X-0.36989 Y-0.14633
G01 X-0.37338 Y-0.14667
G01 X-0.37914 Y-0.14859
G01 X-0.38428 Y-0.15176
G01 X-0.38857 Y-0.15605
G01 X-0.39047 Y-0.15893
G01 X-0.39397 Y-0.16143
G01 X-0.39542 Y-0.16179
G01 X-0.39896 Y-0.16189
G01 X-0.40038 Y-0.16141
G01 X-0.40327 Y-0.15970
G01 X-0.40701 Y-0.15584
G01 X-0.41319 Y-0.15145
G01 X-0.42009 Y-0.14832
G01 X-0.42745 Y-0.14654
G01 X-0.43502 Y-0.14620
G01 X-0.44251 Y-0.14729
G01 X-0.44967 Y-0.14977
G01 X-0.45622 Y-0.15356
G01 X-0.46194 Y-0.15853
G01 X-0.46662 Y-0.16448
G01 X-0.47009 Y-0.17122
G01 X-0.47222 Y-0.17848
G01 X-0.47276 Y-0.18413
G01 X-0.47276 Y-0.21136
G01 X-0.47130 Y-0.21901
G01 X-0.46847 Y-0.22602
G01 X-0.46434 Y-0.23241
G01 X-0.46044 Y-0.23669
G01 X-0.45993 Y-0.23779
G01 X-0.45902 Y-0.24102
G01 X-0.45898 Y-0.34778
G01 X-0.45936 Y-0.35026
G01 X-0.46092 Y-0.35318
G01 X-0.46159 Y-0.35408
G01 X-0.58763 Y-0.48012
G01 X-0.59019 Y-0.48191
G01 X-0.59137 Y-0.48226
G01 X-0.59414 Y-0.48264
G01 X-0.59563 Y-0.48255
G01 X-0.59952 Y-0.48074
G01 X-0.60055 Y-0.47965
G01 X-0.60204 Y-0.47729
G01 X-0.60236 Y-0.47667
G01 X-0.60265 Y-0.47530
G01 X-0.60271 Y-0.47242
G01 X-0.60249 Y-0.47130
G01 X-0.60187 Y-0.46416
G01 X-0.60204 Y-0.46213
G01 X-0.60198 Y-0.36318
G01 X-0.60165 Y-0.36140
G01 X-0.60124 Y-0.36024
G01 X-0.59920 Y-0.35750
G01 X-0.59840 Y-0.35671
G01 X-0.59656 Y-0.35536
G01 X-0.58987 Y-0.34874
G01 X-0.58435 Y-0.34134
G01 X-0.57979 Y-0.33291
G01 X-0.57661 Y-0.32405
G01 X-0.57477 Y-0.31482
G01 X-0.57432 Y-0.30542
G01 X-0.57526 Y-0.29606
G01 X-0.57758 Y-0.28694
G01 X-0.58122 Y-0.27826
G01 X-0.58610 Y-0.27021
G01 X-0.59212 Y-0.26298
G01 X-0.59929 Y-0.25661
G01 X-0.60701 Y-0.25155
G01 X-0.61556 Y-0.24761
G01 X-0.62459 Y-0.24498
G01 X-0.63392 Y-0.24371
G01 X-0.64333 Y-0.24384
G01 X-0.65261 Y-0.24535
G01 X-0.66158 Y-0.24822
G01 X-0.67002 Y-0.25238
G01 X-0.67775 Y-0.25775
G01 X-0.68460 Y-0.26419
G01 X-0.69042 Y-0.27158
G01 X-0.69538 Y-0.28033
G01 X-0.69736 Y-0.28300
G01 X-0.69847 Y-0.28376
G01 X-0.70102 Y-0.28492
G01 X-0.70173 Y-0.28517
G01 X-0.70322 Y-0.28524
G01 X-0.70599 Y-0.28484
G01 X-0.70740 Y-0.28435
G01 X-0.71064 Y-0.28154
G01 X-0.71133 Y-0.28021
G01 X-0.71212 Y-0.27753
G01 X-0.71228 Y-0.27642
G01 X-0.71226 Y-0.25816
G01 X-0.71247 Y-0.25642
G01 X-0.71408 Y-0.25203
G01 X-0.71685 Y-0.24835
G01 X-0.72054 Y-0.24558
G01 X-0.72492 Y-0.24393
G01 X-0.72667 Y-0.24377
G01 X-0.82452 Y-0.24375
G01 X-0.82625 Y-0.24396
G01 X-0.83064 Y-0.24557
G01 X-0.83433 Y-0.24835
G01 X-0.83710 Y-0.25203
G01 X-0.83871 Y-0.25642
G01 X-0.83892 Y-0.25816
G01 X-0.83892 Y-0.35601
G01 X-0.83871 Y-0.35775
G01 X-0.83710 Y-0.36214
G01 X-0.83433 Y-0.36582
G01 X-0.83064 Y-0.36859
G01 X-0.82626 Y-0.37023
G01 X-0.82451 Y-0.37040
G01 X-0.81983 Y-0.37042
G01 X-0.81736 Y-0.37094
G01 X-0.81614 Y-0.37142
G01 X-0.81297 Y-0.37418
G01 X-0.81229 Y-0.37552
G01 X-0.81138 Y-0.37875
G01 X-0.81134 Y-0.48937
G01 X-0.81157 Y-0.49136
G01 X-0.81328 Y-0.49477
G01 X-0.81395 Y-0.49567
G01 X-0.92477 Y-0.60649
G01 X-0.92656 Y-0.60785
G01 X-0.92761 Y-0.60838
G01 X-0.93169 Y-0.60907
G01 X-0.93315 Y-0.60877
G01 X-0.93639 Y-0.60733
G01 X-0.93746 Y-0.60628
G01 X-0.93904 Y-0.60398
G01 X-0.93964 Y-0.60261
G01 X-0.93980 Y-0.59851
G01 X-0.93919 Y-0.59597
G01 X-0.93865 Y-0.58971
G01 X-0.93865 Y-0.57375
G01 X-0.94019 Y-0.56480
G01 X-0.94305 Y-0.55690
G01 X-0.94721 Y-0.54959
G01 X-0.95255 Y-0.54310
G01 X-0.95527 Y-0.54074
G01 X-0.95693 Y-0.53882
G01 X-0.95739 Y-0.53780
G01 X-0.95818 Y-0.53512
G01 X-0.95834 Y-0.53401
G01 X-0.95834 Y-0.24939
G01 X-0.95776 Y-0.24637
G01 X-0.95728 Y-0.24520
G01 X-0.95506 Y-0.24255
G01 X-0.95001 Y-0.23764
G01 X-0.94684 Y-0.23253
G01 X-0.94490 Y-0.22677
G01 X-0.94456 Y-0.22323
G01 X-0.94456 Y-0.17046
G01 X-0.94489 Y-0.16698
G01 X-0.94682 Y-0.16121
G01 X-0.94999 Y-0.15607
G01 X-0.95426 Y-0.15179
G01 X-0.95940 Y-0.14861
G01 X-0.96516 Y-0.14667
G01 X-0.96869 Y-0.14633
G01 X-0.99981 Y-0.14633
G01 X-1.00330 Y-0.14666
G01 X-1.00906 Y-0.14859
G01 X-1.01421 Y-0.15176
G01 X-1.01849 Y-0.15605
G01 X-1.02039 Y-0.15893
G01 X-1.02324 Y-0.16106
G01 X-1.02460 Y-0.16168
G01 X-1.02814 Y-0.16193
G01 X-1.02962 Y-0.16172
G01 X-1.03319 Y-0.15970
G01 X-1.03693 Y-0.15584
G01 X-1.04311 Y-0.15145
G01 X-1.05001 Y-0.14832
G01 X-1.05737 Y-0.14654
G01 X-1.06494 Y-0.14620
G01 X-1.07242 Y-0.14729
G01 X-1.07978 Y-0.14988
G01 X-1.08614 Y-0.15356
G01 X-1.09186 Y-0.15853
G01 X-1.09654 Y-0.16448
G01 X-1.10001 Y-0.17122
G01 X-1.10214 Y-0.17848
G01 X-1.10268 Y-0.18413
G01 X-1.10267 Y-0.21157
G01 X-1.10122 Y-0.21900
G01 X-1.09839 Y-0.22602
G01 X-1.09426 Y-0.23241
G01 X-1.09036 Y-0.23669
G01 X-1.08985 Y-0.23779
G01 X-1.08906 Y-0.24047
G01 X-1.08890 Y-0.24158
G01 X-1.08894 Y-0.52087
G01 X-1.08949 Y-0.52341
G01 X-1.09130 Y-0.52624
G01 X-1.09235 Y-0.52731
G01 X-1.09609 Y-0.52900
G01 X-1.09729 Y-0.52920
G01 X-1.10532 Y-0.53170
G01 X-1.11281 Y-0.53551
G01 X-1.11955 Y-0.54052
G01 X-1.12536 Y-0.54661
G01 X-1.12839 Y-0.55112
G01 X-1.13028 Y-0.55315
G01 X-1.13129 Y-0.55373
G01 X-1.13390 Y-0.55476
G01 X-1.13537 Y-0.55503
G01 X-1.13958 Y-0.55419
G01 X-1.14083 Y-0.55338
G01 X-1.14322 Y-0.55102
G01 X-1.14407 Y-0.54960
G01 X-1.14939 Y-0.54309
G01 X-1.15575 Y-0.53758
G01 X-1.16293 Y-0.53322
G01 X-1.17075 Y-0.53013
G01 X-1.17898 Y-0.52841
G01 X-1.18738 Y-0.52810
G01 X-1.19571 Y-0.52920
G01 X-1.19877 Y-0.53012
G01 X-1.20252 Y-0.53025
G01 X-1.20387 Y-0.52980
G01 X-1.20632 Y-0.52846
G01 X-1.20722 Y-0.52779
G01 X-1.23920 Y-0.49581
G01 X-1.24057 Y-0.49402
G01 X-1.24165 Y-0.49063
G01 X-1.24181 Y-0.48951
G01 X-1.24181 Y-0.24939
G01 X-1.24122 Y-0.24637
G01 X-1.24074 Y-0.24520
G01 X-1.23853 Y-0.24255
G01 X-1.23347 Y-0.23764
G01 X-1.23030 Y-0.23253
G01 X-1.22837 Y-0.22677
G01 X-1.22803 Y-0.22323
G01 X-1.22802 Y-0.17046
G01 X-1.22837 Y-0.16698
G01 X-1.23028 Y-0.16121
G01 X-1.23345 Y-0.15607
G01 X-1.23772 Y-0.15179
G01 X-1.24287 Y-0.14861
G01 X-1.24863 Y-0.14669
G01 X-1.25216 Y-0.14633
G01 X-1.28328 Y-0.14633
G01 X-1.28676 Y-0.14667
G01 X-1.29252 Y-0.14859
G01 X-1.29767 Y-0.15176
G01 X-1.30195 Y-0.15605
G01 X-1.30386 Y-0.15893
G01 X-1.30736 Y-0.16143
G01 X-1.30881 Y-0.16179
G01 X-1.31235 Y-0.16189
G01 X-1.31377 Y-0.16141
G01 X-1.31666 Y-0.15970
G01 X-1.32040 Y-0.15584
G01 X-1.32658 Y-0.15145
G01 X-1.33347 Y-0.14832
G01 X-1.34084 Y-0.14654
G01 X-1.34840 Y-0.14620
G01 X-1.35590 Y-0.14729
G01 X-1.36305 Y-0.14977
G01 X-1.36961 Y-0.15356
G01 X-1.37533 Y-0.15853
G01 X-1.38001 Y-0.16448
G01 X-1.38347 Y-0.17122
G01 X-1.38561 Y-0.17848
G01 X-1.38614 Y-0.18413
G01 X-1.38614 Y-0.21136
G01 X-1.38468 Y-0.21901
G01 X-1.38185 Y-0.22602
G01 X-1.37773 Y-0.23241
G01 X-1.37383 Y-0.23669
G01 X-1.37331 Y-0.23779
G01 X-1.37252 Y-0.24047
G01 X-1.37237 Y-0.24159
G01 X-1.37246 Y-0.52215
G01 X-1.37119 Y-0.52808
G01 X-1.36830 Y-0.53402
G01 X-1.36420 Y-0.53882
G01 X-1.36291 Y-0.53987
G01 X-1.33561 Y-0.56718
G01 X-1.33466 Y-0.56832
G01 X-1.33394 Y-0.56968
G01 X-1.33316 Y-0.57236
G01 X-1.33299 Y-0.57348
G01 X-1.33301 Y-0.58741
G01 X-1.33326 Y-0.58879
G01 X-1.33456 Y-0.59208
G01 X-1.33557 Y-0.59319
G01 X-1.33780 Y-0.59486
G01 X-1.33915 Y-0.59552
G01 X-1.34268 Y-0.59584
G01 X-1.34343 Y-0.59582
G01 X-1.34486 Y-0.59537
G01 X-1.34731 Y-0.59403
G01 X-1.34821 Y-0.59335
G01 X-1.53841 Y-0.40315
G01 X-1.53989 Y-0.40113
G01 X-1.54086 Y-0.39797
G01 X-1.54102 Y-0.39685
G01 X-1.54100 Y-0.26100
G01 X-1.54077 Y-0.25932
G01 X-1.53921 Y-0.25614
G01 X-1.53855 Y-0.25522
G01 X-1.53606 Y-0.25261
G01 X-1.53136 Y-0.24564
G01 X-1.52791 Y-0.23797
G01 X-1.52579 Y-0.22983
G01 X-1.52527 Y-0.22357
G01 X-1.52526 Y-0.20761
G01 X-1.52680 Y-0.19866
G01 X-1.52967 Y-0.19076
G01 X-1.53383 Y-0.18345
G01 X-1.53916 Y-0.17695
G01 X-1.54551 Y-0.17144
G01 X-1.55270 Y-0.16708
G01 X-1.56052 Y-0.16399
G01 X-1.56800 Y-0.16242
G01 X-1.56874 Y-0.16227
G01 X-1.57714 Y-0.16196
G01 X-1.58548 Y-0.16306
G01 X-1.59350 Y-0.16556
G01 X-1.60100 Y-0.16936
G01 X-1.60774 Y-0.17438
G01 X-1.61354 Y-0.18046
G01 X-1.61658 Y-0.18497
G01 X-1.61847 Y-0.18701
G01 X-1.61948 Y-0.18759
G01 X-1.62208 Y-0.18862
G01 X-1.62356 Y-0.18889
G01 X-1.62705 Y-0.18827
G01 X-1.62843 Y-0.18770
G01 X-1.63141 Y-0.18487
G01 X-1.63226 Y-0.18346
G01 X-1.63759 Y-0.17695
G01 X-1.64393 Y-0.17144
G01 X-1.65112 Y-0.16708
G01 X-1.65894 Y-0.16399
G01 X-1.66717 Y-0.16227
G01 X-1.67557 Y-0.16196
G01 X-1.68390 Y-0.16306
G01 X-1.69174 Y-0.16549
G01 X-1.69943 Y-0.16937
G01 X-1.70617 Y-0.17438
G01 X-1.71197 Y-0.18046
G01 X-1.71500 Y-0.18497
G01 X-1.71690 Y-0.18701
G01 X-1.71791 Y-0.18759
G01 X-1.72051 Y-0.18862
G01 X-1.72198 Y-0.18889
G01 X-1.72619 Y-0.18805
G01 X-1.72744 Y-0.18723
G01 X-1.72983 Y-0.18487
G01 X-1.73068 Y-0.18346
G01 X-1.73601 Y-0.17695
G01 X-1.74236 Y-0.17144
G01 X-1.74955 Y-0.16708
G01 X-1.75737 Y-0.16399
G01 X-1.76559 Y-0.16227
G01 X-1.77399 Y-0.16196
G01 X-1.78233 Y-0.16306
G01 X-1.79035 Y-0.16556
G01 X-1.79785 Y-0.16936
G01 X-1.80460 Y-0.17439
G01 X-1.80908 Y-0.17904
G01 X-1.80989 Y-0.17969
G01 X-1.81292 Y-0.18104
G01 X-1.81438 Y-0.18136
G01 X-1.81861 Y-0.18067
G01 X-1.81989 Y-0.17990
G01 X-1.82236 Y-0.17762
G01 X-1.82597 Y-0.17182
G01 X-1.83024 Y-0.16754
G01 X-1.83538 Y-0.16436
G01 X-1.84114 Y-0.16244
G01 X-1.84468 Y-0.16208
G01 X-1.89548 Y-0.16208
G01 X-1.89897 Y-0.16241
G01 X-1.90473 Y-0.16434
G01 X-1.90987 Y-0.16751
G01 X-1.91415 Y-0.17178
G01 X-1.91734 Y-0.17692
G01 X-1.91925 Y-0.18268
G01 X-1.91961 Y-0.18621
G01 X-1.91961 Y-0.24686
G01 X-1.91926 Y-0.25034
G01 X-1.91735 Y-0.25611
G01 X-1.91416 Y-0.26128
G01 X-1.90929 Y-0.26638
G01 X-1.90875 Y-0.26752
G01 X-1.90784 Y-0.27076
G01 X-1.90780 Y-0.35417
G01 X-1.90797 Y-0.35639
G01 X-1.90718 Y-0.36379
G01 X-1.90522 Y-0.37010
G01 X-1.90190 Y-0.37627
G01 X-1.89715 Y-0.38199
G01 X-1.89560 Y-0.38330
G01 X-1.58265 Y-0.69625
G01 X-1.58171 Y-0.69739
G01 X-1.58099 Y-0.69876
G01 X-1.58020 Y-0.70144
G01 X-1.58004 Y-0.70256
G01 X-1.58004 Y-0.72108
G01 X-1.58063 Y-0.72410
G01 X-1.58110 Y-0.72527
G01 X-1.58307 Y-0.72766
G01 X-1.58838 Y-0.73282
G01 X-1.59155 Y-0.73794
G01 X-1.59348 Y-0.74370
G01 X-1.59382 Y-0.74723
G01 X-1.59382 Y-0.80788
G01 X-1.59348 Y-0.81137
G01 X-1.59157 Y-0.81713
G01 X-1.58840 Y-0.82228
G01 X-1.58412 Y-0.82656
G01 X-1.57898 Y-0.82974
G01 X-1.57322 Y-0.83166
G01 X-1.56969 Y-0.83201
G01 X-1.51889 Y-0.83201
G01 X-1.51540 Y-0.83168
G01 X-1.50964 Y-0.82976
G01 X-1.50449 Y-0.82658
G01 X-1.50020 Y-0.82229
G01 X-1.49633 Y-0.81618
G01 X-1.49553 Y-0.81527
G01 X-1.49197 Y-0.81314
G01 X-1.49049 Y-0.81290
G01 X-1.48695 Y-0.81306
G01 X-1.48558 Y-0.81366
G01 X-1.48283 Y-0.81558
G01 X-1.48150 Y-0.81714
G01 X-1.47515 Y-0.82264
G01 X-1.46797 Y-0.82701
G01 X-1.46015 Y-0.83009
G01 X-1.45192 Y-0.83182
G01 X-1.44352 Y-0.83214
G01 X-1.43519 Y-0.83104
G01 X-1.42716 Y-0.82854
G01 X-1.41967 Y-0.82473
G01 X-1.41292 Y-0.81972
G01 X-1.40712 Y-0.81363
G01 X-1.40409 Y-0.80912
G01 X-1.40220 Y-0.80708
G01 X-1.40118 Y-0.80650
G01 X-1.39858 Y-0.80548
G01 X-1.39711 Y-0.80520
G01 X-1.39290 Y-0.80604
G01 X-1.39165 Y-0.80686
G01 X-1.38926 Y-0.80922
G01 X-1.38841 Y-0.81064
G01 X-1.38308 Y-0.81714
G01 X-1.37673 Y-0.82264
G01 X-1.36954 Y-0.82701
G01 X-1.36173 Y-0.83009
G01 X-1.35350 Y-0.83182
G01 X-1.34510 Y-0.83214
G01 X-1.33676 Y-0.83104
G01 X-1.32873 Y-0.82854
G01 X-1.32124 Y-0.82473
G01 X-1.31450 Y-0.81972
G01 X-1.30869 Y-0.81363
G01 X-1.30566 Y-0.80912
G01 X-1.30377 Y-0.80708
G01 X-1.30276 Y-0.80650
G01 X-1.30016 Y-0.80548
G01 X-1.29869 Y-0.80520
G01 X-1.29448 Y-0.80604
G01 X-1.29322 Y-0.80686
G01 X-1.29084 Y-0.80922
G01 X-1.28998 Y-0.81064
G01 X-1.28465 Y-0.81714
G01 X-1.27830 Y-0.82264
G01 X-1.27112 Y-0.82701
G01 X-1.26330 Y-0.83009
G01 X-1.25507 Y-0.83182
G01 X-1.24667 Y-0.83214
G01 X-1.23834 Y-0.83104
G01 X-1.23031 Y-0.82854
G01 X-1.22282 Y-0.82473
G01 X-1.21607 Y-0.81972
G01 X-1.21027 Y-0.81363
G01 X-1.20557 Y-0.80666
G01 X-1.20212 Y-0.79899
G01 X-1.20001 Y-0.79086
G01 X-1.19948 Y-0.78460
G01 X-1.19952 Y-0.76794
G01 X-1.20101 Y-0.75969
G01 X-1.20388 Y-0.75178
G01 X-1.20804 Y-0.74448
G01 X-1.21249 Y-0.73890
G01 X-1.21368 Y-0.73640
G01 X-1.21599 Y-0.72894
G01 X-1.21937 Y-0.72281
G01 X-1.22390 Y-0.71742
G01 X-1.22546 Y-0.71611
G01 X-1.28922 Y-0.65234
G01 X-1.28996 Y-0.65132
G01 X-1.29136 Y-0.64852
G01 X-1.29173 Y-0.64738
G01 X-1.29174 Y-0.64619
G01 X-1.29116 Y-0.64269
G01 X-1.29042 Y-0.64139
G01 X-1.28804 Y-0.63876
G01 X-1.28671 Y-0.63808
G01 X-1.28348 Y-0.63717
G01 X-1.25806 Y-0.63713
G01 X-1.25457 Y-0.63678
G01 X-1.24881 Y-0.63487
G01 X-1.24367 Y-0.63170
G01 X-1.23937 Y-0.62741
G01 X-1.23550 Y-0.62130
G01 X-1.23471 Y-0.62038
G01 X-1.23114 Y-0.61826
G01 X-1.22967 Y-0.61801
G01 X-1.22613 Y-0.61818
G01 X-1.22475 Y-0.61878
G01 X-1.22200 Y-0.62070
G01 X-1.22068 Y-0.62225
G01 X-1.21433 Y-0.62776
G01 X-1.20714 Y-0.63212
G01 X-1.19932 Y-0.63521
G01 X-1.19110 Y-0.63694
G01 X-1.18270 Y-0.63726
G01 X-1.17436 Y-0.63616
G01 X-1.16633 Y-0.63366
G01 X-1.15884 Y-0.62985
G01 X-1.15209 Y-0.62483
G01 X-1.14629 Y-0.61875
G01 X-1.14326 Y-0.61424
G01 X-1.14137 Y-0.61220
G01 X-1.14036 Y-0.61162
G01 X-1.13776 Y-0.61059
G01 X-1.13628 Y-0.61032
G01 X-1.13208 Y-0.61116
G01 X-1.13082 Y-0.61198
G01 X-1.12844 Y-0.61434
G01 X-1.12758 Y-0.61575
G01 X-1.12225 Y-0.62225
G01 X-1.11590 Y-0.62776
G01 X-1.10872 Y-0.63212
G01 X-1.10109 Y-0.63514
G01 X-1.09266 Y-0.63694
G01 X-1.08427 Y-0.63726
G01 X-1.07594 Y-0.63616
G01 X-1.06791 Y-0.63366
G01 X-1.06041 Y-0.62985
G01 X-1.05367 Y-0.62483
G01 X-1.04787 Y-0.61875
G01 X-1.04483 Y-0.61424
G01 X-1.04294 Y-0.61220
G01 X-1.04193 Y-0.61162
G01 X-1.03933 Y-0.61059
G01 X-1.03786 Y-0.61032
G01 X-1.03437 Y-0.61094
G01 X-1.03298 Y-0.61151
G01 X-1.03001 Y-0.61434
G01 X-1.02916 Y-0.61576
G01 X-1.02383 Y-0.62225
G01 X-1.01748 Y-0.62776
G01 X-1.01029 Y-0.63212
G01 X-1.00247 Y-0.63521
G01 X-0.99425 Y-0.63694
G01 X-0.98583 Y-0.63726
G01 X-0.97591 Y-0.63602
G01 X-0.97464 Y-0.63606
G01 X-0.97142 Y-0.63721
G01 X-0.97014 Y-0.63799
G01 X-0.96757 Y-0.64143
G01 X-0.96718 Y-0.64287
G01 X-0.96700 Y-0.64641
G01 X-0.96745 Y-0.64784
G01 X-0.96910 Y-0.65076
G01 X-1.01590 Y-0.69763
G01 X-1.01760 Y-0.69908
G01 X-1.02204 Y-0.70452
G01 X-1.02549 Y-0.71109
G01 X-1.02737 Y-0.71742
G01 X-1.02780 Y-0.72188
G01 X-1.02859 Y-0.72477
G01 X-1.02923 Y-0.72576
G01 X-1.03094 Y-0.72770
G01 X-1.03621 Y-0.73283
G01 X-1.03938 Y-0.73794
G01 X-1.04130 Y-0.74370
G01 X-1.04166 Y-0.74723
G01 X-1.04166 Y-0.80788
G01 X-1.04131 Y-0.81137
G01 X-1.03940 Y-0.81713
G01 X-1.03623 Y-0.82228
G01 X-1.03196 Y-0.82656
G01 X-1.02682 Y-0.82974
G01 X-1.02106 Y-0.83166
G01 X-1.01753 Y-0.83201
G01 X-0.96672 Y-0.83201
G01 X-0.96324 Y-0.83168
G01 X-0.95747 Y-0.82976
G01 X-0.95233 Y-0.82658
G01 X-0.94804 Y-0.82229
G01 X-0.94417 Y-0.81618
G01 X-0.94337 Y-0.81527
G01 X-0.93980 Y-0.81314
G01 X-0.93833 Y-0.81290
G01 X-0.93479 Y-0.81306
G01 X-0.93341 Y-0.81366
G01 X-0.93066 Y-0.81558
G01 X-0.92934 Y-0.81714
G01 X-0.92299 Y-0.82264
G01 X-0.91581 Y-0.82700
G01 X-0.90779 Y-0.83013
G01 X-0.89976 Y-0.83182
G01 X-0.89136 Y-0.83214
G01 X-0.88302 Y-0.83104
G01 X-0.87499 Y-0.82854
G01 X-0.86750 Y-0.82473
G01 X-0.86076 Y-0.81972
G01 X-0.85496 Y-0.81363
G01 X-0.85192 Y-0.80912
G01 X-0.85003 Y-0.80708
G01 X-0.84902 Y-0.80650
G01 X-0.84642 Y-0.80548
G01 X-0.84494 Y-0.80520
G01 X-0.84074 Y-0.80604
G01 X-0.83948 Y-0.80686
G01 X-0.83710 Y-0.80922
G01 X-0.83624 Y-0.81064
G01 X-0.83091 Y-0.81714
G01 X-0.82456 Y-0.82264
G01 X-0.81738 Y-0.82701
G01 X-0.80956 Y-0.83009
G01 X-0.80133 Y-0.83182
G01 X-0.79293 Y-0.83214
G01 X-0.78460 Y-0.83104
G01 X-0.77657 Y-0.82854
G01 X-0.76907 Y-0.82473
G01 X-0.76233 Y-0.81972
G01 X-0.75653 Y-0.81363
G01 X-0.75350 Y-0.80912
G01 X-0.75160 Y-0.80708
G01 X-0.75059 Y-0.80650
G01 X-0.74799 Y-0.80548
G01 X-0.74652 Y-0.80520
G01 X-0.74231 Y-0.80604
G01 X-0.74106 Y-0.80686
G01 X-0.73867 Y-0.80922
G01 X-0.73782 Y-0.81064
G01 X-0.73249 Y-0.81714
G01 X-0.72614 Y-0.82264
G01 X-0.71895 Y-0.82701
G01 X-0.71113 Y-0.83009
G01 X-0.70291 Y-0.83182
G01 X-0.69451 Y-0.83214
G01 X-0.68617 Y-0.83104
G01 X-0.67814 Y-0.82854
G01 X-0.67065 Y-0.82473
G01 X-0.66390 Y-0.81972
G01 X-0.65810 Y-0.81363
G01 X-0.65341 Y-0.80666
G01 X-0.64995 Y-0.79899
G01 X-0.64784 Y-0.79086
G01 X-0.64732 Y-0.78460
G01 X-0.64735 Y-0.76794
G01 X-0.64885 Y-0.75969
G01 X-0.65172 Y-0.75178
G01 X-0.65588 Y-0.74448
G01 X-0.66121 Y-0.73798
G01 X-0.66781 Y-0.73225
G01 X-0.66951 Y-0.73032
G01 X-0.66999 Y-0.72928
G01 X-0.67078 Y-0.72659
G01 X-0.67094 Y-0.72548
G01 X-0.67092 Y-0.70298
G01 X-0.67065 Y-0.70116
G01 X-0.66870 Y-0.69752
G01 X-0.33420 Y-0.36310
G01 X-0.33090 Y-0.35801
G01 X-0.32875 Y-0.35177
G01 X-0.32825 Y-0.34547
G01 X-0.32842 Y-0.34382
G01 X-0.32839 Y-0.24895
G01 X-0.32783 Y-0.24637
G01 X-0.32736 Y-0.24520
G01 X-0.32514 Y-0.24255
G01 X-0.32008 Y-0.23764
G01 X-0.31692 Y-0.23253
G01 X-0.31500 Y-0.22677
G01 X-0.31464 Y-0.22323
G01 X-0.31659 Y-0.22313
G01 X-0.31659 Y-0.17056
G01 X-0.31691 Y-0.16739
G01 X-0.31868 Y-0.16204
G01 X-0.32161 Y-0.15729
G01 X-0.32556 Y-0.15333
G01 X-0.33031 Y-0.15039
G01 X-0.33565 Y-0.14861
G01 X-0.33887 Y-0.14828
G01 X-0.36979 Y-0.14829
G01 X-0.37296 Y-0.14859
G01 X-0.37831 Y-0.15037
G01 X-0.38307 Y-0.15330
G01 X-0.38703 Y-0.15728
G01 X-0.38835 Y-0.15937
G01 X-0.38905 Y-0.16027
G01 X-0.38991 Y-0.16102
G01 X-0.39315 Y-0.16321
G01 X-0.39421 Y-0.16358
G01 X-0.39532 Y-0.16374
G01 X-0.39924 Y-0.16383
G01 X-0.40033 Y-0.16356
G01 X-0.40135 Y-0.16310
G01 X-0.40447 Y-0.16123
G01 X-0.40830 Y-0.15732
G01 X-0.41417 Y-0.15315
G01 X-0.42073 Y-0.15017
G01 X-0.42773 Y-0.14848
G01 X-0.43492 Y-0.14816
G01 X-0.44205 Y-0.14919
G01 X-0.44885 Y-0.15155
G01 X-0.45508 Y-0.15516
G01 X-0.46052 Y-0.15988
G01 X-0.46497 Y-0.16554
G01 X-0.46827 Y-0.17194
G01 X-0.47030 Y-0.17885
G01 X-0.47081 Y-0.18422
G01 X-0.47081 Y-0.21118
G01 X-0.46941 Y-0.21845
G01 X-0.46673 Y-0.22512
G01 X-0.46279 Y-0.23121
G01 X-0.45882 Y-0.23560
G01 X-0.45805 Y-0.23724
G01 X-0.45709 Y-0.24074
G01 X-0.45703 Y-0.34778
G01 X-0.45717 Y-0.34946
G01 X-0.45754 Y-0.35096
G01 X-0.45920 Y-0.35412
G01 X-0.46021 Y-0.35546
G01 X-0.58625 Y-0.48150
G01 X-0.58935 Y-0.48367
G01 X-0.59111 Y-0.48419
G01 X-0.59388 Y-0.48457
G01 X-0.59500 Y-0.48462
G01 X-0.59611 Y-0.48445
G01 X-0.59717 Y-0.48407
G01 X-0.60067 Y-0.48232
G01 X-0.60151 Y-0.48158
G01 X-0.60220 Y-0.48069
G01 X-0.60369 Y-0.47833
G01 X-0.60417 Y-0.47740
G01 X-0.60460 Y-0.47536
G01 X-0.60465 Y-0.47223
G01 X-0.60443 Y-0.47100
G01 X-0.60383 Y-0.46417
G01 X-0.60399 Y-0.46213
G01 X-0.60399 Y-0.36390
G01 X-0.60333 Y-0.36015
G01 X-0.60245 Y-0.35853
G01 X-0.60020 Y-0.35568
G01 X-0.59783 Y-0.35387
G01 X-0.59135 Y-0.34746
G01 X-0.58600 Y-0.34029
G01 X-0.58157 Y-0.33211
G01 X-0.57850 Y-0.32353
G01 X-0.57672 Y-0.31459
G01 X-0.57628 Y-0.30547
G01 X-0.57719 Y-0.29640
G01 X-0.57944 Y-0.28756
G01 X-0.58296 Y-0.27915
G01 X-0.58770 Y-0.27135
G01 X-0.59352 Y-0.26434
G01 X-0.60048 Y-0.25817
G01 X-0.60796 Y-0.25327
G01 X-0.61624 Y-0.24945
G01 X-0.62500 Y-0.24689
G01 X-0.63404 Y-0.24566
G01 X-0.64316 Y-0.24579
G01 X-0.65216 Y-0.24725
G01 X-0.66084 Y-0.25004
G01 X-0.66902 Y-0.25407
G01 X-0.67652 Y-0.25927
G01 X-0.68316 Y-0.26552
G01 X-0.68880 Y-0.27267
G01 X-0.69368 Y-0.28129
G01 X-0.69600 Y-0.28440
G01 X-0.69766 Y-0.28554
G01 X-0.70021 Y-0.28670
G01 X-0.70127 Y-0.28707
G01 X-0.70238 Y-0.28723
G01 X-0.70350 Y-0.28717
G01 X-0.70627 Y-0.28678
G01 X-0.70736 Y-0.28651
G01 X-0.70838 Y-0.28604
G01 X-0.71140 Y-0.28356
G01 X-0.71218 Y-0.28275
G01 X-0.71279 Y-0.28181
G01 X-0.71399 Y-0.27808
G01 X-0.71423 Y-0.27642
G01 X-0.71423 Y-0.25827
G01 X-0.71435 Y-0.25687
G01 X-0.71582 Y-0.25298
G01 X-0.71825 Y-0.24974
G01 X-0.72149 Y-0.24732
G01 X-0.72537 Y-0.24585
G01 X-0.72677 Y-0.24573
G01 X-0.82441 Y-0.24571
G01 X-0.82580 Y-0.24588
G01 X-0.82969 Y-0.24731
G01 X-0.83293 Y-0.24974
G01 X-0.83537 Y-0.25298
G01 X-0.83680 Y-0.25688
G01 X-0.83697 Y-0.25826
G01 X-0.83697 Y-0.35591
G01 X-0.83680 Y-0.35730
G01 X-0.83537 Y-0.36119
G01 X-0.83293 Y-0.36443
G01 X-0.82969 Y-0.36685
G01 X-0.82581 Y-0.36832
G01 X-0.81962 Y-0.36848
G01 X-0.81694 Y-0.36903
G01 X-0.81512 Y-0.36976
G01 X-0.81221 Y-0.37217
G01 X-0.81144 Y-0.37298
G01 X-0.81083 Y-0.37392
G01 X-0.81041 Y-0.37497
G01 X-0.80945 Y-0.37847
G01 X-0.80939 Y-0.48937
G01 X-0.80967 Y-0.49182
G01 X-0.81022 Y-0.49326
G01 X-0.81156 Y-0.49571
G01 X-0.81257 Y-0.49706
G01 X-0.92339 Y-0.60787
G01 X-0.92543 Y-0.60943
G01 X-0.92699 Y-0.61023
G01 X-0.93172 Y-0.61103
G01 X-0.93283 Y-0.61090
G01 X-0.93391 Y-0.61057
G01 X-0.93747 Y-0.60896
G01 X-0.93834 Y-0.60825
G01 X-0.93907 Y-0.60739
G01 X-0.94120 Y-0.60411
G01 X-0.94155 Y-0.60304
G01 X-0.94169 Y-0.60192
G01 X-0.94178 Y-0.59913
G01 X-0.94159 Y-0.59746
G01 X-0.94112 Y-0.59564
G01 X-0.94061 Y-0.58963
G01 X-0.94060 Y-0.57379
G01 X-0.94208 Y-0.56531
G01 X-0.94483 Y-0.55772
G01 X-0.94883 Y-0.55070
G01 X-0.95395 Y-0.54446
G01 X-0.95655 Y-0.54221
G01 X-0.95857 Y-0.53988
G01 X-0.95927 Y-0.53835
G01 X-0.96005 Y-0.53567
G01 X-0.96029 Y-0.53401
G01 X-0.96029 Y-0.24939
G01 X-0.95966 Y-0.24594
G01 X-0.95895 Y-0.24419
G01 X-0.95642 Y-0.24115
G01 X-0.95154 Y-0.23641
G01 X-0.94862 Y-0.23169
G01 X-0.94682 Y-0.22635
G01 X-0.94651 Y-0.22313
G01 X-0.94651 Y-0.17056
G01 X-0.94681 Y-0.16739
G01 X-0.94860 Y-0.16204
G01 X-0.95153 Y-0.15729
G01 X-0.95548 Y-0.15333
G01 X-0.96023 Y-0.15039
G01 X-0.96557 Y-0.14859
G01 X-0.96879 Y-0.14829
G01 X-0.99971 Y-0.14829
G01 X-1.00289 Y-0.14859
G01 X-1.00823 Y-0.15037
G01 X-1.01299 Y-0.15330
G01 X-1.01695 Y-0.15728
G01 X-1.01897 Y-0.16027
G01 X-1.02211 Y-0.16264
G01 X-1.02308 Y-0.16321
G01 X-1.02414 Y-0.16358
G01 X-1.02804 Y-0.16388
G01 X-1.02916 Y-0.16383
G01 X-1.03025 Y-0.16356
G01 X-1.03370 Y-0.16171
G01 X-1.03502 Y-0.16067
G01 X-1.03822 Y-0.15732
G01 X-1.04409 Y-0.15315
G01 X-1.05065 Y-0.15017
G01 X-1.05765 Y-0.14848
G01 X-1.06484 Y-0.14816
G01 X-1.07195 Y-0.14919
G01 X-1.07896 Y-0.15166
G01 X-1.08500 Y-0.15516
G01 X-1.09044 Y-0.15988
G01 X-1.09489 Y-0.16554
G01 X-1.09819 Y-0.17194
G01 X-1.10022 Y-0.17885
G01 X-1.10073 Y-0.18422
G01 X-1.10072 Y-0.21138
G01 X-1.09934 Y-0.21844
G01 X-1.09665 Y-0.22512
G01 X-1.09271 Y-0.23121
G01 X-1.08874 Y-0.23560
G01 X-1.08797 Y-0.23724
G01 X-1.08719 Y-0.23992
G01 X-1.08695 Y-0.24158
G01 X-1.08701 Y-0.52115
G01 X-1.08742 Y-0.52344
G01 X-1.08772 Y-0.52423
G01 X-1.08967 Y-0.52731
G01 X-1.09038 Y-0.52819
G01 X-1.09123 Y-0.52892
G01 X-1.09556 Y-0.53088
G01 X-1.09686 Y-0.53112
G01 X-1.10458 Y-0.53351
G01 X-1.11178 Y-0.53717
G01 X-1.11825 Y-0.54199
G01 X-1.12383 Y-0.54783
G01 X-1.12677 Y-0.55220
G01 X-1.12907 Y-0.55468
G01 X-1.13058 Y-0.55555
G01 X-1.13318 Y-0.55657
G01 X-1.13426 Y-0.55688
G01 X-1.13538 Y-0.55698
G01 X-1.13924 Y-0.55632
G01 X-1.14031 Y-0.55600
G01 X-1.14131 Y-0.55548
G01 X-1.14219 Y-0.55478
G01 X-1.14476 Y-0.55221
G01 X-1.14569 Y-0.55071
G01 X-1.15080 Y-0.54446
G01 X-1.15690 Y-0.53917
G01 X-1.16380 Y-0.53498
G01 X-1.17132 Y-0.53201
G01 X-1.17922 Y-0.53035
G01 X-1.18729 Y-0.53004
G01 X-1.19529 Y-0.53112
G01 X-1.19843 Y-0.53204
G01 X-1.20278 Y-0.53218
G01 X-1.20480 Y-0.53152
G01 X-1.20726 Y-0.53018
G01 X-1.20860 Y-0.52917
G01 X-1.24058 Y-0.49719
G01 X-1.24230 Y-0.49493
G01 X-1.24352 Y-0.49118
G01 X-1.24376 Y-0.48951
G01 X-1.24376 Y-0.24939
G01 X-1.24312 Y-0.24594
G01 X-1.24241 Y-0.24419
G01 X-1.23989 Y-0.24115
G01 X-1.23500 Y-0.23641
G01 X-1.23208 Y-0.23169
G01 X-1.23029 Y-0.22635
G01 X-1.22998 Y-0.22313
G01 X-1.22998 Y-0.17056
G01 X-1.23029 Y-0.16739
G01 X-1.23206 Y-0.16204
G01 X-1.23500 Y-0.15729
G01 X-1.23894 Y-0.15333
G01 X-1.24370 Y-0.15039
G01 X-1.24904 Y-0.14861
G01 X-1.25226 Y-0.14828
G01 X-1.28318 Y-0.14829
G01 X-1.28635 Y-0.14859
G01 X-1.29170 Y-0.15037
G01 X-1.29645 Y-0.15330
G01 X-1.30042 Y-0.15728
G01 X-1.30174 Y-0.15937
G01 X-1.30244 Y-0.16027
G01 X-1.30330 Y-0.16102
G01 X-1.30654 Y-0.16321
G01 X-1.30760 Y-0.16358
G01 X-1.30871 Y-0.16374
G01 X-1.31262 Y-0.16383
G01 X-1.31371 Y-0.16356
G01 X-1.31474 Y-0.16310
G01 X-1.31786 Y-0.16123
G01 X-1.32168 Y-0.15732
G01 X-1.32755 Y-0.15315
G01 X-1.33411 Y-0.15017
G01 X-1.34111 Y-0.14848
G01 X-1.34831 Y-0.14816
G01 X-1.35543 Y-0.14919
G01 X-1.36224 Y-0.15155
G01 X-1.36847 Y-0.15516
G01 X-1.37391 Y-0.15988
G01 X-1.37836 Y-0.16554
G01 X-1.38165 Y-0.17194
G01 X-1.38368 Y-0.17885
G01 X-1.38419 Y-0.18422
G01 X-1.38419 Y-0.21118
G01 X-1.38280 Y-0.21845
G01 X-1.38011 Y-0.22512
G01 X-1.37618 Y-0.23121
G01 X-1.37221 Y-0.23560
G01 X-1.37144 Y-0.23724
G01 X-1.37065 Y-0.23992
G01 X-1.37041 Y-0.24159
G01 X-1.37051 Y-0.52204
G01 X-1.36931 Y-0.52754
G01 X-1.36673 Y-0.53285
G01 X-1.36284 Y-0.53741
G01 X-1.36153 Y-0.53849
G01 X-1.33422 Y-0.56580
G01 X-1.33250 Y-0.56806
G01 X-1.33207 Y-0.56913
G01 X-1.33128 Y-0.57181
G01 X-1.33104 Y-0.57348
G01 X-1.33106 Y-0.58741
G01 X-1.33143 Y-0.58947
G01 X-1.33289 Y-0.59310
G01 X-1.33357 Y-0.59399
G01 X-1.33440 Y-0.59475
G01 X-1.33664 Y-0.59642
G01 X-1.33759 Y-0.59701
G01 X-1.33865 Y-0.59740
G01 X-1.34254 Y-0.59779
G01 X-1.34366 Y-0.59776
G01 X-1.34476 Y-0.59752
G01 X-1.34579 Y-0.59708
G01 X-1.34825 Y-0.59574
G01 X-1.34959 Y-0.59473
G01 X-1.53979 Y-0.40454
G01 X-1.54087 Y-0.40324
G01 X-1.54168 Y-0.40192
G01 X-1.54273 Y-0.39852
G01 X-1.54297 Y-0.39685
G01 X-1.54294 Y-0.26082
G01 X-1.54264 Y-0.25877
G01 X-1.54094 Y-0.25524
G01 X-1.53997 Y-0.25387
G01 X-1.53759 Y-0.25138
G01 X-1.53307 Y-0.24469
G01 X-1.52976 Y-0.23732
G01 X-1.52772 Y-0.22950
G01 X-1.52722 Y-0.22348
G01 X-1.52721 Y-0.20765
G01 X-1.52869 Y-0.19917
G01 X-1.53145 Y-0.19158
G01 X-1.53544 Y-0.18456
G01 X-1.54056 Y-0.17832
G01 X-1.54666 Y-0.17303
G01 X-1.55357 Y-0.16884
G01 X-1.56108 Y-0.16587
G01 X-1.56840 Y-0.16433
G01 X-1.57705 Y-0.16392
G01 X-1.58506 Y-0.16498
G01 X-1.59277 Y-0.16737
G01 X-1.59997 Y-0.17103
G01 X-1.60644 Y-0.17585
G01 X-1.61202 Y-0.18169
G01 X-1.61496 Y-0.18606
G01 X-1.61726 Y-0.18854
G01 X-1.61877 Y-0.18941
G01 X-1.62137 Y-0.19043
G01 X-1.62245 Y-0.19074
G01 X-1.62357 Y-0.19084
G01 X-1.62743 Y-0.19018
G01 X-1.62850 Y-0.18986
G01 X-1.62950 Y-0.18934
G01 X-1.63295 Y-0.18607
G01 X-1.63387 Y-0.18457
G01 X-1.63899 Y-0.17832
G01 X-1.64509 Y-0.17303
G01 X-1.65199 Y-0.16884
G01 X-1.65950 Y-0.16587
G01 X-1.66741 Y-0.16421
G01 X-1.67548 Y-0.16392
G01 X-1.68348 Y-0.16498
G01 X-1.69100 Y-0.16731
G01 X-1.69840 Y-0.17104
G01 X-1.70487 Y-0.17585
G01 X-1.71044 Y-0.18169
G01 X-1.71338 Y-0.18606
G01 X-1.71568 Y-0.18854
G01 X-1.71720 Y-0.18941
G01 X-1.71980 Y-0.19043
G01 X-1.72088 Y-0.19074
G01 X-1.72199 Y-0.19084
G01 X-1.72585 Y-0.19018
G01 X-1.72693 Y-0.18986
G01 X-1.72792 Y-0.18934
G01 X-1.72880 Y-0.18864
G01 X-1.73137 Y-0.18607
G01 X-1.73230 Y-0.18457
G01 X-1.73741 Y-0.17832
G01 X-1.74351 Y-0.17303
G01 X-1.75042 Y-0.16884
G01 X-1.75793 Y-0.16587
G01 X-1.76583 Y-0.16421
G01 X-1.77390 Y-0.16392
G01 X-1.78191 Y-0.16498
G01 X-1.78962 Y-0.16737
G01 X-1.79682 Y-0.17103
G01 X-1.80330 Y-0.17586
G01 X-1.80767 Y-0.18039
G01 X-1.80889 Y-0.18136
G01 X-1.81214 Y-0.18283
G01 X-1.81321 Y-0.18317
G01 X-1.81432 Y-0.18331
G01 X-1.81820 Y-0.18279
G01 X-1.81928 Y-0.18250
G01 X-1.82030 Y-0.18202
G01 X-1.82386 Y-0.17888
G01 X-1.82752 Y-0.17303
G01 X-1.83146 Y-0.16908
G01 X-1.83622 Y-0.16614
G01 X-1.84156 Y-0.16436
G01 X-1.84478 Y-0.16403
G01 X-1.89538 Y-0.16403
G01 X-1.89855 Y-0.16434
G01 X-1.90390 Y-0.16612
G01 X-1.90866 Y-0.16905
G01 X-1.91261 Y-0.17300
G01 X-1.91555 Y-0.17775
G01 X-1.91733 Y-0.18309
G01 X-1.91766 Y-0.18631
G01 X-1.91766 Y-0.24676
G01 X-1.91734 Y-0.24993
G01 X-1.91557 Y-0.25528
G01 X-1.91261 Y-0.26008
G01 X-1.90769 Y-0.26527
G01 X-1.90687 Y-0.26697
G01 X-1.90591 Y-0.27048
G01 X-1.90585 Y-0.35417
G01 X-1.90601 Y-0.35637
G01 X-1.90526 Y-0.36339
G01 X-1.90341 Y-0.36934
G01 X-1.90028 Y-0.37518
G01 X-1.89577 Y-0.38061
G01 X-1.89422 Y-0.38192
G01 X-1.58127 Y-0.69487
G01 X-1.58019 Y-0.69617
G01 X-1.57974 Y-0.69680
G01 X-1.57912 Y-0.69821
G01 X-1.57833 Y-0.70089
G01 X-1.57809 Y-0.70256
G01 X-1.57809 Y-0.72108
G01 X-1.57872 Y-0.72453
G01 X-1.57943 Y-0.72628
G01 X-1.57999 Y-0.72706
G01 X-1.58196 Y-0.72933
G01 X-1.58685 Y-0.73406
G01 X-1.58977 Y-0.73878
G01 X-1.59156 Y-0.74412
G01 X-1.59187 Y-0.74734
G01 X-1.59187 Y-0.80778
G01 X-1.59156 Y-0.81096
G01 X-1.58979 Y-0.81630
G01 X-1.58685 Y-0.82106
G01 X-1.58290 Y-0.82502
G01 X-1.57815 Y-0.82796
G01 X-1.57281 Y-0.82974
G01 X-1.56959 Y-0.83006
G01 X-1.51899 Y-0.83006
G01 X-1.51581 Y-0.82976
G01 X-1.51047 Y-0.82797
G01 X-1.50571 Y-0.82504
G01 X-1.50174 Y-0.82107
G01 X-1.49798 Y-0.81513
G01 X-1.49679 Y-0.81377
G01 X-1.49265 Y-0.81131
G01 X-1.49156 Y-0.81102
G01 X-1.49044 Y-0.81095
G01 X-1.48653 Y-0.81116
G01 X-1.48546 Y-0.81150
G01 X-1.48448 Y-0.81205
G01 X-1.48151 Y-0.81414
G01 X-1.48010 Y-0.81577
G01 X-1.47400 Y-0.82106
G01 X-1.46710 Y-0.82525
G01 X-1.45959 Y-0.82822
G01 X-1.45168 Y-0.82987
G01 X-1.44362 Y-0.83018
G01 X-1.43561 Y-0.82912
G01 X-1.42790 Y-0.82673
G01 X-1.42070 Y-0.82307
G01 X-1.41422 Y-0.81825
G01 X-1.40865 Y-0.81240
G01 X-1.40571 Y-0.80803
G01 X-1.40341 Y-0.80556
G01 X-1.40190 Y-0.80468
G01 X-1.39930 Y-0.80366
G01 X-1.39822 Y-0.80335
G01 X-1.39710 Y-0.80325
G01 X-1.39324 Y-0.80391
G01 X-1.39217 Y-0.80423
G01 X-1.39117 Y-0.80475
G01 X-1.39029 Y-0.80545
G01 X-1.38772 Y-0.80802
G01 X-1.38679 Y-0.80953
G01 X-1.38167 Y-0.81577
G01 X-1.37557 Y-0.82106
G01 X-1.36867 Y-0.82525
G01 X-1.36116 Y-0.82822
G01 X-1.35326 Y-0.82987
G01 X-1.34519 Y-0.83018
G01 X-1.33719 Y-0.82912
G01 X-1.32947 Y-0.82673
G01 X-1.32227 Y-0.82307
G01 X-1.31580 Y-0.81825
G01 X-1.31022 Y-0.81240
G01 X-1.30728 Y-0.80803
G01 X-1.30499 Y-0.80556
G01 X-1.30347 Y-0.80468
G01 X-1.30087 Y-0.80366
G01 X-1.29979 Y-0.80335
G01 X-1.29867 Y-0.80325
G01 X-1.29482 Y-0.80391
G01 X-1.29374 Y-0.80423
G01 X-1.29275 Y-0.80475
G01 X-1.29187 Y-0.80545
G01 X-1.28929 Y-0.80802
G01 X-1.28837 Y-0.80953
G01 X-1.28325 Y-0.81577
G01 X-1.27715 Y-0.82106
G01 X-1.27025 Y-0.82525
G01 X-1.26274 Y-0.82822
G01 X-1.25483 Y-0.82987
G01 X-1.24676 Y-0.83018
G01 X-1.23876 Y-0.82912
G01 X-1.23105 Y-0.82673
G01 X-1.22385 Y-0.82307
G01 X-1.21737 Y-0.81825
G01 X-1.21179 Y-0.81241
G01 X-1.20728 Y-0.80571
G01 X-1.20397 Y-0.79834
G01 X-1.20194 Y-0.79053
G01 X-1.20143 Y-0.78452
G01 X-1.20147 Y-0.76812
G01 X-1.20290 Y-0.76019
G01 X-1.20566 Y-0.75260
G01 X-1.20966 Y-0.74559
G01 X-1.21352 Y-0.74089
G01 X-1.21424 Y-0.73977
G01 X-1.21554 Y-0.73698
G01 X-1.21780 Y-0.72971
G01 X-1.22098 Y-0.72391
G01 X-1.22528 Y-0.71881
G01 X-1.22684 Y-0.71749
G01 X-1.29060 Y-0.65373
G01 X-1.29170 Y-0.65219
G01 X-1.29311 Y-0.64939
G01 X-1.29365 Y-0.64769
G01 X-1.29367 Y-0.64591
G01 X-1.29301 Y-0.64205
G01 X-1.29254 Y-0.64103
G01 X-1.29189 Y-0.64011
G01 X-1.28925 Y-0.63723
G01 X-1.28830 Y-0.63662
G01 X-1.28726 Y-0.63620
G01 X-1.28376 Y-0.63524
G01 X-1.25816 Y-0.63518
G01 X-1.25499 Y-0.63486
G01 X-1.24964 Y-0.63309
G01 X-1.24488 Y-0.63016
G01 X-1.24091 Y-0.62618
G01 X-1.23715 Y-0.62025
G01 X-1.23596 Y-0.61889
G01 X-1.23182 Y-0.61643
G01 X-1.23073 Y-0.61614
G01 X-1.22961 Y-0.61606
G01 X-1.22571 Y-0.61628
G01 X-1.22464 Y-0.61662
G01 X-1.22365 Y-0.61716
G01 X-1.22069 Y-0.61926
G01 X-1.21927 Y-0.62089
G01 X-1.21317 Y-0.62618
G01 X-1.20627 Y-0.63037
G01 X-1.19876 Y-0.63333
G01 X-1.19086 Y-0.63499
G01 X-1.18279 Y-0.63530
G01 X-1.17478 Y-0.63424
G01 X-1.16707 Y-0.63185
G01 X-1.15987 Y-0.62819
G01 X-1.15339 Y-0.62337
G01 X-1.14782 Y-0.61752
G01 X-1.14488 Y-0.61315
G01 X-1.14258 Y-0.61067
G01 X-1.14107 Y-0.60980
G01 X-1.13847 Y-0.60878
G01 X-1.13739 Y-0.60847
G01 X-1.13627 Y-0.60837
G01 X-1.13241 Y-0.60903
G01 X-1.13134 Y-0.60935
G01 X-1.13034 Y-0.60987
G01 X-1.12689 Y-0.61314
G01 X-1.12597 Y-0.61464
G01 X-1.12085 Y-0.62089
G01 X-1.11475 Y-0.62618
G01 X-1.10784 Y-0.63037
G01 X-1.10052 Y-0.63326
G01 X-1.09242 Y-0.63499
G01 X-1.08436 Y-0.63530
G01 X-1.07636 Y-0.63424
G01 X-1.06865 Y-0.63185
G01 X-1.06145 Y-0.62819
G01 X-1.05497 Y-0.62337
G01 X-1.04940 Y-0.61752
G01 X-1.04645 Y-0.61315
G01 X-1.04416 Y-0.61067
G01 X-1.04265 Y-0.60980
G01 X-1.04005 Y-0.60878
G01 X-1.03897 Y-0.60847
G01 X-1.03785 Y-0.60837
G01 X-1.03673 Y-0.60848
G01 X-1.03291 Y-0.60935
G01 X-1.03192 Y-0.60987
G01 X-1.03104 Y-0.61057
G01 X-1.02847 Y-0.61314
G01 X-1.02754 Y-0.61464
G01 X-1.02242 Y-0.62089
G01 X-1.01632 Y-0.62618
G01 X-1.00942 Y-0.63037
G01 X-1.00191 Y-0.63333
G01 X-0.99401 Y-0.63499
G01 X-0.98591 Y-0.63530
G01 X-0.97615 Y-0.63408
G01 X-0.97426 Y-0.63415
G01 X-0.97074 Y-0.63538
G01 X-0.96973 Y-0.63587
G01 X-0.96883 Y-0.63655
G01 X-0.96640 Y-0.63962
G01 X-0.96581 Y-0.64057
G01 X-0.96542 Y-0.64163
G01 X-0.96523 Y-0.64273
G01 X-0.96506 Y-0.64664
G01 X-0.96530 Y-0.64774
G01 X-0.96574 Y-0.64877
G01 X-0.96754 Y-0.65194
G01 X-1.01452 Y-0.69901
G01 X-1.01621 Y-0.70045
G01 X-1.02040 Y-0.70560
G01 X-1.02369 Y-0.71182
G01 X-1.02544 Y-0.71780
G01 X-1.02586 Y-0.72207
G01 X-1.02681 Y-0.72557
G01 X-1.02777 Y-0.72706
G01 X-1.02948 Y-0.72899
G01 X-1.03467 Y-0.73407
G01 X-1.03760 Y-0.73878
G01 X-1.03938 Y-0.74412
G01 X-1.03970 Y-0.74734
G01 X-1.03970 Y-0.80778
G01 X-1.03939 Y-0.81095
G01 X-1.03762 Y-0.81630
G01 X-1.03469 Y-0.82106
G01 X-1.03074 Y-0.82502
G01 X-1.02598 Y-0.82796
G01 X-1.02064 Y-0.82974
G01 X-1.01743 Y-0.83006
G01 X-0.96682 Y-0.83006
G01 X-0.96365 Y-0.82976
G01 X-0.95830 Y-0.82797
G01 X-0.95354 Y-0.82504
G01 X-0.94957 Y-0.82107
G01 X-0.94581 Y-0.81513
G01 X-0.94462 Y-0.81377
G01 X-0.94048 Y-0.81131
G01 X-0.93939 Y-0.81102
G01 X-0.93827 Y-0.81095
G01 X-0.93437 Y-0.81116
G01 X-0.93330 Y-0.81150
G01 X-0.93231 Y-0.81205
G01 X-0.92935 Y-0.81414
G01 X-0.92793 Y-0.81577
G01 X-0.92183 Y-0.82106
G01 X-0.91494 Y-0.82525
G01 X-0.90723 Y-0.82826
G01 X-0.89952 Y-0.82987
G01 X-0.89145 Y-0.83018
G01 X-0.88344 Y-0.82912
G01 X-0.87573 Y-0.82673
G01 X-0.86853 Y-0.82307
G01 X-0.86205 Y-0.81825
G01 X-0.85648 Y-0.81240
G01 X-0.85354 Y-0.80803
G01 X-0.85124 Y-0.80556
G01 X-0.84973 Y-0.80468
G01 X-0.84713 Y-0.80366
G01 X-0.84605 Y-0.80335
G01 X-0.84493 Y-0.80325
G01 X-0.84108 Y-0.80391
G01 X-0.84000 Y-0.80423
G01 X-0.83901 Y-0.80475
G01 X-0.83813 Y-0.80545
G01 X-0.83555 Y-0.80802
G01 X-0.83463 Y-0.80953
G01 X-0.82951 Y-0.81577
G01 X-0.82341 Y-0.82106
G01 X-0.81651 Y-0.82525
G01 X-0.80900 Y-0.82822
G01 X-0.80109 Y-0.82987
G01 X-0.79302 Y-0.83018
G01 X-0.78502 Y-0.82912
G01 X-0.77731 Y-0.82673
G01 X-0.77011 Y-0.82307
G01 X-0.76363 Y-0.81825
G01 X-0.75806 Y-0.81240
G01 X-0.75512 Y-0.80803
G01 X-0.75282 Y-0.80555
G01 X-0.75131 Y-0.80468
G01 X-0.74871 Y-0.80366
G01 X-0.74763 Y-0.80335
G01 X-0.74651 Y-0.80325
G01 X-0.74265 Y-0.80391
G01 X-0.74157 Y-0.80423
G01 X-0.74058 Y-0.80475
G01 X-0.73970 Y-0.80545
G01 X-0.73713 Y-0.80802
G01 X-0.73620 Y-0.80953
G01 X-0.73108 Y-0.81577
G01 X-0.72498 Y-0.82106
G01 X-0.71808 Y-0.82525
G01 X-0.71057 Y-0.82822
G01 X-0.70267 Y-0.82987
G01 X-0.69460 Y-0.83018
G01 X-0.68659 Y-0.82912
G01 X-0.67888 Y-0.82673
G01 X-0.67168 Y-0.82307
G01 X-0.66520 Y-0.81825
G01 X-0.65963 Y-0.81241
G01 X-0.65512 Y-0.80571
G01 X-0.65180 Y-0.79834
G01 X-0.64977 Y-0.79053
G01 X-0.64927 Y-0.78452
G01 X-0.64930 Y-0.76812
G01 X-0.65074 Y-0.76020
G01 X-0.65350 Y-0.75260
G01 X-0.65749 Y-0.74559
G01 X-0.66261 Y-0.73934
G01 X-0.66909 Y-0.73372
G01 X-0.67115 Y-0.73139
G01 X-0.67187 Y-0.72983
G01 X-0.67265 Y-0.72715
G01 X-0.67289 Y-0.72548
G01 X-0.67286 Y-0.70276
G01 X-0.67251 Y-0.70058
G01 X-0.67206 Y-0.69951
G01 X-0.67026 Y-0.69635
G01 X-0.33565 Y-0.36179
G01 X-0.33261 Y-0.35706
G01 X-0.33069 Y-0.35148
G01 X-0.33021 Y-0.34551
G01 X-0.33037 Y-0.34382
G01 X-0.33034 Y-0.24873
G01 X-0.32974 Y-0.24594
G01 X-0.32903 Y-0.24419
G01 X-0.32650 Y-0.24115
G01 X-0.32162 Y-0.23641
G01 X-0.31870 Y-0.23169
G01 X-0.31692 Y-0.22635
G01 X-0.31659 Y-0.22313
G01 X-0.31854 Y-0.22303
G01 X-0.31854 Y-0.17066
G01 X-0.31883 Y-0.16780
G01 X-0.32046 Y-0.16287
G01 X-0.32315 Y-0.15850
G01 X-0.32678 Y-0.15487
G01 X-0.33115 Y-0.15217
G01 X-0.33607 Y-0.15053
G01 X-0.33897 Y-0.15024
G01 X-0.36969 Y-0.15024
G01 X-0.37255 Y-0.15051
G01 X-0.37748 Y-0.15215
G01 X-0.38185 Y-0.15484
G01 X-0.38550 Y-0.15851
G01 X-0.38763 Y-0.16161
G01 X-0.38877 Y-0.16261
G01 X-0.39234 Y-0.16498
G01 X-0.39375 Y-0.16547
G01 X-0.39523 Y-0.16569
G01 X-0.39951 Y-0.16576
G01 X-0.40096 Y-0.16541
G01 X-0.40232 Y-0.16479
G01 X-0.40568 Y-0.16277
G01 X-0.40958 Y-0.15881
G01 X-0.41515 Y-0.15485
G01 X-0.42136 Y-0.15202
G01 X-0.42800 Y-0.15043
G01 X-0.43483 Y-0.15012
G01 X-0.44158 Y-0.15110
G01 X-0.44803 Y-0.15334
G01 X-0.45394 Y-0.15676
G01 X-0.45910 Y-0.16123
G01 X-0.46332 Y-0.16660
G01 X-0.46645 Y-0.17267
G01 X-0.46837 Y-0.17922
G01 X-0.46885 Y-0.18432
G01 X-0.46885 Y-0.21099
G01 X-0.46753 Y-0.21790
G01 X-0.46498 Y-0.22422
G01 X-0.46124 Y-0.23001
G01 X-0.45720 Y-0.23451
G01 X-0.45618 Y-0.23669
G01 X-0.45515 Y-0.24047
G01 X-0.45508 Y-0.34778
G01 X-0.45523 Y-0.34967
G01 X-0.45572 Y-0.35167
G01 X-0.45749 Y-0.35506
G01 X-0.45883 Y-0.35684
G01 X-0.58486 Y-0.48288
G01 X-0.58597 Y-0.48380
G01 X-0.58851 Y-0.48543
G01 X-0.59084 Y-0.48613
G01 X-0.59510 Y-0.48657
G01 X-0.59658 Y-0.48634
G01 X-0.59799 Y-0.48584
G01 X-0.60181 Y-0.48390
G01 X-0.60293 Y-0.48292
G01 X-0.60385 Y-0.48174
G01 X-0.60534 Y-0.47937
G01 X-0.60598 Y-0.47814
G01 X-0.60638 Y-0.47681
G01 X-0.60655 Y-0.47543
G01 X-0.60660 Y-0.47205
G01 X-0.60579 Y-0.46418
G01 X-0.60595 Y-0.46213
G01 X-0.60595 Y-0.36390
G01 X-0.60581 Y-0.36246
G01 X-0.60517 Y-0.35950
G01 X-0.60400 Y-0.35735
G01 X-0.60156 Y-0.35429
G01 X-0.59910 Y-0.35239
G01 X-0.59283 Y-0.34617
G01 X-0.58765 Y-0.33924
G01 X-0.58336 Y-0.33131
G01 X-0.58038 Y-0.32301
G01 X-0.57866 Y-0.31435
G01 X-0.57824 Y-0.30553
G01 X-0.57912 Y-0.29674
G01 X-0.58130 Y-0.28818
G01 X-0.58471 Y-0.28004
G01 X-0.58929 Y-0.27249
G01 X-0.59493 Y-0.26571
G01 X-0.60167 Y-0.25972
G01 X-0.60891 Y-0.25498
G01 X-0.61693 Y-0.25128
G01 X-0.62541 Y-0.24881
G01 X-0.63416 Y-0.24762
G01 X-0.64299 Y-0.24774
G01 X-0.65170 Y-0.24916
G01 X-0.66011 Y-0.25185
G01 X-0.66803 Y-0.25576
G01 X-0.67529 Y-0.26079
G01 X-0.68172 Y-0.26684
G01 X-0.68717 Y-0.27376
G01 X-0.69198 Y-0.28226
G01 X-0.69464 Y-0.28580
G01 X-0.69568 Y-0.28665
G01 X-0.69685 Y-0.28731
G01 X-0.69940 Y-0.28848
G01 X-0.70081 Y-0.28897
G01 X-0.70229 Y-0.28918
G01 X-0.70378 Y-0.28911
G01 X-0.70800 Y-0.28836
G01 X-0.70935 Y-0.28774
G01 X-0.71268 Y-0.28504
G01 X-0.71371 Y-0.28396
G01 X-0.71452 Y-0.28270
G01 X-0.71586 Y-0.27863
G01 X-0.71618 Y-0.27642
G01 X-0.71627 Y-0.25733
G01 X-0.71755 Y-0.25393
G01 X-0.71964 Y-0.25114
G01 X-0.72244 Y-0.24905
G01 X-0.72583 Y-0.24776
G01 X-0.82431 Y-0.24766
G01 X-0.82534 Y-0.24779
G01 X-0.82875 Y-0.24904
G01 X-0.83154 Y-0.25114
G01 X-0.83364 Y-0.25393
G01 X-0.83488 Y-0.25733
G01 X-0.83502 Y-0.25837
G01 X-0.83502 Y-0.35580
G01 X-0.83488 Y-0.35684
G01 X-0.83364 Y-0.36024
G01 X-0.83154 Y-0.36303
G01 X-0.82874 Y-0.36512
G01 X-0.82535 Y-0.36640
G01 X-0.81942 Y-0.36654
G01 X-0.81652 Y-0.36712
G01 X-0.81527 Y-0.36750
G01 X-0.81410 Y-0.36809
G01 X-0.81305 Y-0.36886
G01 X-0.80990 Y-0.37177
G01 X-0.80910 Y-0.37303
G01 X-0.80854 Y-0.37442
G01 X-0.80752 Y-0.37819
G01 X-0.80744 Y-0.48937
G01 X-0.80777 Y-0.49228
G01 X-0.80851 Y-0.49419
G01 X-0.80985 Y-0.49665
G01 X-0.81119 Y-0.49844
G01 X-0.92201 Y-0.60925
G01 X-0.92429 Y-0.61102
G01 X-0.92637 Y-0.61208
G01 X-0.93026 Y-0.61286
G01 X-0.93175 Y-0.61298
G01 X-0.93323 Y-0.61281
G01 X-0.93466 Y-0.61237
G01 X-0.93856 Y-0.61058
G01 X-0.93971 Y-0.60964
G01 X-0.94068 Y-0.60850
G01 X-0.94299 Y-0.60489
G01 X-0.94345 Y-0.60347
G01 X-0.94373 Y-0.59919
G01 X-0.94368 Y-0.59807
G01 X-0.94305 Y-0.59531
G01 X-0.94256 Y-0.58954
G01 X-0.94255 Y-0.57384
G01 X-0.94397 Y-0.56582
G01 X-0.94661 Y-0.55854
G01 X-0.95044 Y-0.55181
G01 X-0.95536 Y-0.54583
G01 X-0.95862 Y-0.54290
G01 X-0.96021 Y-0.54093
G01 X-0.96114 Y-0.53890
G01 X-0.96193 Y-0.53622
G01 X-0.96225 Y-0.53401
G01 X-0.96225 Y-0.24939
G01 X-0.96205 Y-0.24765
G01 X-0.96156 Y-0.24550
G01 X-0.96118 Y-0.24430
G01 X-0.96062 Y-0.24317
G01 X-0.95779 Y-0.23975
G01 X-0.95307 Y-0.23518
G01 X-0.95040 Y-0.23086
G01 X-0.94874 Y-0.22594
G01 X-0.94847 Y-0.22303
G01 X-0.94847 Y-0.17066
G01 X-0.94873 Y-0.16780
G01 X-0.95038 Y-0.16287
G01 X-0.95307 Y-0.15850
G01 X-0.95670 Y-0.15487
G01 X-0.96107 Y-0.15217
G01 X-0.96599 Y-0.15051
G01 X-0.96889 Y-0.15024
G01 X-0.99961 Y-0.15024
G01 X-1.00247 Y-0.15051
G01 X-1.00740 Y-0.15215
G01 X-1.01178 Y-0.15484
G01 X-1.01542 Y-0.15851
G01 X-1.01755 Y-0.16161
G01 X-1.02097 Y-0.16423
G01 X-1.02226 Y-0.16498
G01 X-1.02367 Y-0.16547
G01 X-1.02794 Y-0.16583
G01 X-1.02943 Y-0.16576
G01 X-1.03089 Y-0.16541
G01 X-1.03467 Y-0.16340
G01 X-1.03643 Y-0.16202
G01 X-1.03950 Y-0.15881
G01 X-1.04507 Y-0.15485
G01 X-1.05129 Y-0.15202
G01 X-1.05793 Y-0.15043
G01 X-1.06475 Y-0.15012
G01 X-1.07149 Y-0.15110
G01 X-1.07814 Y-0.15345
G01 X-1.08387 Y-0.15676
G01 X-1.08902 Y-0.16123
G01 X-1.09324 Y-0.16660
G01 X-1.09637 Y-0.17267
G01 X-1.09829 Y-0.17922
G01 X-1.09878 Y-0.18432
G01 X-1.09876 Y-0.21119
G01 X-1.09746 Y-0.21789
G01 X-1.09491 Y-0.22422
G01 X-1.09117 Y-0.23001
G01 X-1.08712 Y-0.23451
G01 X-1.08610 Y-0.23669
G01 X-1.08531 Y-0.23937
G01 X-1.08500 Y-0.24158
G01 X-1.08508 Y-0.52144
G01 X-1.08555 Y-0.52400
G01 X-1.08595 Y-0.52506
G01 X-1.08804 Y-0.52839
G01 X-1.08898 Y-0.52955
G01 X-1.09012 Y-0.53052
G01 X-1.09142 Y-0.53125
G01 X-1.09503 Y-0.53276
G01 X-1.09644 Y-0.53303
G01 X-1.10384 Y-0.53533
G01 X-1.11074 Y-0.53884
G01 X-1.11696 Y-0.54346
G01 X-1.12230 Y-0.54906
G01 X-1.12515 Y-0.55330
G01 X-1.12785 Y-0.55621
G01 X-1.12987 Y-0.55737
G01 X-1.13247 Y-0.55839
G01 X-1.13390 Y-0.55880
G01 X-1.13539 Y-0.55894
G01 X-1.13962 Y-0.55824
G01 X-1.14105 Y-0.55781
G01 X-1.14237 Y-0.55712
G01 X-1.14354 Y-0.55619
G01 X-1.14630 Y-0.55341
G01 X-1.14730 Y-0.55182
G01 X-1.15221 Y-0.54583
G01 X-1.15805 Y-0.54075
G01 X-1.16467 Y-0.53673
G01 X-1.17188 Y-0.53389
G01 X-1.17946 Y-0.53230
G01 X-1.18720 Y-0.53200
G01 X-1.19487 Y-0.53303
G01 X-1.19810 Y-0.53397
G01 X-1.20163 Y-0.53419
G01 X-1.20305 Y-0.53412
G01 X-1.20443 Y-0.53380
G01 X-1.20819 Y-0.53189
G01 X-1.20998 Y-0.53055
G01 X-1.24196 Y-0.49858
G01 X-1.24319 Y-0.49712
G01 X-1.24403 Y-0.49584
G01 X-1.24539 Y-0.49173
G01 X-1.24571 Y-0.48951
G01 X-1.24571 Y-0.24939
G01 X-1.24551 Y-0.24765
G01 X-1.24503 Y-0.24550
G01 X-1.24465 Y-0.24430
G01 X-1.24408 Y-0.24317
G01 X-1.24125 Y-0.23975
G01 X-1.23654 Y-0.23518
G01 X-1.23386 Y-0.23086
G01 X-1.23222 Y-0.22594
G01 X-1.23193 Y-0.22303
G01 X-1.23193 Y-0.17066
G01 X-1.23220 Y-0.16780
G01 X-1.23385 Y-0.16287
G01 X-1.23654 Y-0.15850
G01 X-1.24017 Y-0.15487
G01 X-1.24453 Y-0.15217
G01 X-1.24945 Y-0.15053
G01 X-1.25236 Y-0.15024
G01 X-1.28308 Y-0.15024
G01 X-1.28594 Y-0.15051
G01 X-1.29086 Y-0.15215
G01 X-1.29524 Y-0.15484
G01 X-1.29889 Y-0.15851
G01 X-1.30102 Y-0.16161
G01 X-1.30216 Y-0.16261
G01 X-1.30573 Y-0.16498
G01 X-1.30714 Y-0.16547
G01 X-1.30861 Y-0.16569
G01 X-1.31290 Y-0.16576
G01 X-1.31435 Y-0.16541
G01 X-1.31571 Y-0.16479
G01 X-1.31906 Y-0.16277
G01 X-1.32296 Y-0.15881
G01 X-1.32853 Y-0.15485
G01 X-1.33475 Y-0.15202
G01 X-1.34139 Y-0.15043
G01 X-1.34821 Y-0.15012
G01 X-1.35497 Y-0.15110
G01 X-1.36142 Y-0.15334
G01 X-1.36733 Y-0.15676
G01 X-1.37249 Y-0.16123
G01 X-1.37671 Y-0.16660
G01 X-1.37983 Y-0.17267
G01 X-1.38175 Y-0.17922
G01 X-1.38224 Y-0.18432
G01 X-1.38224 Y-0.21099
G01 X-1.38092 Y-0.21790
G01 X-1.37837 Y-0.22422
G01 X-1.37463 Y-0.23001
G01 X-1.37059 Y-0.23451
G01 X-1.36957 Y-0.23669
G01 X-1.36878 Y-0.23937
G01 X-1.36846 Y-0.24159
G01 X-1.36856 Y-0.52194
G01 X-1.36743 Y-0.52700
G01 X-1.36515 Y-0.53169
G01 X-1.36147 Y-0.53599
G01 X-1.36015 Y-0.53711
G01 X-1.33284 Y-0.56441
G01 X-1.33161 Y-0.56587
G01 X-1.33077 Y-0.56715
G01 X-1.33020 Y-0.56858
G01 X-1.32941 Y-0.57126
G01 X-1.32909 Y-0.57349
G01 X-1.32910 Y-0.58741
G01 X-1.32923 Y-0.58880
G01 X-1.32960 Y-0.59015
G01 X-1.33058 Y-0.59277
G01 X-1.33123 Y-0.59411
G01 X-1.33212 Y-0.59531
G01 X-1.33546 Y-0.59799
G01 X-1.33674 Y-0.59876
G01 X-1.33814 Y-0.59929
G01 X-1.34240 Y-0.59973
G01 X-1.34390 Y-0.59970
G01 X-1.34536 Y-0.59938
G01 X-1.34918 Y-0.59745
G01 X-1.35097 Y-0.59611
G01 X-1.54117 Y-0.40592
G01 X-1.54239 Y-0.40447
G01 X-1.54347 Y-0.40271
G01 X-1.54461 Y-0.39907
G01 X-1.54492 Y-0.39685
G01 X-1.54489 Y-0.26063
G01 X-1.54452 Y-0.25822
G01 X-1.54268 Y-0.25434
G01 X-1.54138 Y-0.25252
G01 X-1.53912 Y-0.25015
G01 X-1.53478 Y-0.24373
G01 X-1.53160 Y-0.23667
G01 X-1.52966 Y-0.22917
G01 X-1.52917 Y-0.22340
G01 X-1.52917 Y-0.20770
G01 X-1.53058 Y-0.19968
G01 X-1.53323 Y-0.19240
G01 X-1.53706 Y-0.18567
G01 X-1.54197 Y-0.17969
G01 X-1.54782 Y-0.17461
G01 X-1.55444 Y-0.17059
G01 X-1.56164 Y-0.16775
G01 X-1.56880 Y-0.16625
G01 X-1.57696 Y-0.16587
G01 X-1.58464 Y-0.16689
G01 X-1.59203 Y-0.16919
G01 X-1.59893 Y-0.17269
G01 X-1.60515 Y-0.17732
G01 X-1.61049 Y-0.18292
G01 X-1.61334 Y-0.18715
G01 X-1.61604 Y-0.19007
G01 X-1.61805 Y-0.19123
G01 X-1.62065 Y-0.19225
G01 X-1.62209 Y-0.19266
G01 X-1.62358 Y-0.19279
G01 X-1.62781 Y-0.19210
G01 X-1.62924 Y-0.19167
G01 X-1.63056 Y-0.19098
G01 X-1.63173 Y-0.19004
G01 X-1.63449 Y-0.18727
G01 X-1.63549 Y-0.18568
G01 X-1.64039 Y-0.17968
G01 X-1.64624 Y-0.17461
G01 X-1.65286 Y-0.17059
G01 X-1.66007 Y-0.16775
G01 X-1.66764 Y-0.16616
G01 X-1.67538 Y-0.16587
G01 X-1.68306 Y-0.16689
G01 X-1.69027 Y-0.16913
G01 X-1.69737 Y-0.17270
G01 X-1.70357 Y-0.17732
G01 X-1.70891 Y-0.18292
G01 X-1.71176 Y-0.18715
G01 X-1.71447 Y-0.19007
G01 X-1.71648 Y-0.19123
G01 X-1.71908 Y-0.19225
G01 X-1.72052 Y-0.19266
G01 X-1.72201 Y-0.19279
G01 X-1.72623 Y-0.19210
G01 X-1.72766 Y-0.19167
G01 X-1.72899 Y-0.19098
G01 X-1.73016 Y-0.19004
G01 X-1.73291 Y-0.18727
G01 X-1.73391 Y-0.18568
G01 X-1.73882 Y-0.17968
G01 X-1.74467 Y-0.17461
G01 X-1.75129 Y-0.17059
G01 X-1.75849 Y-0.16775
G01 X-1.76607 Y-0.16616
G01 X-1.77381 Y-0.16587
G01 X-1.78149 Y-0.16689
G01 X-1.78888 Y-0.16919
G01 X-1.79578 Y-0.17269
G01 X-1.80201 Y-0.17733
G01 X-1.80627 Y-0.18175
G01 X-1.80788 Y-0.18303
G01 X-1.81136 Y-0.18462
G01 X-1.81278 Y-0.18508
G01 X-1.81427 Y-0.18527
G01 X-1.81851 Y-0.18472
G01 X-1.81996 Y-0.18434
G01 X-1.82130 Y-0.18369
G01 X-1.82250 Y-0.18280
G01 X-1.82536 Y-0.18013
G01 X-1.82906 Y-0.17425
G01 X-1.83269 Y-0.17062
G01 X-1.83705 Y-0.16792
G01 X-1.84197 Y-0.16628
G01 X-1.84488 Y-0.16598
G01 X-1.89528 Y-0.16599
G01 X-1.89814 Y-0.16625
G01 X-1.90307 Y-0.16790
G01 X-1.90744 Y-0.17059
G01 X-1.91107 Y-0.17422
G01 X-1.91378 Y-0.17859
G01 X-1.91541 Y-0.18351
G01 X-1.91570 Y-0.18641
G01 X-1.91570 Y-0.24666
G01 X-1.91542 Y-0.24952
G01 X-1.91379 Y-0.25445
G01 X-1.91105 Y-0.25886
G01 X-1.90609 Y-0.26415
G01 X-1.90545 Y-0.26524
G01 X-1.90500 Y-0.26642
G01 X-1.90397 Y-0.27020
G01 X-1.90389 Y-0.35417
G01 X-1.90405 Y-0.35635
G01 X-1.90334 Y-0.36299
G01 X-1.90160 Y-0.36858
G01 X-1.89865 Y-0.37408
G01 X-1.89438 Y-0.37922
G01 X-1.89284 Y-0.38054
G01 X-1.57989 Y-0.69349
G01 X-1.57867 Y-0.69494
G01 X-1.57760 Y-0.69669
G01 X-1.57622 Y-0.70144
G01 X-1.57614 Y-0.72108
G01 X-1.57633 Y-0.72282
G01 X-1.57720 Y-0.72617
G01 X-1.57776 Y-0.72730
G01 X-1.58060 Y-0.73072
G01 X-1.58530 Y-0.73530
G01 X-1.58799 Y-0.73961
G01 X-1.58963 Y-0.74453
G01 X-1.58992 Y-0.74744
G01 X-1.58992 Y-0.80768
G01 X-1.58964 Y-0.81054
G01 X-1.58800 Y-0.81547
G01 X-1.58531 Y-0.81984
G01 X-1.58168 Y-0.82347
G01 X-1.57732 Y-0.82618
G01 X-1.57239 Y-0.82782
G01 X-1.56949 Y-0.82811
G01 X-1.51909 Y-0.82811
G01 X-1.51622 Y-0.82784
G01 X-1.51130 Y-0.82619
G01 X-1.50693 Y-0.82350
G01 X-1.50327 Y-0.81984
G01 X-1.49963 Y-0.81408
G01 X-1.49804 Y-0.81227
G01 X-1.49467 Y-0.81012
G01 X-1.49332 Y-0.80948
G01 X-1.49188 Y-0.80909
G01 X-1.49039 Y-0.80899
G01 X-1.48611 Y-0.80925
G01 X-1.48469 Y-0.80971
G01 X-1.48338 Y-0.81043
G01 X-1.48019 Y-0.81270
G01 X-1.47869 Y-0.81440
G01 X-1.47284 Y-0.81948
G01 X-1.46623 Y-0.82350
G01 X-1.45902 Y-0.82634
G01 X-1.45145 Y-0.82793
G01 X-1.44371 Y-0.82823
G01 X-1.43603 Y-0.82721
G01 X-1.42864 Y-0.82491
G01 X-1.42173 Y-0.82140
G01 X-1.41552 Y-0.81678
G01 X-1.41018 Y-0.81117
G01 X-1.40733 Y-0.80694
G01 X-1.40462 Y-0.80403
G01 X-1.40261 Y-0.80287
G01 X-1.40001 Y-0.80184
G01 X-1.39857 Y-0.80143
G01 X-1.39709 Y-0.80130
G01 X-1.39286 Y-0.80200
G01 X-1.39143 Y-0.80243
G01 X-1.39010 Y-0.80312
G01 X-1.38894 Y-0.80405
G01 X-1.38617 Y-0.80683
G01 X-1.38518 Y-0.80842
G01 X-1.38027 Y-0.81440
G01 X-1.37442 Y-0.81948
G01 X-1.36780 Y-0.82350
G01 X-1.36060 Y-0.82634
G01 X-1.35302 Y-0.82793
G01 X-1.34528 Y-0.82823
G01 X-1.33760 Y-0.82721
G01 X-1.33021 Y-0.82491
G01 X-1.32331 Y-0.82140
G01 X-1.31709 Y-0.81678
G01 X-1.31175 Y-0.81117
G01 X-1.30890 Y-0.80694
G01 X-1.30620 Y-0.80403
G01 X-1.30419 Y-0.80287
G01 X-1.30159 Y-0.80184
G01 X-1.30015 Y-0.80143
G01 X-1.29866 Y-0.80130
G01 X-1.29443 Y-0.80200
G01 X-1.29300 Y-0.80243
G01 X-1.29168 Y-0.80312
G01 X-1.29051 Y-0.80405
G01 X-1.28775 Y-0.80682
G01 X-1.28675 Y-0.80842
G01 X-1.28184 Y-0.81440
G01 X-1.27599 Y-0.81948
G01 X-1.26937 Y-0.82350
G01 X-1.26217 Y-0.82634
G01 X-1.25459 Y-0.82793
G01 X-1.24686 Y-0.82823
G01 X-1.23918 Y-0.82721
G01 X-1.23178 Y-0.82491
G01 X-1.22488 Y-0.82140
G01 X-1.21867 Y-0.81678
G01 X-1.21332 Y-0.81118
G01 X-1.20900 Y-0.80475
G01 X-1.20582 Y-0.79769
G01 X-1.20387 Y-0.79020
G01 X-1.20339 Y-0.78444
G01 X-1.20342 Y-0.76830
G01 X-1.20480 Y-0.76071
G01 X-1.20744 Y-0.75343
G01 X-1.21127 Y-0.74670
G01 X-1.21503 Y-0.74212
G01 X-1.21599 Y-0.74064
G01 X-1.21741 Y-0.73756
G01 X-1.21961 Y-0.73048
G01 X-1.22260 Y-0.72502
G01 X-1.22666 Y-0.72020
G01 X-1.22822 Y-0.71887
G01 X-1.29198 Y-0.65511
G01 X-1.29280 Y-0.65414
G01 X-1.29485 Y-0.65027
G01 X-1.29558 Y-0.64801
G01 X-1.29560 Y-0.64563
G01 X-1.29485 Y-0.64141
G01 X-1.29423 Y-0.64005
G01 X-1.29337 Y-0.63884
G01 X-1.29045 Y-0.63569
G01 X-1.28920 Y-0.63489
G01 X-1.28513 Y-0.63354
G01 X-1.28292 Y-0.63322
G01 X-1.25826 Y-0.63323
G01 X-1.25540 Y-0.63294
G01 X-1.25047 Y-0.63131
G01 X-1.24610 Y-0.62862
G01 X-1.24244 Y-0.62495
G01 X-1.23880 Y-0.61920
G01 X-1.23721 Y-0.61739
G01 X-1.23384 Y-0.61524
G01 X-1.23250 Y-0.61459
G01 X-1.23105 Y-0.61421
G01 X-1.22677 Y-0.61419
G01 X-1.22528 Y-0.61437
G01 X-1.22386 Y-0.61483
G01 X-1.22255 Y-0.61555
G01 X-1.21937 Y-0.61782
G01 X-1.21787 Y-0.61952
G01 X-1.21202 Y-0.62460
G01 X-1.20540 Y-0.62861
G01 X-1.19820 Y-0.63146
G01 X-1.19062 Y-0.63305
G01 X-1.18288 Y-0.63335
G01 X-1.17520 Y-0.63233
G01 X-1.16781 Y-0.63003
G01 X-1.16090 Y-0.62652
G01 X-1.15469 Y-0.62190
G01 X-1.14935 Y-0.61629
G01 X-1.14650 Y-0.61206
G01 X-1.14379 Y-0.60914
G01 X-1.14179 Y-0.60798
G01 X-1.13918 Y-0.60696
G01 X-1.13775 Y-0.60655
G01 X-1.13626 Y-0.60642
G01 X-1.13203 Y-0.60711
G01 X-1.13060 Y-0.60754
G01 X-1.12928 Y-0.60823
G01 X-1.12811 Y-0.60917
G01 X-1.12535 Y-0.61194
G01 X-1.12435 Y-0.61353
G01 X-1.11944 Y-0.61952
G01 X-1.11359 Y-0.62460
G01 X-1.10697 Y-0.62861
G01 X-1.09995 Y-0.63139
G01 X-1.09218 Y-0.63305
G01 X-1.08446 Y-0.63335
G01 X-1.07678 Y-0.63233
G01 X-1.06938 Y-0.63003
G01 X-1.06248 Y-0.62652
G01 X-1.05627 Y-0.62190
G01 X-1.05092 Y-0.61629
G01 X-1.04807 Y-0.61206
G01 X-1.04537 Y-0.60914
G01 X-1.04336 Y-0.60798
G01 X-1.03932 Y-0.60655
G01 X-1.03784 Y-0.60642
G01 X-1.03635 Y-0.60657
G01 X-1.03218 Y-0.60754
G01 X-1.03085 Y-0.60823
G01 X-1.02968 Y-0.60917
G01 X-1.02692 Y-0.61194
G01 X-1.02592 Y-0.61354
G01 X-1.02102 Y-0.61952
G01 X-1.01517 Y-0.62460
G01 X-1.00855 Y-0.62861
G01 X-1.00135 Y-0.63146
G01 X-0.99377 Y-0.63305
G01 X-0.98600 Y-0.63335
G01 X-0.97639 Y-0.63214
G01 X-0.97513 Y-0.63209
G01 X-0.97388 Y-0.63223
G01 X-0.97005 Y-0.63355
G01 X-0.96871 Y-0.63421
G01 X-0.96751 Y-0.63510
G01 X-0.96483 Y-0.63844
G01 X-0.96405 Y-0.63972
G01 X-0.96353 Y-0.64112
G01 X-0.96328 Y-0.64260
G01 X-0.96312 Y-0.64688
G01 X-0.96344 Y-0.64834
G01 X-0.96403 Y-0.64971
G01 X-0.96597 Y-0.65311
G01 X-1.01314 Y-0.70039
G01 X-1.01481 Y-0.70183
G01 X-1.01877 Y-0.70668
G01 X-1.02187 Y-0.71256
G01 X-1.02351 Y-0.71817
G01 X-1.02391 Y-0.72226
G01 X-1.02417 Y-0.72360
G01 X-1.02503 Y-0.72637
G01 X-1.02631 Y-0.72835
G01 X-1.02801 Y-0.73029
G01 X-1.03315 Y-0.73529
G01 X-1.03582 Y-0.73961
G01 X-1.03746 Y-0.74453
G01 X-1.03775 Y-0.74744
G01 X-1.03775 Y-0.80768
G01 X-1.03747 Y-0.81054
G01 X-1.03584 Y-0.81547
G01 X-1.03314 Y-0.81984
G01 X-1.02952 Y-0.82347
G01 X-1.02515 Y-0.82618
G01 X-1.02023 Y-0.82782
G01 X-1.01733 Y-0.82811
G01 X-0.96692 Y-0.82811
G01 X-0.96406 Y-0.82784
G01 X-0.95913 Y-0.82619
G01 X-0.95476 Y-0.82350
G01 X-0.95110 Y-0.81984
G01 X-0.94746 Y-0.81408
G01 X-0.94588 Y-0.81227
G01 X-0.94250 Y-0.81012
G01 X-0.94116 Y-0.80948
G01 X-0.93971 Y-0.80909
G01 X-0.93822 Y-0.80899
G01 X-0.93395 Y-0.80925
G01 X-0.93252 Y-0.80971
G01 X-0.93121 Y-0.81043
G01 X-0.92803 Y-0.81270
G01 X-0.92653 Y-0.81440
G01 X-0.92068 Y-0.81948
G01 X-0.91407 Y-0.82349
G01 X-0.90667 Y-0.82638
G01 X-0.89928 Y-0.82793
G01 X-0.89154 Y-0.82823
G01 X-0.88387 Y-0.82721
G01 X-0.87647 Y-0.82491
G01 X-0.86957 Y-0.82140
G01 X-0.86335 Y-0.81678
G01 X-0.85801 Y-0.81117
G01 X-0.85516 Y-0.80694
G01 X-0.85246 Y-0.80403
G01 X-0.85045 Y-0.80287
G01 X-0.84784 Y-0.80184
G01 X-0.84641 Y-0.80143
G01 X-0.84492 Y-0.80130
G01 X-0.84069 Y-0.80200
G01 X-0.83926 Y-0.80243
G01 X-0.83794 Y-0.80312
G01 X-0.83677 Y-0.80405
G01 X-0.83401 Y-0.80682
G01 X-0.83301 Y-0.80842
G01 X-0.82810 Y-0.81440
G01 X-0.82225 Y-0.81948
G01 X-0.81563 Y-0.82350
G01 X-0.80843 Y-0.82634
G01 X-0.80085 Y-0.82793
G01 X-0.79312 Y-0.82823
G01 X-0.78544 Y-0.82721
G01 X-0.77804 Y-0.82491
G01 X-0.77114 Y-0.82140
G01 X-0.76493 Y-0.81678
G01 X-0.75958 Y-0.81117
G01 X-0.75674 Y-0.80694
G01 X-0.75403 Y-0.80402
G01 X-0.75202 Y-0.80287
G01 X-0.74942 Y-0.80184
G01 X-0.74798 Y-0.80143
G01 X-0.74650 Y-0.80130
G01 X-0.74227 Y-0.80200
G01 X-0.74084 Y-0.80243
G01 X-0.73952 Y-0.80312
G01 X-0.73835 Y-0.80405
G01 X-0.73559 Y-0.80682
G01 X-0.73459 Y-0.80842
G01 X-0.72968 Y-0.81440
G01 X-0.72383 Y-0.81948
G01 X-0.71721 Y-0.82350
G01 X-0.71001 Y-0.82634
G01 X-0.70243 Y-0.82793
G01 X-0.69469 Y-0.82823
G01 X-0.68701 Y-0.82721
G01 X-0.67962 Y-0.82491
G01 X-0.67271 Y-0.82140
G01 X-0.66650 Y-0.81678
G01 X-0.66116 Y-0.81118
G01 X-0.65683 Y-0.80475
G01 X-0.65365 Y-0.79769
G01 X-0.65170 Y-0.79020
G01 X-0.65122 Y-0.78444
G01 X-0.65126 Y-0.76830
G01 X-0.65263 Y-0.76071
G01 X-0.65528 Y-0.75343
G01 X-0.65911 Y-0.74670
G01 X-0.66402 Y-0.74071
G01 X-0.67037 Y-0.73520
G01 X-0.67278 Y-0.73245
G01 X-0.67374 Y-0.73038
G01 X-0.67453 Y-0.72769
G01 X-0.67485 Y-0.72548
G01 X-0.67480 Y-0.70256
G01 X-0.67437 Y-0.70000
G01 X-0.67377 Y-0.69858
G01 X-0.67183 Y-0.69518
G01 X-0.33711 Y-0.36049
G01 X-0.33432 Y-0.35612
G01 X-0.33262 Y-0.35119
G01 X-0.33218 Y-0.34554
G01 X-0.33232 Y-0.34382
G01 X-0.33228 Y-0.24852
G01 X-0.33164 Y-0.24550
G01 X-0.33126 Y-0.24430
G01 X-0.33070 Y-0.24317
G01 X-0.32787 Y-0.23975
G01 X-0.32315 Y-0.23518
G01 X-0.32048 Y-0.23086
G01 X-0.31884 Y-0.22594
G01 X-0.31854 Y-0.22303
G01 X-0.31977 Y-0.22297
G01 X-0.31975 Y-0.17117
G01 X-0.32008 Y-0.16799
G01 X-0.32164 Y-0.16333
G01 X-0.32420 Y-0.15923
G01 X-0.32755 Y-0.15589
G01 X-0.33165 Y-0.15335
G01 X-0.33629 Y-0.15179
G01 X-0.33888 Y-0.15146
G01 X-0.34056 Y-0.15141
G01 X-0.36959 Y-0.15143
G01 X-0.37233 Y-0.15180
G01 X-0.37559 Y-0.15279
G01 X-0.37758 Y-0.15367
G01 X-0.38100 Y-0.15580
G01 X-0.38446 Y-0.15924
G01 X-0.38818 Y-0.16458
G01 X-0.39153 Y-0.16676
G01 X-0.39329 Y-0.16737
G01 X-0.39513 Y-0.16764
G01 X-0.39792 Y-0.16778
G01 X-0.39979 Y-0.16769
G01 X-0.40160 Y-0.16726
G01 X-0.40393 Y-0.16612
G01 X-0.40742 Y-0.16287
G01 X-0.41047 Y-0.15972
G01 X-0.41572 Y-0.15599
G01 X-0.41674 Y-0.15548
G01 X-0.42184 Y-0.15321
G01 X-0.42811 Y-0.15171
G01 X-0.43469 Y-0.15141
G01 X-0.43780 Y-0.15176
G01 X-0.44272 Y-0.15277
G01 X-0.44743 Y-0.15452
G01 X-0.44941 Y-0.15552
G01 X-0.45314 Y-0.15781
G01 X-0.45543 Y-0.15961
G01 X-0.45812 Y-0.16212
G01 X-0.46039 Y-0.16479
G01 X-0.46225 Y-0.16737
G01 X-0.46514 Y-0.17287
G01 X-0.46714 Y-0.17954
G01 X-0.46768 Y-0.18602
G01 X-0.46765 Y-0.20875
G01 X-0.46753 Y-0.21092
G01 X-0.46668 Y-0.21594
G01 X-0.46624 Y-0.21758
G01 X-0.46428 Y-0.22270
G01 X-0.46170 Y-0.22709
G01 X-0.46046 Y-0.22891
G01 X-0.45459 Y-0.23547
G01 X-0.45410 Y-0.23881
G01 X-0.45390 Y-0.24162
G01 X-0.45390 Y-0.34777
G01 X-0.45398 Y-0.34981
G01 X-0.45450 Y-0.35333
G01 X-0.45802 Y-0.35770
G01 X-0.58402 Y-0.48369
G01 X-0.58667 Y-0.48601
G01 X-0.58948 Y-0.48783
G01 X-0.59058 Y-0.48806
G01 X-0.59335 Y-0.48844
G01 X-0.59521 Y-0.48852
G01 X-0.59706 Y-0.48824
G01 X-0.59882 Y-0.48761
G01 X-0.60135 Y-0.48643
G01 X-0.60296 Y-0.48549
G01 X-0.60436 Y-0.48425
G01 X-0.60550 Y-0.48278
G01 X-0.60699 Y-0.48042
G01 X-0.60779 Y-0.47887
G01 X-0.60830 Y-0.47721
G01 X-0.60847 Y-0.47573
G01 X-0.60761 Y-0.47047
G01 X-0.60705 Y-0.46422
G01 X-0.60712 Y-0.36392
G01 X-0.60688 Y-0.36038
G01 X-0.60632 Y-0.35734
G01 X-0.60565 Y-0.35631
G01 X-0.60363 Y-0.35434
G01 X-0.59958 Y-0.35107
G01 X-0.59386 Y-0.34524
G01 X-0.59133 Y-0.34215
G01 X-0.58880 Y-0.33852
G01 X-0.58454 Y-0.33085
G01 X-0.58172 Y-0.32270
G01 X-0.58106 Y-0.32021
G01 X-0.58005 Y-0.31420
G01 X-0.57957 Y-0.30821
G01 X-0.57955 Y-0.30549
G01 X-0.58058 Y-0.29604
G01 X-0.58261 Y-0.28866
G01 X-0.58417 Y-0.28442
G01 X-0.58595 Y-0.28060
G01 X-0.59028 Y-0.27328
G01 X-0.59593 Y-0.26665
G01 X-0.59964 Y-0.26314
G01 X-0.60249 Y-0.26083
G01 X-0.60949 Y-0.25612
G01 X-0.61734 Y-0.25256
G01 X-0.62082 Y-0.25139
G01 X-0.62573 Y-0.25017
G01 X-0.63065 Y-0.24931
G01 X-0.63431 Y-0.24895
G01 X-0.64292 Y-0.24902
G01 X-0.65140 Y-0.25051
G01 X-0.65478 Y-0.25141
G01 X-0.65958 Y-0.25312
G01 X-0.66596 Y-0.25611
G01 X-0.66744 Y-0.25688
G01 X-0.67444 Y-0.26185
G01 X-0.67753 Y-0.26454
G01 X-0.68067 Y-0.26776
G01 X-0.68553 Y-0.27369
G01 X-0.69056 Y-0.28233
G01 X-0.69241 Y-0.28587
G01 X-0.69340 Y-0.28730
G01 X-0.69458 Y-0.28827
G01 X-0.69859 Y-0.29025
G01 X-0.70035 Y-0.29086
G01 X-0.70219 Y-0.29113
G01 X-0.70406 Y-0.29104
G01 X-0.70682 Y-0.29064
G01 X-0.70863 Y-0.29020
G01 X-0.71033 Y-0.28943
G01 X-0.71185 Y-0.28835
G01 X-0.71396 Y-0.28652
G01 X-0.71525 Y-0.28517
G01 X-0.71625 Y-0.28360
G01 X-0.71677 Y-0.28188
G01 X-0.71736 Y-0.27638
G01 X-0.71736 Y-0.25984
G01 X-0.71749 Y-0.25760
G01 X-0.71864 Y-0.25453
G01 X-0.72053 Y-0.25202
G01 X-0.72304 Y-0.25014
G01 X-0.72601 Y-0.24902
G01 X-0.72835 Y-0.24885
G01 X-0.82283 Y-0.24884
G01 X-0.82507 Y-0.24902
G01 X-0.82827 Y-0.25020
G01 X-0.83065 Y-0.25202
G01 X-0.83246 Y-0.25441
G01 X-0.83362 Y-0.25751
G01 X-0.83380 Y-0.25845
G01 X-0.83379 Y-0.35582
G01 X-0.83362 Y-0.35666
G01 X-0.83246 Y-0.35976
G01 X-0.83065 Y-0.36215
G01 X-0.82826 Y-0.36395
G01 X-0.82497 Y-0.36520
G01 X-0.81818 Y-0.36543
G01 X-0.81616 Y-0.36565
G01 X-0.81323 Y-0.36635
G01 X-0.81177 Y-0.36738
G01 X-0.80966 Y-0.36922
G01 X-0.80837 Y-0.37056
G01 X-0.80737 Y-0.37213
G01 X-0.80685 Y-0.37385
G01 X-0.80626 Y-0.37935
G01 X-0.80626 Y-0.48936
G01 X-0.80634 Y-0.49140
G01 X-0.80686 Y-0.49492
G01 X-0.81038 Y-0.49929
G01 X-0.92117 Y-0.61007
G01 X-0.92350 Y-0.61214
G01 X-0.92645 Y-0.61411
G01 X-0.92992 Y-0.61478
G01 X-0.93178 Y-0.61493
G01 X-0.93363 Y-0.61472
G01 X-0.93541 Y-0.61417
G01 X-0.93799 Y-0.61309
G01 X-0.93964 Y-0.61221
G01 X-0.94108 Y-0.61103
G01 X-0.94228 Y-0.60960
G01 X-0.94387 Y-0.60730
G01 X-0.94478 Y-0.60567
G01 X-0.94536 Y-0.60390
G01 X-0.94558 Y-0.60212
G01 X-0.94433 Y-0.59502
G01 X-0.94381 Y-0.58954
G01 X-0.94373 Y-0.57775
G01 X-0.94393 Y-0.57372
G01 X-0.94452 Y-0.56956
G01 X-0.94524 Y-0.56619
G01 X-0.94774 Y-0.55913
G01 X-0.95151 Y-0.55254
G01 X-0.95627 Y-0.54681
G01 X-0.96068 Y-0.54271
G01 X-0.96254 Y-0.54073
G01 X-0.96322 Y-0.53678
G01 X-0.96342 Y-0.53397
G01 X-0.96342 Y-0.24942
G01 X-0.96306 Y-0.24510
G01 X-0.96258 Y-0.24273
G01 X-0.96229 Y-0.24216
G01 X-0.96142 Y-0.24096
G01 X-0.95736 Y-0.23764
G01 X-0.95411 Y-0.23445
G01 X-0.95158 Y-0.23040
G01 X-0.95001 Y-0.22574
G01 X-0.94964 Y-0.22146
G01 X-0.94964 Y-0.17222
G01 X-0.94996 Y-0.16815
G01 X-0.95149 Y-0.16348
G01 X-0.95402 Y-0.15936
G01 X-0.95747 Y-0.15589
G01 X-0.96167 Y-0.15330
G01 X-0.96621 Y-0.15181
G01 X-0.96898 Y-0.15143
G01 X-0.99804 Y-0.15141
G01 X-1.00225 Y-0.15178
G01 X-1.00690 Y-0.15334
G01 X-1.01101 Y-0.15587
G01 X-1.01438 Y-0.15924
G01 X-1.01810 Y-0.16458
G01 X-1.01983 Y-0.16582
G01 X-1.02145 Y-0.16676
G01 X-1.02321 Y-0.16737
G01 X-1.02505 Y-0.16764
G01 X-1.02784 Y-0.16778
G01 X-1.02971 Y-0.16769
G01 X-1.03152 Y-0.16726
G01 X-1.03385 Y-0.16612
G01 X-1.04068 Y-0.15952
G01 X-1.04576 Y-0.15591
G01 X-1.05163 Y-0.15325
G01 X-1.05835 Y-0.15167
G01 X-1.06461 Y-0.15142
G01 X-1.06767 Y-0.15174
G01 X-1.07120 Y-0.15238
G01 X-1.07473 Y-0.15348
G01 X-1.07754 Y-0.15462
G01 X-1.07933 Y-0.15553
G01 X-1.08315 Y-0.15785
G01 X-1.08695 Y-0.16105
G01 X-1.09035 Y-0.16483
G01 X-1.09217 Y-0.16737
G01 X-1.09509 Y-0.17291
G01 X-1.09703 Y-0.17940
G01 X-1.09757 Y-0.18492
G01 X-1.09760 Y-0.20770
G01 X-1.09745 Y-0.21102
G01 X-1.09705 Y-0.21379
G01 X-1.09617 Y-0.21757
G01 X-1.09501 Y-0.22076
G01 X-1.09372 Y-0.22368
G01 X-1.09014 Y-0.22921
G01 X-1.08451 Y-0.23547
G01 X-1.08402 Y-0.23881
G01 X-1.08382 Y-0.24162
G01 X-1.08382 Y-0.52026
G01 X-1.08398 Y-0.52311
G01 X-1.08465 Y-0.52673
G01 X-1.08641 Y-0.52946
G01 X-1.08758 Y-0.53092
G01 X-1.08901 Y-0.53212
G01 X-1.09038 Y-0.53283
G01 X-1.10138 Y-0.53584
G01 X-1.10339 Y-0.53660
G01 X-1.11006 Y-0.53992
G01 X-1.11606 Y-0.54436
G01 X-1.11720 Y-0.54549
G01 X-1.12128 Y-0.54990
G01 X-1.12500 Y-0.55531
G01 X-1.12721 Y-0.55812
G01 X-1.12915 Y-0.55919
G01 X-1.13175 Y-0.56021
G01 X-1.13355 Y-0.56072
G01 X-1.13540 Y-0.56089
G01 X-1.13726 Y-0.56070
G01 X-1.14000 Y-0.56015
G01 X-1.14179 Y-0.55962
G01 X-1.14344 Y-0.55875
G01 X-1.14458 Y-0.55785
G01 X-1.14647 Y-0.55544
G01 X-1.14841 Y-0.55248
G01 X-1.14973 Y-0.55077
G01 X-1.15313 Y-0.54680
G01 X-1.15610 Y-0.54403
G01 X-1.15889 Y-0.54183
G01 X-1.16372 Y-0.53874
G01 X-1.16533 Y-0.53791
G01 X-1.17028 Y-0.53582
G01 X-1.17233 Y-0.53510
G01 X-1.17954 Y-0.53357
G01 X-1.18707 Y-0.53333
G01 X-1.19074 Y-0.53369
G01 X-1.19454 Y-0.53434
G01 X-1.20216 Y-0.53611
G01 X-1.20332 Y-0.53605
G01 X-1.20568 Y-0.53538
G01 X-1.20871 Y-0.53320
G01 X-1.21084 Y-0.53136
G01 X-1.24278 Y-0.49942
G01 X-1.24417 Y-0.49791
G01 X-1.24629 Y-0.49506
G01 X-1.24669 Y-0.49229
G01 X-1.24689 Y-0.48948
G01 X-1.24689 Y-0.24942
G01 X-1.24652 Y-0.24510
G01 X-1.24604 Y-0.24273
G01 X-1.24575 Y-0.24216
G01 X-1.24488 Y-0.24096
G01 X-1.24078 Y-0.23761
G01 X-1.23747 Y-0.23432
G01 X-1.23497 Y-0.23025
G01 X-1.23343 Y-0.22559
G01 X-1.23311 Y-0.22146
G01 X-1.23313 Y-0.17117
G01 X-1.23346 Y-0.16799
G01 X-1.23449 Y-0.16480
G01 X-1.23539 Y-0.16270
G01 X-1.23758 Y-0.15922
G01 X-1.24079 Y-0.15603
G01 X-1.24261 Y-0.15475
G01 X-1.24514 Y-0.15332
G01 X-1.24854 Y-0.15210
G01 X-1.25070 Y-0.15164
G01 X-1.25394 Y-0.15141
G01 X-1.28205 Y-0.15142
G01 X-1.28477 Y-0.15165
G01 X-1.28693 Y-0.15213
G01 X-1.29036 Y-0.15334
G01 X-1.29447 Y-0.15587
G01 X-1.29784 Y-0.15924
G01 X-1.30156 Y-0.16458
G01 X-1.30491 Y-0.16676
G01 X-1.30667 Y-0.16737
G01 X-1.30852 Y-0.16764
G01 X-1.31131 Y-0.16778
G01 X-1.31317 Y-0.16769
G01 X-1.31499 Y-0.16726
G01 X-1.31668 Y-0.16648
G01 X-1.31731 Y-0.16612
G01 X-1.31906 Y-0.16454
G01 X-1.32386 Y-0.15972
G01 X-1.32910 Y-0.15599
G01 X-1.33523 Y-0.15321
G01 X-1.34181 Y-0.15167
G01 X-1.34905 Y-0.15148
G01 X-1.35460 Y-0.15237
G01 X-1.35815 Y-0.15346
G01 X-1.36091 Y-0.15456
G01 X-1.36471 Y-0.15662
G01 X-1.36660 Y-0.15787
G01 X-1.36877 Y-0.15959
G01 X-1.37158 Y-0.16218
G01 X-1.37509 Y-0.16656
G01 X-1.37758 Y-0.17093
G01 X-1.37866 Y-0.17323
G01 X-1.38051 Y-0.17940
G01 X-1.38106 Y-0.18602
G01 X-1.38106 Y-0.20768
G01 X-1.38093 Y-0.21082
G01 X-1.38049 Y-0.21383
G01 X-1.37966 Y-0.21749
G01 X-1.37848 Y-0.22077
G01 X-1.37717 Y-0.22368
G01 X-1.37388 Y-0.22887
G01 X-1.36798 Y-0.23547
G01 X-1.36749 Y-0.23881
G01 X-1.36728 Y-0.24162
G01 X-1.36727 Y-0.52182
G01 X-1.36620 Y-0.52655
G01 X-1.36532 Y-0.52860
G01 X-1.36404 Y-0.53101
G01 X-1.36191 Y-0.53363
G01 X-1.36064 Y-0.53505
G01 X-1.33202 Y-0.56357
G01 X-1.33063 Y-0.56508
G01 X-1.32851 Y-0.56793
G01 X-1.32812 Y-0.57070
G01 X-1.32791 Y-0.57352
G01 X-1.32792 Y-0.58737
G01 X-1.32824 Y-0.59089
G01 X-1.32875 Y-0.59345
G01 X-1.32956 Y-0.59513
G01 X-1.33068 Y-0.59662
G01 X-1.33206 Y-0.59788
G01 X-1.33430 Y-0.59955
G01 X-1.33589 Y-0.60052
G01 X-1.33764 Y-0.60117
G01 X-1.33948 Y-0.60148
G01 X-1.34226 Y-0.60168
G01 X-1.34413 Y-0.60164
G01 X-1.34594 Y-0.60124
G01 X-1.34753 Y-0.60039
G01 X-1.35183 Y-0.59692
G01 X-1.54199 Y-0.40676
G01 X-1.54338 Y-0.40525
G01 X-1.54550 Y-0.40240
G01 X-1.54610 Y-0.39682
G01 X-1.54604 Y-0.25958
G01 X-1.54546 Y-0.25565
G01 X-1.54226 Y-0.25161
G01 X-1.54014 Y-0.24931
G01 X-1.53820 Y-0.24666
G01 X-1.53600 Y-0.24311
G01 X-1.53467 Y-0.24053
G01 X-1.53286 Y-0.23617
G01 X-1.53159 Y-0.23179
G01 X-1.53093 Y-0.22888
G01 X-1.53038 Y-0.22253
G01 X-1.53035 Y-0.21159
G01 X-1.53054 Y-0.20758
G01 X-1.53153 Y-0.20136
G01 X-1.53189 Y-0.19997
G01 X-1.53441 Y-0.19287
G01 X-1.53808 Y-0.18647
G01 X-1.53952 Y-0.18458
G01 X-1.54289 Y-0.18067
G01 X-1.54425 Y-0.17932
G01 X-1.54859 Y-0.17573
G01 X-1.55353 Y-0.17258
G01 X-1.55509 Y-0.17177
G01 X-1.55999 Y-0.16970
G01 X-1.56209 Y-0.16896
G01 X-1.56900 Y-0.16749
G01 X-1.57129 Y-0.16730
G01 X-1.57692 Y-0.16720
G01 X-1.58050 Y-0.16755
G01 X-1.58438 Y-0.16822
G01 X-1.58753 Y-0.16904
G01 X-1.59150 Y-0.17042
G01 X-1.59608 Y-0.17260
G01 X-1.59831 Y-0.17384
G01 X-1.60425 Y-0.17822
G01 X-1.60539 Y-0.17935
G01 X-1.60947 Y-0.18376
G01 X-1.61319 Y-0.18918
G01 X-1.61540 Y-0.19198
G01 X-1.61734 Y-0.19304
G01 X-1.61994 Y-0.19407
G01 X-1.62173 Y-0.19458
G01 X-1.62359 Y-0.19475
G01 X-1.62545 Y-0.19456
G01 X-1.62819 Y-0.19401
G01 X-1.62997 Y-0.19348
G01 X-1.63163 Y-0.19261
G01 X-1.63277 Y-0.19170
G01 X-1.63465 Y-0.18929
G01 X-1.63655 Y-0.18640
G01 X-1.63792 Y-0.18463
G01 X-1.64137 Y-0.18060
G01 X-1.64268 Y-0.17932
G01 X-1.64708 Y-0.17568
G01 X-1.65009 Y-0.17366
G01 X-1.65344 Y-0.17180
G01 X-1.66038 Y-0.16898
G01 X-1.66772 Y-0.16744
G01 X-1.67526 Y-0.16720
G01 X-1.67684 Y-0.16730
G01 X-1.68273 Y-0.16820
G01 X-1.68795 Y-0.16968
G01 X-1.68982 Y-0.17039
G01 X-1.69640 Y-0.17363
G01 X-1.70278 Y-0.17830
G01 X-1.70381 Y-0.17935
G01 X-1.70789 Y-0.18376
G01 X-1.71162 Y-0.18918
G01 X-1.71382 Y-0.19198
G01 X-1.71577 Y-0.19304
G01 X-1.71837 Y-0.19407
G01 X-1.72016 Y-0.19458
G01 X-1.72202 Y-0.19475
G01 X-1.72387 Y-0.19456
G01 X-1.72662 Y-0.19401
G01 X-1.72840 Y-0.19348
G01 X-1.73005 Y-0.19261
G01 X-1.73119 Y-0.19170
G01 X-1.73308 Y-0.18929
G01 X-1.73503 Y-0.18633
G01 X-1.73634 Y-0.18463
G01 X-1.73979 Y-0.18060
G01 X-1.74272 Y-0.17790
G01 X-1.74544 Y-0.17573
G01 X-1.74852 Y-0.17366
G01 X-1.75194 Y-0.17177
G01 X-1.75881 Y-0.16899
G01 X-1.76628 Y-0.16741
G01 X-1.77368 Y-0.16720
G01 X-1.77735 Y-0.16753
G01 X-1.78115 Y-0.16820
G01 X-1.78433 Y-0.16903
G01 X-1.78836 Y-0.17041
G01 X-1.79483 Y-0.17363
G01 X-1.80055 Y-0.17780
G01 X-1.80222 Y-0.17932
G01 X-1.80532 Y-0.18265
G01 X-1.80845 Y-0.18548
G01 X-1.81236 Y-0.18699
G01 X-1.81421 Y-0.18722
G01 X-1.81607 Y-0.18709
G01 X-1.81883 Y-0.18664
G01 X-1.82063 Y-0.18617
G01 X-1.82231 Y-0.18536
G01 X-1.82381 Y-0.18425
G01 X-1.82563 Y-0.18262
G01 X-1.82791 Y-0.17846
G01 X-1.83000 Y-0.17510
G01 X-1.83345 Y-0.17164
G01 X-1.83766 Y-0.16905
G01 X-1.84230 Y-0.16754
G01 X-1.84488 Y-0.16718
G01 X-1.89425 Y-0.16717
G01 X-1.89782 Y-0.16750
G01 X-1.90257 Y-0.16909
G01 X-1.90667 Y-0.17162
G01 X-1.91003 Y-0.17495
G01 X-1.91260 Y-0.17905
G01 X-1.91416 Y-0.18370
G01 X-1.91453 Y-0.18797
G01 X-1.91453 Y-0.24510
G01 X-1.91416 Y-0.24932
G01 X-1.91262 Y-0.25399
G01 X-1.91000 Y-0.25816
G01 X-1.90691 Y-0.26129
G01 X-1.90394 Y-0.26396
G01 X-1.90347 Y-0.26497
G01 X-1.90292 Y-0.26854
G01 X-1.90272 Y-0.27135
G01 X-1.90279 Y-0.35640
G01 X-1.90210 Y-0.36281
G01 X-1.90046 Y-0.36802
G01 X-1.89998 Y-0.36901
G01 X-1.89756 Y-0.37344
G01 X-1.89353 Y-0.37829
G01 X-1.57907 Y-0.69265
G01 X-1.57768 Y-0.69415
G01 X-1.57556 Y-0.69701
G01 X-1.57516 Y-0.69978
G01 X-1.57496 Y-0.70259
G01 X-1.57496 Y-0.72105
G01 X-1.57532 Y-0.72537
G01 X-1.57581 Y-0.72774
G01 X-1.57696 Y-0.72951
G01 X-1.58107 Y-0.73286
G01 X-1.58437 Y-0.73616
G01 X-1.58686 Y-0.74023
G01 X-1.58839 Y-0.74472
G01 X-1.58874 Y-0.74901
G01 X-1.58871 Y-0.80720
G01 X-1.58843 Y-0.81020
G01 X-1.58689 Y-0.81486
G01 X-1.58436 Y-0.81899
G01 X-1.58266 Y-0.82080
G01 X-1.58092 Y-0.82245
G01 X-1.57681 Y-0.82498
G01 X-1.57217 Y-0.82653
G01 X-1.56940 Y-0.82692
G01 X-1.52066 Y-0.82693
G01 X-1.51655 Y-0.82659
G01 X-1.51180 Y-0.82501
G01 X-1.50748 Y-0.82229
G01 X-1.50420 Y-0.81898
G01 X-1.50211 Y-0.81565
G01 X-1.49980 Y-0.81127
G01 X-1.49930 Y-0.81078
G01 X-1.49568 Y-0.80845
G01 X-1.49400 Y-0.80764
G01 X-1.49220 Y-0.80717
G01 X-1.49033 Y-0.80704
G01 X-1.48754 Y-0.80712
G01 X-1.48569 Y-0.80734
G01 X-1.48392 Y-0.80792
G01 X-1.48268 Y-0.80860
G01 X-1.48037 Y-0.81071
G01 X-1.47641 Y-0.81477
G01 X-1.47201 Y-0.81841
G01 X-1.46714 Y-0.82151
G01 X-1.46558 Y-0.82232
G01 X-1.46063 Y-0.82440
G01 X-1.45858 Y-0.82513
G01 X-1.45123 Y-0.82669
G01 X-1.44383 Y-0.82689
G01 X-1.44017 Y-0.82655
G01 X-1.43629 Y-0.82587
G01 X-1.43109 Y-0.82441
G01 X-1.42909 Y-0.82364
G01 X-1.42242 Y-0.82031
G01 X-1.41642 Y-0.81587
G01 X-1.41528 Y-0.81475
G01 X-1.41119 Y-0.81034
G01 X-1.40748 Y-0.80492
G01 X-1.40527 Y-0.80211
G01 X-1.40333 Y-0.80105
G01 X-1.40073 Y-0.80003
G01 X-1.39893 Y-0.79951
G01 X-1.39708 Y-0.79934
G01 X-1.39522 Y-0.79953
G01 X-1.39248 Y-0.80008
G01 X-1.39069 Y-0.80062
G01 X-1.38904 Y-0.80148
G01 X-1.38790 Y-0.80239
G01 X-1.38601 Y-0.80480
G01 X-1.38407 Y-0.80776
G01 X-1.38275 Y-0.80947
G01 X-1.37930 Y-0.81349
G01 X-1.37637 Y-0.81620
G01 X-1.37366 Y-0.81836
G01 X-1.37057 Y-0.82043
G01 X-1.36715 Y-0.82233
G01 X-1.36029 Y-0.82511
G01 X-1.35281 Y-0.82667
G01 X-1.34533 Y-0.82690
G01 X-1.34174 Y-0.82654
G01 X-1.33794 Y-0.82589
G01 X-1.33267 Y-0.82440
G01 X-1.33066 Y-0.82364
G01 X-1.32620 Y-0.82152
G01 X-1.32393 Y-0.82025
G01 X-1.31788 Y-0.81579
G01 X-1.31277 Y-0.81034
G01 X-1.30905 Y-0.80492
G01 X-1.30684 Y-0.80211
G01 X-1.30490 Y-0.80105
G01 X-1.30230 Y-0.80003
G01 X-1.30051 Y-0.79951
G01 X-1.29865 Y-0.79934
G01 X-1.29679 Y-0.79953
G01 X-1.29405 Y-0.80008
G01 X-1.29227 Y-0.80062
G01 X-1.29061 Y-0.80148
G01 X-1.28948 Y-0.80239
G01 X-1.28759 Y-0.80480
G01 X-1.28564 Y-0.80776
G01 X-1.28432 Y-0.80947
G01 X-1.28092 Y-0.81343
G01 X-1.27791 Y-0.81623
G01 X-1.27516 Y-0.81841
G01 X-1.27029 Y-0.82152
G01 X-1.26873 Y-0.82233
G01 X-1.26186 Y-0.82510
G01 X-1.25438 Y-0.82667
G01 X-1.24699 Y-0.82689
G01 X-1.24540 Y-0.82680
G01 X-1.23952 Y-0.82589
G01 X-1.23629 Y-0.82506
G01 X-1.23232 Y-0.82367
G01 X-1.22777 Y-0.82152
G01 X-1.22550 Y-0.82025
G01 X-1.21956 Y-0.81588
G01 X-1.21434 Y-0.81034
G01 X-1.21242 Y-0.80768
G01 X-1.21016 Y-0.80407
G01 X-1.20886 Y-0.80151
G01 X-1.20707 Y-0.79719
G01 X-1.20579 Y-0.79276
G01 X-1.20515 Y-0.78990
G01 X-1.20459 Y-0.78355
G01 X-1.20457 Y-0.77261
G01 X-1.20478 Y-0.76837
G01 X-1.20574 Y-0.76238
G01 X-1.20796 Y-0.75556
G01 X-1.20863 Y-0.75389
G01 X-1.21233 Y-0.74742
G01 X-1.21602 Y-0.74295
G01 X-1.21813 Y-0.74008
G01 X-1.21915 Y-0.73606
G01 X-1.22079 Y-0.73090
G01 X-1.22361 Y-0.72579
G01 X-1.22659 Y-0.72217
G01 X-1.29278 Y-0.65597
G01 X-1.29484 Y-0.65355
G01 X-1.29663 Y-0.65107
G01 X-1.29716 Y-0.64976
G01 X-1.29751 Y-0.64832
G01 X-1.29764 Y-0.64684
G01 X-1.29754 Y-0.64535
G01 X-1.29714 Y-0.64258
G01 X-1.29670 Y-0.64077
G01 X-1.29592 Y-0.63908
G01 X-1.29484 Y-0.63756
G01 X-1.29301 Y-0.63545
G01 X-1.29166 Y-0.63416
G01 X-1.29010 Y-0.63315
G01 X-1.28838 Y-0.63264
G01 X-1.28288 Y-0.63205
G01 X-1.25829 Y-0.63203
G01 X-1.25562 Y-0.63166
G01 X-1.25107 Y-0.63018
G01 X-1.24687 Y-0.62759
G01 X-1.24347 Y-0.62422
G01 X-1.24128 Y-0.62077
G01 X-1.23897 Y-0.61639
G01 X-1.23847 Y-0.61589
G01 X-1.23485 Y-0.61357
G01 X-1.23317 Y-0.61276
G01 X-1.23137 Y-0.61229
G01 X-1.22951 Y-0.61216
G01 X-1.22671 Y-0.61223
G01 X-1.22486 Y-0.61246
G01 X-1.22309 Y-0.61304
G01 X-1.22186 Y-0.61372
G01 X-1.21955 Y-0.61583
G01 X-1.21558 Y-0.61989
G01 X-1.21119 Y-0.62353
G01 X-1.20816 Y-0.62553
G01 X-1.20482 Y-0.62741
G01 X-1.19788 Y-0.63021
G01 X-1.19054 Y-0.63178
G01 X-1.18860 Y-0.63191
G01 X-1.18293 Y-0.63202
G01 X-1.17934 Y-0.63166
G01 X-1.17546 Y-0.63099
G01 X-1.17231 Y-0.63018
G01 X-1.16834 Y-0.62879
G01 X-1.16159 Y-0.62543
G01 X-1.15559 Y-0.62099
G01 X-1.15447 Y-0.61989
G01 X-1.15037 Y-0.61545
G01 X-1.14665 Y-0.61004
G01 X-1.14444 Y-0.60723
G01 X-1.14250 Y-0.60617
G01 X-1.13990 Y-0.60514
G01 X-1.13811 Y-0.60463
G01 X-1.13625 Y-0.60446
G01 X-1.13439 Y-0.60465
G01 X-1.13165 Y-0.60520
G01 X-1.12986 Y-0.60574
G01 X-1.12821 Y-0.60660
G01 X-1.12707 Y-0.60751
G01 X-1.12519 Y-0.60991
G01 X-1.12324 Y-0.61288
G01 X-1.12192 Y-0.61459
G01 X-1.11847 Y-0.61860
G01 X-1.11555 Y-0.62131
G01 X-1.11283 Y-0.62348
G01 X-1.10789 Y-0.62663
G01 X-1.10632 Y-0.62744
G01 X-1.09952 Y-0.63019
G01 X-1.09196 Y-0.63179
G01 X-1.08450 Y-0.63202
G01 X-1.08092 Y-0.63166
G01 X-1.07711 Y-0.63101
G01 X-1.07389 Y-0.63018
G01 X-1.06984 Y-0.62876
G01 X-1.06347 Y-0.62562
G01 X-1.05716 Y-0.62099
G01 X-1.05602 Y-0.61987
G01 X-1.05194 Y-0.61545
G01 X-1.04822 Y-0.61004
G01 X-1.04602 Y-0.60723
G01 X-1.04408 Y-0.60617
G01 X-1.04147 Y-0.60514
G01 X-1.03968 Y-0.60463
G01 X-1.03782 Y-0.60446
G01 X-1.03597 Y-0.60465
G01 X-1.03323 Y-0.60520
G01 X-1.03144 Y-0.60574
G01 X-1.02979 Y-0.60660
G01 X-1.02865 Y-0.60751
G01 X-1.02676 Y-0.60991
G01 X-1.02482 Y-0.61288
G01 X-1.02347 Y-0.61462
G01 X-1.02010 Y-0.61854
G01 X-1.01873 Y-0.61989
G01 X-1.01433 Y-0.62353
G01 X-1.01131 Y-0.62553
G01 X-1.00790 Y-0.62744
G01 X-1.00103 Y-0.63021
G01 X-0.99356 Y-0.63179
G01 X-0.98612 Y-0.63201
G01 X-0.98463 Y-0.63193
G01 X-0.97350 Y-0.63032
G01 X-0.96937 Y-0.63172
G01 X-0.96769 Y-0.63254
G01 X-0.96620 Y-0.63366
G01 X-0.96495 Y-0.63504
G01 X-0.96327 Y-0.63727
G01 X-0.96230 Y-0.63887
G01 X-0.96165 Y-0.64062
G01 X-0.96134 Y-0.64246
G01 X-0.96114 Y-0.64524
G01 X-0.96118 Y-0.64711
G01 X-0.96158 Y-0.64892
G01 X-0.96243 Y-0.65051
G01 X-0.96590 Y-0.65481
G01 X-1.01387 Y-0.70268
G01 X-1.01646 Y-0.70572
G01 X-1.01768 Y-0.70736
G01 X-1.01905 Y-0.70976
G01 X-1.02109 Y-0.71418
G01 X-1.02226 Y-0.71844
G01 X-1.02316 Y-0.72577
G01 X-1.02361 Y-0.72784
G01 X-1.02473 Y-0.72949
G01 X-1.02887 Y-0.73283
G01 X-1.03212 Y-0.73601
G01 X-1.03463 Y-0.74008
G01 X-1.03522 Y-0.74160
G01 X-1.03624 Y-0.74488
G01 X-1.03658 Y-0.74899
G01 X-1.03658 Y-0.80613
G01 X-1.03626 Y-0.81020
G01 X-1.03473 Y-0.81486
G01 X-1.03220 Y-0.81899
G01 X-1.02875 Y-0.82245
G01 X-1.02465 Y-0.82500
G01 X-1.02000 Y-0.82653
G01 X-1.01724 Y-0.82691
G01 X-0.96849 Y-0.82693
G01 X-0.96438 Y-0.82659
G01 X-0.95963 Y-0.82501
G01 X-0.95531 Y-0.82229
G01 X-0.95204 Y-0.81898
G01 X-0.94992 Y-0.81561
G01 X-0.94764 Y-0.81127
G01 X-0.94713 Y-0.81078
G01 X-0.94351 Y-0.80845
G01 X-0.94183 Y-0.80764
G01 X-0.94003 Y-0.80717
G01 X-0.93817 Y-0.80704
G01 X-0.93537 Y-0.80712
G01 X-0.93352 Y-0.80734
G01 X-0.93175 Y-0.80792
G01 X-0.93052 Y-0.80860
G01 X-0.92821 Y-0.81072
G01 X-0.92421 Y-0.81481
G01 X-0.91985 Y-0.81841
G01 X-0.91497 Y-0.82151
G01 X-0.91343 Y-0.82232
G01 X-0.90845 Y-0.82439
G01 X-0.90630 Y-0.82515
G01 X-0.89907 Y-0.82669
G01 X-0.89167 Y-0.82689
G01 X-0.88800 Y-0.82655
G01 X-0.88412 Y-0.82587
G01 X-0.87892 Y-0.82441
G01 X-0.87692 Y-0.82364
G01 X-0.87025 Y-0.82031
G01 X-0.86425 Y-0.81587
G01 X-0.86311 Y-0.81475
G01 X-0.85903 Y-0.81034
G01 X-0.85531 Y-0.80492
G01 X-0.85310 Y-0.80211
G01 X-0.85116 Y-0.80105
G01 X-0.84856 Y-0.80003
G01 X-0.84677 Y-0.79951
G01 X-0.84491 Y-0.79934
G01 X-0.84305 Y-0.79953
